;FLAVOR:Marlin
;TIME:413
;Filament used: 0.330295m
;Layer height: 0.1
;Generated with Cura_SteamEngine 3.6.0
M140 S60
M105
M190 S60
M104 S200
M105
M109 S200
M82 ;absolute extrusion mode
G21 ;metric values
G90 ;absolute positioning
M82 ;set extruder to absolute mode
M107 ;start with the fan off
G28 X0 Y0 ;move X/Y to min endstops
G28 Z0 ;move Z to min endstops
G1 Z15.0 F9000 ;move the platform down 15mm
G92 E0 ;zero the extruded length
G1 F200 E3 ;extrude 3mm of feed stock
G92 E0 ;zero the extruded length again
G1 F9000
;Put printing message on LCD screen
M117 Printing...
G92 E0
G1 F1500 E-6.5
;LAYER_COUNT:17
;LAYER:0
M107
G0 F3600 X60.17 Y91.508 Z0.3
;TYPE:SKIRT
G1 F1500 E0
G1 F1800 X60.861 Y91.124 E0.03944
G1 X61.586 Y90.812 E0.07882
G1 X62.339 Y90.575 E0.1182
G1 X63.113 Y90.416 E0.15762
G1 X63.898 Y90.335 E0.19699
G1 X64.3 Y90.325 E0.21706
G1 X85.675 Y90.325 E1.28346
G1 X86.464 Y90.365 E1.32287
G1 X87.244 Y90.484 E1.36224
G1 X88.009 Y90.682 E1.40166
G1 X88.749 Y90.956 E1.44103
G1 X89.458 Y91.304 E1.48043
G1 X90.129 Y91.722 E1.51987
G1 X90.753 Y92.205 E1.55924
G1 X91.192 Y92.621 E1.58942
G1 X108.809 Y92.621 E2.46833
G1 X108.948 Y92.474 E2.47842
G1 X109.547 Y91.959 E2.51784
G1 X110.195 Y91.508 E2.55722
G1 X110.886 Y91.124 E2.59666
G1 X111.611 Y90.812 E2.63604
G1 X112.364 Y90.575 E2.67542
G1 X113.138 Y90.416 E2.71485
G1 X113.923 Y90.335 E2.75422
G1 X114.325 Y90.325 E2.77428
G1 X135.7 Y90.325 E3.84068
G1 X136.489 Y90.365 E3.8801
G1 X137.269 Y90.484 E3.91946
G1 X138.034 Y90.682 E3.95889
G1 X138.774 Y90.956 E3.99825
G1 X139.483 Y91.304 E4.03766
G1 X140.154 Y91.722 E4.0771
G1 X140.778 Y92.205 E4.11647
G1 X141.351 Y92.748 E4.15585
G1 X141.866 Y93.347 E4.19526
G1 X142.317 Y93.995 E4.23465
G1 X142.701 Y94.686 E4.27409
G1 X143.013 Y95.411 E4.31347
G1 X143.25 Y96.164 E4.35285
G1 X143.409 Y96.938 E4.39227
G1 X143.49 Y97.723 E4.43164
G1 X143.5 Y98.125 E4.45171
G1 X143.5 Y101.875 E4.63879
G1 X143.46 Y102.664 E4.67821
G1 X143.341 Y103.444 E4.71757
G1 X143.143 Y104.209 E4.757
G1 X142.869 Y104.949 E4.79636
G1 X142.521 Y105.658 E4.83577
G1 X142.103 Y106.329 E4.87521
G1 X141.62 Y106.953 E4.91458
G1 X141.077 Y107.526 E4.95396
G1 X140.478 Y108.041 E4.99337
G1 X139.83 Y108.492 E5.03276
G1 X139.139 Y108.876 E5.0722
G1 X138.414 Y109.188 E5.11158
G1 X137.661 Y109.425 E5.15096
G1 X136.887 Y109.584 E5.19038
G1 X136.102 Y109.665 E5.22975
G1 X135.7 Y109.675 E5.24982
G1 X64.3 Y109.675 E8.81198
G1 X63.511 Y109.635 E8.85139
G1 X62.731 Y109.516 E8.89075
G1 X61.966 Y109.318 E8.93018
G1 X61.226 Y109.044 E8.96955
G1 X60.517 Y108.696 E9.00895
G1 X59.846 Y108.278 E9.04839
G1 X59.222 Y107.795 E9.08776
G1 X58.649 Y107.252 E9.12714
G1 X58.134 Y106.653 E9.16655
G1 X57.683 Y106.005 E9.20594
G1 X57.299 Y105.314 E9.24538
G1 X56.987 Y104.589 E9.28476
G1 X56.75 Y103.836 E9.32414
G1 X56.591 Y103.062 E9.36356
G1 X56.51 Y102.277 E9.40294
G1 X56.5 Y101.875 E9.423
G1 X56.5 Y98.125 E9.61009
G1 X56.54 Y97.336 E9.6495
G1 X56.659 Y96.556 E9.68886
G1 X56.857 Y95.791 E9.72829
G1 X57.131 Y95.051 E9.76766
G1 X57.479 Y94.342 E9.80706
G1 X57.897 Y93.671 E9.8465
G1 X58.38 Y93.047 E9.88587
G1 X58.923 Y92.474 E9.92525
G1 X59.522 Y91.959 E9.96466
G1 X60.17 Y91.508 E10.00405
G0 F3600 X60.553 Y91.744
G1 F1800 X61.236 Y91.389 E10.04245
G1 X61.951 Y91.108 E10.08078
G1 X62.693 Y90.902 E10.1192
G1 X63.451 Y90.774 E10.15755
G1 X64.3 Y90.725 E10.19998
G1 X85.675 Y90.725 E11.26638
G1 X86.443 Y90.765 E11.30475
G1 X87.203 Y90.884 E11.34313
G1 X87.946 Y91.082 E11.38149
G1 X88.665 Y91.356 E11.41988
G1 X89.351 Y91.703 E11.45823
G1 X89.998 Y92.119 E11.49661
G1 X90.598 Y92.6 E11.53497
G1 X91.024 Y93.021 E11.56485
G1 X108.979 Y93.021 E12.46063
G1 X109.341 Y92.655 E12.48632
G1 X109.936 Y92.167 E12.52471
G1 X110.578 Y91.744 E12.56306
G1 X111.261 Y91.389 E12.60147
G1 X111.976 Y91.108 E12.63979
G1 X112.718 Y90.902 E12.67821
G1 X113.476 Y90.774 E12.71657
G1 X114.325 Y90.725 E12.75899
G1 X135.7 Y90.725 E13.8254
G1 X136.468 Y90.765 E13.86376
G1 X137.228 Y90.884 E13.90214
G1 X137.971 Y91.082 E13.9405
G1 X138.69 Y91.356 E13.97889
G1 X139.376 Y91.703 E14.01725
G1 X140.023 Y92.119 E14.05562
G1 X140.623 Y92.6 E14.09399
G1 X141.17 Y93.141 E14.13237
G1 X141.658 Y93.736 E14.17076
G1 X142.081 Y94.378 E14.20912
G1 X142.436 Y95.061 E14.24752
G1 X142.717 Y95.776 E14.28585
G1 X142.923 Y96.518 E14.32427
G1 X143.051 Y97.276 E14.36262
G1 X143.1 Y98.125 E14.40505
G1 X143.1 Y101.875 E14.59213
G1 X143.06 Y102.643 E14.6305
G1 X142.941 Y103.403 E14.66888
G1 X142.743 Y104.146 E14.70724
G1 X142.469 Y104.865 E14.74563
G1 X142.122 Y105.551 E14.78398
G1 X141.706 Y106.198 E14.82236
G1 X141.225 Y106.798 E14.86073
G1 X140.684 Y107.345 E14.89911
G1 X140.089 Y107.833 E14.9375
G1 X139.447 Y108.256 E14.97586
G1 X138.764 Y108.611 E15.01426
G1 X138.049 Y108.892 E15.05259
G1 X137.307 Y109.098 E15.09101
G1 X136.549 Y109.226 E15.12936
G1 X135.7 Y109.275 E15.17179
G1 X64.3 Y109.275 E18.73395
G1 X63.532 Y109.235 E18.77231
G1 X62.772 Y109.116 E18.81069
G1 X62.029 Y108.918 E18.84905
G1 X61.31 Y108.644 E18.88744
G1 X60.624 Y108.297 E18.9258
G1 X59.977 Y107.881 E18.96417
G1 X59.377 Y107.4 E19.00254
G1 X58.83 Y106.859 E19.04092
G1 X58.342 Y106.264 E19.07931
G1 X57.919 Y105.622 E19.11767
G1 X57.564 Y104.939 E19.15607
G1 X57.283 Y104.224 E19.1944
G1 X57.077 Y103.482 E19.23282
G1 X56.949 Y102.724 E19.27117
G1 X56.9 Y101.875 E19.3136
G1 X56.9 Y98.125 E19.50068
G1 X56.94 Y97.357 E19.53905
G1 X57.059 Y96.597 E19.57743
G1 X57.257 Y95.854 E19.61579
G1 X57.531 Y95.135 E19.65418
G1 X57.878 Y94.449 E19.69253
G1 X58.294 Y93.802 E19.73091
G1 X58.775 Y93.202 E19.76928
G1 X59.316 Y92.655 E19.80766
G1 X59.911 Y92.167 E19.84605
G1 X60.553 Y91.744 E19.88441
G0 F3600 X60.298 Y92.382
G1 F1800 X60.934 Y91.987 E19.92176
G1 X61.608 Y91.663 E19.95907
G1 X62.313 Y91.413 E19.99639
G1 X63.041 Y91.239 E20.03373
G1 X63.783 Y91.144 E20.07105
G1 X64.3 Y91.125 E20.09686
G1 X85.675 Y91.125 E21.16326
G1 X86.422 Y91.165 E21.20059
G1 X87.16 Y91.284 E21.23788
G1 X87.882 Y91.482 E21.27523
G1 X88.578 Y91.755 E21.31253
G1 X89.241 Y92.102 E21.34986
G1 X89.864 Y92.517 E21.38721
G1 X90.438 Y92.996 E21.42451
G1 X90.85 Y93.421 E21.45404
G1 X109.147 Y93.421 E22.36688
G1 X109.196 Y93.362 E22.37071
G1 X109.733 Y92.841 E22.40803
G1 X110.323 Y92.382 E22.44533
G1 X110.959 Y91.987 E22.48268
G1 X111.633 Y91.663 E22.51999
G1 X112.338 Y91.413 E22.55731
G1 X113.066 Y91.239 E22.59465
G1 X113.808 Y91.144 E22.63197
G1 X114.325 Y91.125 E22.65778
G1 X135.7 Y91.125 E23.72419
G1 X136.447 Y91.165 E23.76151
G1 X137.185 Y91.284 E23.7988
G1 X137.907 Y91.482 E23.83615
G1 X138.603 Y91.755 E23.87345
G1 X139.266 Y92.102 E23.91078
G1 X139.889 Y92.517 E23.94813
G1 X140.463 Y92.996 E23.98543
G1 X140.984 Y93.533 E24.02276
G1 X141.443 Y94.123 E24.06005
G1 X141.838 Y94.759 E24.0974
G1 X142.162 Y95.433 E24.13471
G1 X142.412 Y96.138 E24.17203
G1 X142.586 Y96.866 E24.20937
G1 X142.681 Y97.608 E24.24669
G1 X142.7 Y98.125 E24.27251
G1 X142.7 Y101.875 E24.45959
G1 X142.66 Y102.622 E24.49692
G1 X142.541 Y103.36 E24.53421
G1 X142.343 Y104.082 E24.57156
G1 X142.07 Y104.778 E24.60886
G1 X141.723 Y105.441 E24.64619
G1 X141.308 Y106.064 E24.68354
G1 X140.829 Y106.638 E24.72084
G1 X140.292 Y107.159 E24.75817
G1 X139.702 Y107.618 E24.79546
G1 X139.066 Y108.013 E24.83281
G1 X138.392 Y108.337 E24.87012
G1 X137.687 Y108.587 E24.90744
G1 X136.959 Y108.761 E24.94478
G1 X136.217 Y108.856 E24.9821
G1 X135.7 Y108.875 E25.00791
G1 X64.3 Y108.875 E28.57007
G1 X63.553 Y108.835 E28.6074
G1 X62.815 Y108.716 E28.64469
G1 X62.093 Y108.518 E28.68204
G1 X61.397 Y108.245 E28.71934
G1 X60.734 Y107.898 E28.75667
G1 X60.111 Y107.483 E28.79402
G1 X59.537 Y107.004 E28.83132
G1 X59.016 Y106.467 E28.86865
G1 X58.557 Y105.877 E28.90594
G1 X58.162 Y105.241 E28.94329
G1 X57.838 Y104.567 E28.9806
G1 X57.588 Y103.862 E29.01792
G1 X57.414 Y103.134 E29.05526
G1 X57.319 Y102.392 E29.09258
G1 X57.3 Y101.875 E29.11839
G1 X57.3 Y98.125 E29.30548
G1 X57.34 Y97.378 E29.3428
G1 X57.459 Y96.64 E29.3801
G1 X57.657 Y95.918 E29.41745
G1 X57.93 Y95.222 E29.45475
G1 X58.277 Y94.559 E29.49208
G1 X58.692 Y93.936 E29.52943
G1 X59.171 Y93.362 E29.56673
G1 X59.708 Y92.841 E29.60405
G1 X60.298 Y92.382 E29.64135
G0 F3600 X60.684 Y92.604
G1 F1800 X61.313 Y92.24 E29.67761
G1 X61.978 Y91.947 E29.71386
G1 X62.671 Y91.729 E29.7501
G1 X63.383 Y91.589 E29.78631
G1 X64.3 Y91.525 E29.83217
G1 X85.675 Y91.525 E30.89857
G1 X86.4 Y91.565 E30.9348
G1 X87.117 Y91.684 E30.97106
G1 X87.816 Y91.882 E31.0073
G1 X88.489 Y92.155 E31.04353
G1 X89.128 Y92.5 E31.07976
G1 X89.725 Y92.914 E31.11601
G1 X90.273 Y93.39 E31.15222
G1 X90.671 Y93.821 E31.18149
G1 X109.335 Y93.821 E32.11264
G1 X109.59 Y93.527 E32.13206
G1 X110.124 Y93.034 E32.16832
G1 X110.709 Y92.604 E32.20454
G1 X111.338 Y92.24 E32.2408
G1 X112.003 Y91.947 E32.27705
G1 X112.696 Y91.729 E32.31329
G1 X113.408 Y91.589 E32.3495
G1 X114.325 Y91.525 E32.39536
G1 X135.7 Y91.525 E33.46176
G1 X136.425 Y91.565 E33.49799
G1 X137.142 Y91.684 E33.53425
G1 X137.841 Y91.882 E33.57049
G1 X138.514 Y92.155 E33.60673
G1 X139.153 Y92.5 E33.64295
G1 X139.75 Y92.914 E33.6792
G1 X140.298 Y93.39 E33.71541
G1 X140.791 Y93.924 E33.75167
G1 X141.221 Y94.509 E33.78789
G1 X141.585 Y95.138 E33.82415
G1 X141.878 Y95.803 E33.86041
G1 X142.096 Y96.496 E33.89665
G1 X142.236 Y97.208 E33.93285
G1 X142.3 Y98.125 E33.97871
G1 X142.3 Y101.875 E34.1658
G1 X142.26 Y102.6 E34.20203
G1 X142.141 Y103.317 E34.23829
G1 X141.943 Y104.016 E34.27453
G1 X141.67 Y104.689 E34.31077
G1 X141.325 Y105.328 E34.347
G1 X140.911 Y105.925 E34.38324
G1 X140.435 Y106.473 E34.41945
G1 X139.901 Y106.966 E34.45571
G1 X139.316 Y107.396 E34.49194
G1 X138.687 Y107.76 E34.52819
G1 X138.022 Y108.053 E34.56445
G1 X137.329 Y108.271 E34.60069
G1 X136.617 Y108.411 E34.63689
G1 X135.7 Y108.475 E34.68275
G1 X64.3 Y108.475 E38.24491
G1 X63.575 Y108.435 E38.28114
G1 X62.858 Y108.316 E38.3174
G1 X62.159 Y108.118 E38.35365
G1 X61.486 Y107.845 E38.38988
G1 X60.847 Y107.5 E38.42611
G1 X60.25 Y107.086 E38.46235
G1 X59.702 Y106.61 E38.49857
G1 X59.209 Y106.076 E38.53483
G1 X58.779 Y105.491 E38.57105
G1 X58.415 Y104.862 E38.6073
G1 X58.122 Y104.197 E38.64356
G1 X57.904 Y103.504 E38.6798
G1 X57.764 Y102.792 E38.71601
G1 X57.7 Y101.875 E38.76187
G1 X57.7 Y98.125 E38.94895
G1 X57.74 Y97.4 E38.98518
G1 X57.859 Y96.683 E39.02144
G1 X58.057 Y95.984 E39.05769
G1 X58.33 Y95.311 E39.09392
G1 X58.675 Y94.672 E39.13015
G1 X59.089 Y94.075 E39.16639
G1 X59.565 Y93.527 E39.20261
G1 X60.099 Y93.034 E39.23887
G1 X60.684 Y92.604 E39.27509
G0 F3600 X61.068 Y92.834
G1 F1800 X61.689 Y92.502 E39.31022
G1 X62.343 Y92.242 E39.34533
G1 X63.023 Y92.058 E39.38048
G1 X63.719 Y91.952 E39.4156
G1 X64.3 Y91.925 E39.44462
G1 X85.675 Y91.925 E40.51102
G1 X86.378 Y91.965 E40.54615
G1 X87.072 Y92.084 E40.58128
G1 X87.747 Y92.282 E40.61638
G1 X88.396 Y92.554 E40.65148
G1 X89.01 Y92.899 E40.68662
G1 X89.581 Y93.31 E40.72172
G1 X90.102 Y93.784 E40.75686
G1 X90.485 Y94.221 E40.78585
G1 X109.509 Y94.221 E41.73496
G1 X109.51 Y94.219 E41.73507
G1 X109.984 Y93.698 E41.77021
G1 X110.514 Y93.234 E41.80536
G1 X111.093 Y92.834 E41.84047
G1 X111.714 Y92.502 E41.8756
G1 X112.368 Y92.242 E41.91071
G1 X113.048 Y92.058 E41.94586
G1 X113.744 Y91.952 E41.98098
G1 X114.325 Y91.925 E42.01
G1 X135.7 Y91.925 E43.0764
G1 X136.403 Y91.965 E43.11153
G1 X137.097 Y92.084 E43.14666
G1 X137.772 Y92.282 E43.18175
G1 X138.421 Y92.554 E43.21686
G1 X139.035 Y92.899 E43.252
G1 X139.606 Y93.31 E43.2871
G1 X140.127 Y93.784 E43.32224
G1 X140.591 Y94.314 E43.35738
G1 X140.991 Y94.893 E43.39249
G1 X141.323 Y95.514 E43.42762
G1 X141.583 Y96.168 E43.46273
G1 X141.767 Y96.848 E43.49788
G1 X141.873 Y97.544 E43.533
G1 X141.9 Y98.125 E43.56202
G1 X141.9 Y101.875 E43.74911
G1 X141.86 Y102.578 E43.78424
G1 X141.741 Y103.272 E43.81937
G1 X141.543 Y103.947 E43.85446
G1 X141.271 Y104.596 E43.88957
G1 X140.926 Y105.21 E43.92471
G1 X140.515 Y105.781 E43.95981
G1 X140.041 Y106.302 E43.99495
G1 X139.511 Y106.766 E44.03009
G1 X138.932 Y107.166 E44.0652
G1 X138.311 Y107.498 E44.10033
G1 X137.657 Y107.758 E44.13544
G1 X136.977 Y107.942 E44.17059
G1 X136.281 Y108.048 E44.20571
G1 X135.7 Y108.075 E44.23473
G1 X64.3 Y108.075 E47.79689
G1 X63.597 Y108.035 E47.83202
G1 X62.903 Y107.916 E47.86715
G1 X62.228 Y107.718 E47.90224
G1 X61.579 Y107.446 E47.93735
G1 X60.965 Y107.101 E47.97249
G1 X60.394 Y106.69 E48.00759
G1 X59.873 Y106.216 E48.04273
G1 X59.409 Y105.686 E48.07787
G1 X59.009 Y105.107 E48.11298
G1 X58.677 Y104.486 E48.14811
G1 X58.417 Y103.832 E48.18322
G1 X58.233 Y103.152 E48.21837
G1 X58.127 Y102.456 E48.25349
G1 X58.1 Y101.875 E48.28251
G1 X58.1 Y98.125 E48.4696
G1 X58.14 Y97.422 E48.50473
G1 X58.259 Y96.728 E48.53986
G1 X58.457 Y96.053 E48.57495
G1 X58.729 Y95.404 E48.61006
G1 X59.074 Y94.79 E48.6452
G1 X59.485 Y94.219 E48.6803
G1 X59.959 Y93.698 E48.71544
G1 X60.489 Y93.234 E48.75058
G1 X61.068 Y92.834 E48.78569
G0 F3600 X61.45 Y93.073
G1 F1800 X62.062 Y92.774 E48.81967
G1 X62.704 Y92.549 E48.85361
G1 X63.369 Y92.4 E48.88761
G1 X64.3 Y92.325 E48.93421
G1 X85.675 Y92.325 E50.00061
G1 X86.355 Y92.365 E50.0346
G1 X87.025 Y92.484 E50.06855
G1 X87.677 Y92.681 E50.10253
G1 X88.301 Y92.953 E50.13649
G1 X88.889 Y93.297 E50.17047
G1 X89.433 Y93.707 E50.20446
G1 X89.924 Y94.178 E50.2384
G1 X90.29 Y94.621 E50.26707
G1 X109.716 Y94.621 E51.23624
G1 X109.907 Y94.367 E51.2521
G1 X110.378 Y93.876 E51.28604
G1 X110.903 Y93.442 E51.32002
G1 X111.475 Y93.073 E51.35398
G1 X112.087 Y92.774 E51.38797
G1 X112.729 Y92.549 E51.4219
G1 X113.394 Y92.4 E51.4559
G1 X114.325 Y92.325 E51.5025
G1 X135.7 Y92.325 E52.56891
G1 X136.38 Y92.365 E52.60289
G1 X137.05 Y92.484 E52.63684
G1 X137.702 Y92.681 E52.67082
G1 X138.326 Y92.953 E52.70478
G1 X138.914 Y93.297 E52.73877
G1 X139.458 Y93.707 E52.77275
G1 X139.949 Y94.178 E52.8067
G1 X140.383 Y94.703 E52.84068
G1 X140.752 Y95.275 E52.87464
G1 X141.051 Y95.887 E52.90862
G1 X141.276 Y96.529 E52.94256
G1 X141.425 Y97.194 E52.97656
G1 X141.5 Y98.125 E53.02316
G1 X141.5 Y101.875 E53.21025
G1 X141.46 Y102.555 E53.24423
G1 X141.341 Y103.225 E53.27818
G1 X141.144 Y103.877 E53.31216
G1 X140.872 Y104.501 E53.34612
G1 X140.528 Y105.089 E53.38011
G1 X140.118 Y105.633 E53.4141
G1 X139.647 Y106.124 E53.44804
G1 X139.122 Y106.558 E53.48202
G1 X138.55 Y106.927 E53.51598
G1 X137.938 Y107.226 E53.54996
G1 X137.296 Y107.451 E53.5839
G1 X136.631 Y107.6 E53.6179
G1 X135.7 Y107.675 E53.6645
G1 X64.3 Y107.675 E57.22666
G1 X63.62 Y107.635 E57.26065
G1 X62.95 Y107.516 E57.2946
G1 X62.298 Y107.319 E57.32858
G1 X61.674 Y107.047 E57.36254
G1 X61.086 Y106.703 E57.39652
G1 X60.542 Y106.293 E57.43051
G1 X60.051 Y105.822 E57.46445
G1 X59.617 Y105.297 E57.49844
G1 X59.248 Y104.725 E57.5324
G1 X58.949 Y104.113 E57.56638
G1 X58.724 Y103.471 E57.60032
G1 X58.575 Y102.806 E57.63432
G1 X58.5 Y101.875 E57.68092
G1 X58.5 Y98.125 E57.86801
G1 X58.54 Y97.445 E57.90199
G1 X58.659 Y96.775 E57.93594
G1 X58.856 Y96.123 E57.96992
G1 X59.128 Y95.499 E58.00388
G1 X59.472 Y94.911 E58.03787
G1 X59.882 Y94.367 E58.07185
G1 X60.353 Y93.876 E58.1058
G1 X60.878 Y93.442 E58.13978
G1 X61.45 Y93.073 E58.17374
G0 F3600 X61.265 Y93.659
G1 F1800 X61.829 Y93.323 E58.20649
G1 X62.431 Y93.059 E58.23929
G1 X63.06 Y92.869 E58.27207
G1 X63.707 Y92.758 E58.30482
G1 X64.3 Y92.725 E58.33445
G1 X85.675 Y92.725 E59.40085
G1 X86.331 Y92.765 E59.43364
G1 X86.977 Y92.884 E59.46641
G1 X87.604 Y93.081 E59.4992
G1 X88.202 Y93.353 E59.53198
G1 X88.763 Y93.695 E59.56476
G1 X89.278 Y94.103 E59.59754
G1 X89.74 Y94.57 E59.63031
G1 X90.088 Y95.021 E59.65873
G1 X109.908 Y95.021 E60.64755
G1 X110.303 Y94.522 E60.67931
G1 X110.77 Y94.06 E60.71208
G1 X111.29 Y93.659 E60.74484
G1 X111.854 Y93.323 E60.77759
G1 X112.456 Y93.059 E60.81039
G1 X113.085 Y92.869 E60.84317
G1 X113.732 Y92.758 E60.87592
G1 X114.325 Y92.725 E60.90555
G1 X135.7 Y92.725 E61.97195
G1 X136.356 Y92.765 E62.00474
G1 X137.002 Y92.884 E62.03751
G1 X137.629 Y93.081 E62.0703
G1 X138.227 Y93.353 E62.10308
G1 X138.788 Y93.695 E62.13586
G1 X139.303 Y94.103 E62.16864
G1 X139.765 Y94.57 E62.20141
G1 X140.166 Y95.09 E62.23417
G1 X140.502 Y95.654 E62.26692
G1 X140.766 Y96.256 E62.29972
