;FLAVOR:Marlin
;TIME:4788
;Filament used: 2.45287m
;Layer height: 0.1
;Generated with Cura_SteamEngine 3.6.0
M140 S60
M105
M190 S60
M104 S200
M105
M109 S200
M82 ;absolute extrusion mode
G21 ;metric values
G90 ;absolute positioning
M82 ;set extruder to absolute mode
M107 ;start with the fan off
G28 X0 Y0 ;move X/Y to min endstops
G28 Z0 ;move Z to min endstops
G1 Z15.0 F9000 ;move the platform down 15mm
G92 E0 ;zero the extruded length
G1 F200 E3 ;extrude 3mm of feed stock
G92 E0 ;zero the extruded length again
G1 F9000
;Put printing message on LCD screen
M117 Printing...
G92 E0
G1 F1500 E-6.5
;LAYER_COUNT:84
;LAYER:0
M107
G0 F3600 X75.258 Y66.181 Z0.3
;TYPE:SKIRT
G1 F1500 E0
G1 F1800 X75.8 Y65.607 E0.03939
G1 X76.397 Y65.091 E0.07875
G1 X77.044 Y64.637 E0.11819
G1 X77.733 Y64.251 E0.15759
G1 X78.457 Y63.937 E0.19696
G1 X79.21 Y63.698 E0.23637
G1 X79.983 Y63.536 E0.27578
G1 X80.768 Y63.454 E0.31515
G1 X81.196 Y63.442 E0.33651
G1 X83.576 Y63.443 E0.45525
G1 X84.365 Y63.483 E0.49467
G1 X85.145 Y63.603 E0.53404
G1 X85.91 Y63.801 E0.57346
G1 X86.65 Y64.076 E0.61285
G1 X87.359 Y64.424 E0.65225
G1 X88.029 Y64.841 E0.69162
G1 X88.654 Y65.325 E0.73106
G1 X89.226 Y65.869 E0.77044
G1 X89.741 Y66.468 E0.80986
G1 X90.192 Y67.116 E0.84924
G1 X90.575 Y67.806 E0.88862
G1 X90.887 Y68.532 E0.92804
G1 X91.123 Y69.285 E0.96741
G1 X91.283 Y70.059 E1.00684
G1 X91.363 Y70.845 E1.04626
G1 X91.363 Y71.634 E1.08562
G1 X91.284 Y72.42 E1.12503
G1 X91.125 Y73.194 E1.16445
G1 X90.889 Y73.947 E1.20382
G1 X90.578 Y74.673 E1.24322
G1 X90.196 Y75.364 E1.28262
G1 X89.962 Y75.718 E1.30379
G1 X87.592 Y79.102 E1.5099
G1 X87.107 Y79.725 E1.54929
G1 X86.561 Y80.295 E1.58867
G1 X85.96 Y80.808 E1.62809
G1 X85.311 Y81.257 E1.66747
G1 X84.62 Y81.639 E1.70686
G1 X83.893 Y81.948 E1.74627
G1 X83.139 Y82.183 E1.78567
G1 X82.365 Y82.34 E1.82507
G1 X81.579 Y82.418 E1.86448
G1 X80.79 Y82.416 E1.90384
G1 X80.004 Y82.334 E1.94327
G1 X79.231 Y82.174 E1.98265
G1 X78.478 Y81.936 E2.02205
G1 X77.753 Y81.623 E2.06145
G1 X77.063 Y81.238 E2.10087
G1 X76.416 Y80.785 E2.14027
G1 X75.818 Y80.27 E2.17964
G1 X75.275 Y79.697 E2.21903
G1 X74.793 Y79.071 E2.25844
G1 X74.376 Y78.4 E2.29786
G1 X74.03 Y77.691 E2.33722
G1 X73.757 Y76.95 E2.37662
G1 X73.56 Y76.185 E2.41603
G1 X73.442 Y75.404 E2.45543
G1 X73.403 Y74.65 E2.4931
G1 X73.393 Y71.265 E2.66198
G1 X73.431 Y70.476 E2.70139
G1 X73.548 Y69.695 E2.74079
G1 X73.743 Y68.93 E2.78017
G1 X74.015 Y68.189 E2.81955
G1 X74.361 Y67.479 E2.85896
G1 X74.776 Y66.807 E2.89836
G1 X75.258 Y66.181 E2.93778
G0 F3600 X75.654 Y66.335
G1 F1800 X76.193 Y65.787 E2.97613
G1 X76.786 Y65.297 E3.01451
G1 X77.427 Y64.872 E3.05288
G1 X78.109 Y64.515 E3.09128
G1 X78.824 Y64.232 E3.12964
G1 X79.564 Y64.023 E3.16801
G1 X80.322 Y63.893 E3.20638
G1 X81.196 Y63.842 E3.25005
G1 X83.576 Y63.843 E3.36879
G1 X84.344 Y63.883 E3.40716
G1 X85.104 Y64.003 E3.44555
G1 X85.847 Y64.201 E3.48391
G1 X86.566 Y64.475 E3.5223
G1 X87.252 Y64.822 E3.56065
G1 X87.899 Y65.239 E3.59905
G1 X88.499 Y65.72 E3.63742
G1 X89.045 Y66.262 E3.6758
G1 X89.533 Y66.856 E3.71415
G1 X89.956 Y67.499 E3.75255
G1 X90.31 Y68.182 E3.79093
G1 X90.591 Y68.897 E3.82926
G1 X90.797 Y69.639 E3.86768
G1 X90.924 Y70.397 E3.90602
G1 X90.973 Y71.165 E3.94442
G1 X90.941 Y71.933 E3.98277
G1 X90.829 Y72.694 E4.02114
G1 X90.639 Y73.44 E4.05955
G1 X90.373 Y74.161 E4.09789
G1 X90.034 Y74.851 E4.13624
G1 X89.634 Y75.488 E4.17377
G1 X87.264 Y78.872 E4.37988
G1 X86.791 Y79.478 E4.41824
G1 X86.257 Y80.032 E4.45663
G1 X85.669 Y80.528 E4.495
G1 X85.032 Y80.959 E4.53338
G1 X84.354 Y81.322 E4.57174
G1 X83.642 Y81.613 E4.61012
G1 X82.904 Y81.829 E4.64848
G1 X82.147 Y81.967 E4.68687
G1 X81.38 Y82.025 E4.72525
G1 X80.611 Y82.003 E4.76363
G1 X79.849 Y81.902 E4.80198
G1 X79.101 Y81.722 E4.84036
G1 X78.376 Y81.466 E4.87872
G1 X77.681 Y81.135 E4.91712
G1 X77.025 Y80.735 E4.95546
G1 X76.413 Y80.268 E4.99386
G1 X75.854 Y79.74 E5.03223
G1 X75.352 Y79.157 E5.07061
G1 X74.913 Y78.526 E5.10896
G1 X74.543 Y77.852 E5.14732
G1 X74.244 Y77.143 E5.18571
G1 X74.02 Y76.407 E5.22409
G1 X73.874 Y75.652 E5.26245
G1 X73.803 Y74.649 E5.31262
G1 X73.793 Y71.264 E5.4815
G1 X73.831 Y70.496 E5.51986
G1 X73.948 Y69.735 E5.55827
G1 X74.143 Y68.992 E5.5966
G1 X74.415 Y68.272 E5.635
G1 X74.76 Y67.585 E5.67335
G1 X75.174 Y66.937 E5.71171
G1 X75.654 Y66.335 E5.75013
G0 F3600 X76.05 Y66.494
G1 F1800 X76.586 Y65.972 E5.78745
G1 X77.174 Y65.51 E5.82476
G1 X77.809 Y65.114 E5.8621
G1 X78.482 Y64.788 E5.8994
G1 X79.186 Y64.536 E5.93671
G1 X79.913 Y64.36 E5.97403
G1 X80.655 Y64.263 E6.01136
G1 X81.196 Y64.242 E6.03837
G1 X83.576 Y64.243 E6.15711
G1 X84.323 Y64.283 E6.19443
G1 X85.061 Y64.403 E6.23173
G1 X85.783 Y64.601 E6.26908
G1 X86.479 Y64.875 E6.3064
G1 X87.142 Y65.221 E6.34371
G1 X87.764 Y65.636 E6.38102
G1 X88.339 Y66.116 E6.41839
G1 X88.858 Y66.653 E6.45564
G1 X89.318 Y67.244 E6.49301
G1 X89.712 Y67.88 E6.53033
G1 X90.036 Y68.554 E6.56764
G1 X90.286 Y69.259 E6.60496
G1 X90.459 Y69.987 E6.64229
G1 X90.554 Y70.729 E6.67961
G1 X90.569 Y71.477 E6.71694
G1 X90.504 Y72.222 E6.75425
G1 X90.36 Y72.956 E6.79157
G1 X90.139 Y73.67 E6.82885
G1 X89.842 Y74.357 E6.86619
G1 X89.307 Y75.259 E6.91852
G1 X86.937 Y78.643 E7.12463
G1 X86.475 Y79.232 E7.16198
G1 X85.954 Y79.768 E7.19927
G1 X85.378 Y80.246 E7.23661
G1 X84.755 Y80.659 E7.2739
G1 X84.091 Y81.004 E7.31124
G1 X83.394 Y81.275 E7.34855
G1 X82.672 Y81.471 E7.38587
G1 X81.933 Y81.589 E7.42321
G1 X81.186 Y81.627 E7.46052
G1 X80.439 Y81.585 E7.49785
G1 X79.701 Y81.464 E7.53516
G1 X78.98 Y81.265 E7.57248
G1 X78.284 Y80.989 E7.60983
G1 X77.622 Y80.642 E7.64712
G1 X77.001 Y80.225 E7.68444
G1 X76.427 Y79.745 E7.72177
G1 X75.908 Y79.206 E7.7591
G1 X75.45 Y78.615 E7.7964
G1 X75.057 Y77.978 E7.83374
G1 X74.735 Y77.303 E7.87105
G1 X74.486 Y76.598 E7.90836
G1 X74.314 Y75.87 E7.94568
G1 X74.221 Y75.127 E7.98303
G1 X74.203 Y74.648 E8.00695
G1 X74.193 Y71.263 E8.17583
G1 X74.231 Y70.516 E8.21314
G1 X74.348 Y69.777 E8.25047
G1 X74.544 Y69.055 E8.2878
G1 X74.815 Y68.358 E8.32511
G1 X75.159 Y67.693 E8.36246
G1 X75.572 Y67.07 E8.39975
G1 X76.05 Y66.494 E8.43709
G0 F3600 X75.97 Y67.207
G1 F1800 X76.445 Y66.658 E8.47331
G1 X76.977 Y66.164 E8.50953
G1 X77.561 Y65.731 E8.5458
G1 X78.188 Y65.366 E8.582
G1 X78.852 Y65.071 E8.61825
G1 X79.545 Y64.851 E8.65452
G1 X80.257 Y64.709 E8.69074
G1 X81.196 Y64.642 E8.73771
G1 X83.576 Y64.643 E8.85645
G1 X84.301 Y64.683 E8.89267
G1 X85.017 Y64.803 E8.92889
G1 X85.716 Y65.001 E8.96514
G1 X86.389 Y65.274 E9.00137
G1 X87.028 Y65.62 E9.03762
G1 X87.625 Y66.033 E9.07384
G1 X88.173 Y66.51 E9.11009
G1 X88.665 Y67.044 E9.14631
G1 X89.096 Y67.629 E9.18256
G1 X89.46 Y68.258 E9.21882
G1 X89.752 Y68.923 E9.25505
G1 X89.969 Y69.616 E9.29128
G1 X90.109 Y70.329 E9.32754
G1 X90.17 Y71.053 E9.36378
G1 X90.151 Y71.779 E9.40002
G1 X90.052 Y72.498 E9.43623
G1 X89.875 Y73.203 E9.47249
G1 X89.622 Y73.884 E9.50873
G1 X89.295 Y74.532 E9.54495
G1 X88.979 Y75.029 E9.57433
G1 X86.609 Y78.413 E9.78044
G1 X86.16 Y78.984 E9.81668
G1 X85.651 Y79.503 E9.85295
G1 X85.089 Y79.962 E9.88915
G1 X84.479 Y80.357 E9.92541
G1 X83.829 Y80.682 E9.96167
G1 X83.148 Y80.934 E9.99789
G1 X82.443 Y81.109 E10.03413
G1 X81.724 Y81.206 E10.07033
G1 X80.997 Y81.224 E10.10661
G1 X80.274 Y81.161 E10.14282
G1 X79.561 Y81.02 E10.17908
G1 X78.869 Y80.8 E10.2153
G1 X78.205 Y80.507 E10.25151
G1 X77.577 Y80.141 E10.28778
G1 X76.993 Y79.71 E10.32399
G1 X76.46 Y79.216 E10.36024
G1 X75.984 Y78.667 E10.3965
G1 X75.572 Y78.069 E10.43273
G1 X75.228 Y77.429 E10.46898
G1 X74.956 Y76.756 E10.50519
G1 X74.76 Y76.056 E10.54146
G1 X74.642 Y75.34 E10.57766
G1 X74.603 Y74.646 E10.61234
G1 X74.593 Y71.261 E10.78122
G1 X74.631 Y70.536 E10.81744
G1 X74.748 Y69.819 E10.85368
G1 X74.944 Y69.12 E10.8899
G1 X75.215 Y68.446 E10.92614
G1 X75.558 Y67.806 E10.96237
G1 X75.97 Y67.207 E10.99864
G0 F3600 X76.367 Y67.35
G1 F1800 X76.839 Y66.828 E11.03375
G1 X77.368 Y66.363 E11.06889
G1 X77.946 Y65.961 E11.10401
G1 X78.565 Y65.626 E11.13913
G1 X79.219 Y65.365 E11.17426
G1 X79.898 Y65.179 E11.20938
G1 X80.593 Y65.071 E11.24447
G1 X81.196 Y65.042 E11.27459
G1 X83.576 Y65.043 E11.39333
G1 X84.278 Y65.083 E11.42841
G1 X84.972 Y65.203 E11.46355
G1 X85.648 Y65.4 E11.49867
G1 X86.297 Y65.673 E11.5338
G1 X86.911 Y66.018 E11.56894
G1 X87.481 Y66.43 E11.60403
G1 X88.002 Y66.904 E11.63917
G1 X88.465 Y67.434 E11.67428
G1 X88.865 Y68.013 E11.70939
G1 X89.197 Y68.634 E11.74452
G1 X89.457 Y69.289 E11.77968
G1 X89.641 Y69.968 E11.81477
G1 X89.746 Y70.664 E11.84989
G1 X89.772 Y71.368 E11.88504
G1 X89.718 Y72.07 E11.92016
G1 X89.584 Y72.761 E11.95528
G1 X89.373 Y73.433 E11.99042
G1 X89.088 Y74.076 E12.02551
G1 X88.651 Y74.8 E12.0677
G1 X86.281 Y78.184 E12.27382
G1 X85.845 Y78.736 E12.30891
G1 X85.35 Y79.236 E12.34401
G1 X84.8 Y79.677 E12.37918
G1 X84.205 Y80.052 E12.41427
G1 X83.57 Y80.357 E12.44942
G1 X82.906 Y80.589 E12.48451
G1 X82.219 Y80.743 E12.51963
G1 X81.519 Y80.819 E12.55476
G1 X80.815 Y80.815 E12.58988
G1 X80.116 Y80.731 E12.62501
G1 X79.431 Y80.568 E12.66014
G1 X78.769 Y80.329 E12.69525
G1 X78.138 Y80.016 E12.73039
G1 X77.547 Y79.634 E12.7655
G1 X77.003 Y79.188 E12.8006
G1 X76.513 Y78.682 E12.83574
G1 X76.083 Y78.124 E12.87088
G1 X75.72 Y77.521 E12.906
G1 X75.427 Y76.881 E12.94111
G1 X75.209 Y76.212 E12.97622
G1 X75.068 Y75.522 E13.01135
G1 X75.003 Y74.645 E13.05523
G1 X74.993 Y71.26 E13.22411
G1 X75.031 Y70.557 E13.25923
G1 X75.148 Y69.863 E13.29434
G1 X75.344 Y69.187 E13.32946
G1 X75.614 Y68.537 E13.36457
G1 X75.957 Y67.922 E13.3997
G1 X76.367 Y67.35 E13.43481
G0 F3600 X76.764 Y67.498
G1 F1800 X77.233 Y67.004 E13.4688
G1 X77.757 Y66.569 E13.50277
G1 X78.328 Y66.199 E13.53672
G1 X78.939 Y65.898 E13.5707
G1 X79.581 Y65.671 E13.60467
G1 X80.245 Y65.52 E13.63865
G1 X81.195 Y65.442 E13.6862
G1 X83.575 Y65.443 E13.80494
G1 X84.255 Y65.483 E13.83892
G1 X84.925 Y65.603 E13.87288
G1 X85.577 Y65.8 E13.90686
G1 X86.201 Y66.073 E13.94084
G1 X86.789 Y66.416 E13.97481
G1 X87.332 Y66.826 E14.00875
G1 X87.824 Y67.297 E14.04273
G1 X88.257 Y67.823 E14.07672
G1 X88.626 Y68.395 E14.11068
G1 X88.925 Y69.007 E14.14466
G1 X89.15 Y69.65 E14.17865
G1 X89.298 Y70.314 E14.21259
G1 X89.368 Y70.991 E14.24655
G1 X89.357 Y71.672 E14.28053
G1 X89.267 Y72.347 E14.3145
G1 X89.098 Y73.007 E14.34849
G1 X88.854 Y73.642 E14.38243
G1 X88.536 Y74.244 E14.4164
G1 X88.324 Y74.57 E14.4358
G1 X85.954 Y77.954 E14.64191
G1 X85.531 Y78.488 E14.6759
G1 X85.049 Y78.969 E14.70987
G1 X84.513 Y79.389 E14.74384
G1 X83.933 Y79.745 E14.7778
G1 X83.314 Y80.029 E14.81177
G1 X82.666 Y80.239 E14.84576
G1 X81.999 Y80.372 E14.87969
G1 X81.32 Y80.426 E14.91367
G1 X80.639 Y80.4 E14.94767
G1 X79.967 Y80.294 E14.98161
G1 X79.311 Y80.11 E15.0156
G1 X78.682 Y79.85 E15.04956
G1 X78.087 Y79.519 E15.08353
G1 X77.535 Y79.12 E15.11751
G1 X77.034 Y78.659 E15.15148
G1 X76.59 Y78.143 E15.18544
G1 X76.21 Y77.578 E15.21941
G1 X75.898 Y76.973 E15.25337
G1 X75.66 Y76.335 E15.28734
G1 X75.498 Y75.673 E15.32134
G1 X75.415 Y74.998 E15.35527
G1 X75.403 Y74.644 E15.37294
G1 X75.393 Y71.259 E15.54182
G1 X75.431 Y70.579 E15.5758
G1 X75.548 Y69.909 E15.60973
G1 X75.744 Y69.256 E15.64375
G1 X76.014 Y68.631 E15.67771
G1 X76.355 Y68.042 E15.71167
G1 X76.764 Y67.498 E15.74562
G0 F3600 X77.16 Y67.651
G1 F1800 X77.626 Y67.188 E15.7784
G1 X78.145 Y66.785 E15.81118
G1 X78.708 Y66.448 E15.84392
G1 X79.309 Y66.181 E15.87673
G1 X79.937 Y65.99 E15.90947
G1 X80.584 Y65.876 E15.94225
G1 X81.195 Y65.842 E15.97278
G1 X83.575 Y65.843 E16.09152
G1 X84.231 Y65.883 E16.12431
G1 X84.877 Y66.003 E16.15709
G1 X85.504 Y66.2 E16.18988
G1 X86.102 Y66.472 E16.22265
G1 X86.662 Y66.814 E16.25539
G1 X87.177 Y67.222 E16.28817
G1 X87.639 Y67.69 E16.32098
G1 X88.04 Y68.21 E16.35374
G1 X88.376 Y68.775 E16.38653
G1 X88.64 Y69.376 E16.41928
G1 X88.829 Y70.005 E16.45205
G1 X88.941 Y70.653 E16.48486
G1 X88.973 Y71.309 E16.51762
G1 X88.925 Y71.964 E16.55039
G1 X88.797 Y72.609 E16.5832
G1 X88.593 Y73.233 E16.61595
G1 X88.314 Y73.828 E16.64874
G1 X87.996 Y74.341 E16.67885
G1 X85.626 Y77.725 E16.88496
G1 X85.217 Y78.239 E16.91774
G1 X84.749 Y78.7 E16.95051
G1 X84.228 Y79.1 E16.98328
G1 X83.663 Y79.434 E17.01602
G1 X83.061 Y79.697 E17.0488
G1 X82.431 Y79.886 E17.08161
G1 X81.783 Y79.996 E17.11441
G1 X81.127 Y80.026 E17.14717
G1 X80.472 Y79.977 E17.17994
G1 X79.828 Y79.849 E17.21269
G1 X79.204 Y79.643 E17.24548
G1 X78.609 Y79.363 E17.27829
G1 X78.053 Y79.013 E17.31106
G1 X77.544 Y78.598 E17.34383
G1 X77.089 Y78.125 E17.37657
G1 X76.695 Y77.599 E17.40936
G1 X76.367 Y77.03 E17.44213
G1 X76.111 Y76.425 E17.4749
G1 X75.93 Y75.793 E17.5077
G1 X75.828 Y75.144 E17.54047
G1 X75.803 Y74.643 E17.5655
G1 X75.793 Y71.258 E17.73438
G1 X75.831 Y70.602 E17.76716
G1 X75.948 Y69.956 E17.79992
G1 X76.143 Y69.328 E17.83272
G1 X76.413 Y68.729 E17.8655
G1 X76.754 Y68.167 E17.8983
G1 X77.16 Y67.651 E17.93106
G0 F3600 X77.555 Y67.811
G1 F1800 X78.017 Y67.38 E17.96258
G1 X78.53 Y67.01 E17.99413
G1 X79.085 Y66.708 E18.02566
G1 X79.674 Y66.478 E18.0572
G1 X80.287 Y66.325 E18.08872
G1 X81.195 Y66.242 E18.13421
G1 X83.575 Y66.243 E18.25295
G1 X84.206 Y66.283 E18.2845
G1 X84.827 Y66.403 E18.31605
G1 X85.427 Y66.6 E18.34756
G1 X85.998 Y66.871 E18.37909
G1 X86.531 Y67.212 E18.41066
G1 X87.016 Y67.617 E18.44218
G1 X87.446 Y68.08 E18.47371
G1 X87.814 Y68.594 E18.50524
G1 X88.114 Y69.151 E18.53681
G1 X88.342 Y69.74 E18.56832
G1 X88.493 Y70.354 E18.59986
G1 X88.566 Y70.982 E18.6314
G1 X88.559 Y71.614 E18.66294
G1 X88.473 Y72.24 E18.69446
G1 X88.308 Y72.85 E18.72599
G1 X88.067 Y73.435 E18.75755
G1 X87.668 Y74.111 E18.79672
G1 X85.298 Y77.495 E19.00283
G1 X84.904 Y77.989 E19.03436
G1 X84.45 Y78.429 E19.0659
G1 X83.944 Y78.809 E19.09747
G1 X83.395 Y79.121 E19.12897
G1 X82.81 Y79.362 E19.16054
G1 X82.2 Y79.527 E19.19207
G1 X81.574 Y79.613 E19.22359
G1 X80.942 Y79.62 E19.25512
G1 X80.314 Y79.547 E19.28666
G1 X79.7 Y79.396 E19.31821
G1 X79.11 Y79.168 E19.34977
G1 X78.554 Y78.868 E19.38129
G1 X78.04 Y78.5 E19.41282
G1 X77.577 Y78.07 E19.44435
G1 X77.172 Y77.585 E19.47587
G1 X76.831 Y77.052 E19.50744
G1 X76.56 Y76.481 E19.53897
G1 X76.363 Y75.881 E19.57048
G1 X76.243 Y75.26 E19.60203
G1 X76.203 Y74.642 E19.63293
G1 X76.193 Y71.257 E19.80181
G1 X76.231 Y70.626 E19.83335
G1 X76.349 Y70.005 E19.86488
G1 X76.543 Y69.403 E19.89644
G1 X76.813 Y68.831 E19.928
G1 X77.152 Y68.298 E19.95951
G1 X77.555 Y67.811 E19.99105
G0 F3600 X77.549 Y68.434
G1 F1800 X77.95 Y67.979 E20.0213
G1 X78.407 Y67.581 E20.05154
G1 X78.913 Y67.247 E20.08179
G1 X79.458 Y66.982 E20.11202
G1 X80.034 Y66.79 E20.14231
G1 X80.629 Y66.677 E20.17253
G1 X81.195 Y66.642 E20.20082
G1 X83.575 Y66.643 E20.31956
G1 X84.18 Y66.683 E20.34981
G1 X84.774 Y66.803 E20.38004
G1 X85.348 Y66.999 E20.4103
G1 X85.891 Y67.269 E20.44056
G1 X86.393 Y67.609 E20.4708
G1 X86.847 Y68.011 E20.50106
G1 X87.243 Y68.47 E20.5313
G1 X87.576 Y68.977 E20.56156
G1 X87.839 Y69.523 E20.5918
G1 X88.028 Y70.099 E20.62204
G1 X88.14 Y70.695 E20.6523
G1 X88.173 Y71.3 E20.68253
G1 X88.125 Y71.905 E20.71281
G1 X87.999 Y72.498 E20.74305
G1 X87.795 Y73.069 E20.7733
G1 X87.518 Y73.608 E20.80354
G1 X87.341 Y73.882 E20.81981
G1 X84.971 Y77.266 E21.02593
G1 X84.591 Y77.738 E21.05616
G1 X84.152 Y78.157 E21.08643
G1 X83.663 Y78.514 E21.11664
G1 X83.13 Y78.804 E21.14691
G1 X82.564 Y79.021 E21.17715
G1 X81.974 Y79.162 E21.20742
G1 X81.371 Y79.224 E21.23766
G1 X80.765 Y79.206 E21.26791
G1 X80.167 Y79.109 E21.29813
G1 X79.586 Y78.933 E21.32842
G1 X79.034 Y78.683 E21.35865
G1 X78.519 Y78.363 E21.3889
G1 X78.051 Y77.977 E21.41917
G1 X77.638 Y77.534 E21.44938
G1 X77.287 Y77.04 E21.47962
G1 X77.003 Y76.504 E21.50988
G1 X76.793 Y75.935 E21.54014
G1 X76.659 Y75.344 E21.57037
G1 X76.603 Y74.641 E21.60556
G1 X76.593 Y71.256 E21.77443
G1 X76.631 Y70.65 E21.80473
G1 X76.749 Y70.056 E21.83494
G1 X76.943 Y69.481 E21.86522
G1 X77.212 Y68.938 E21.89545
G1 X77.549 Y68.434 E21.9257
G0 F3600 X77.946 Y68.577
G1 F1800 X78.344 Y68.156 E21.9546
G1 X78.796 Y67.793 E21.98352
G1 X79.293 Y67.496 E22.01241
G1 X79.827 Y67.271 E22.04132
G1 X80.386 Y67.12 E22.07021
G1 X81.195 Y67.042 E22.11075
G1 X83.575 Y67.043 E22.22949
G1 X84.153 Y67.083 E22.2584
