;FLAVOR:Marlin
;TIME:3963
;Filament used: 2.35615m
;Layer height: 0.1
;Generated with Cura_SteamEngine 3.6.0
M140 S60
M105
M190 S60
M104 S200
M105
M109 S200
M82 ;absolute extrusion mode
G21 ;metric values
G90 ;absolute positioning
M82 ;set extruder to absolute mode
M107 ;start with the fan off
G28 X0 Y0 ;move X/Y to min endstops
G28 Z0 ;move Z to min endstops
G1 Z15.0 F9000 ;move the platform down 15mm
G92 E0 ;zero the extruded length
G1 F200 E3 ;extrude 3mm of feed stock
G92 E0 ;zero the extruded length again
G1 F9000
;Put printing message on LCD screen
M117 Printing...
G92 E0
G1 F1500 E-6.5
;LAYER_COUNT:17
;LAYER:0
M107
G0 F3600 X61.322 Y73.059 Z0.3
;TYPE:SKIRT
G1 F1500 E0
G1 F1800 X61.97 Y72.608 E0.03939
G1 X62.661 Y72.224 E0.07883
G1 X63.386 Y71.912 E0.11821
G1 X64.139 Y71.675 E0.15759
G1 X64.913 Y71.516 E0.19701
G1 X65.698 Y71.435 E0.23638
G1 X66.1 Y71.425 E0.25644
G1 X133.9 Y71.425 E3.639
G1 X134.689 Y71.465 E3.67841
G1 X135.469 Y71.584 E3.71778
G1 X136.234 Y71.782 E3.7572
G1 X136.974 Y72.056 E3.79657
G1 X137.683 Y72.404 E3.83597
G1 X138.354 Y72.822 E3.87541
G1 X138.978 Y73.305 E3.91478
G1 X139.551 Y73.848 E3.95417
G1 X140.066 Y74.447 E3.99358
G1 X140.517 Y75.095 E4.03297
G1 X140.901 Y75.786 E4.07241
G1 X141.213 Y76.511 E4.11178
G1 X141.45 Y77.264 E4.15117
G1 X141.609 Y78.038 E4.19059
G1 X141.69 Y78.823 E4.22996
G1 X141.7 Y79.225 E4.25002
G1 X141.7 Y120.775 E6.32296
G1 X141.66 Y121.564 E6.36237
G1 X141.541 Y122.344 E6.40174
G1 X141.343 Y123.109 E6.44116
G1 X141.069 Y123.849 E6.48053
G1 X140.721 Y124.558 E6.51993
G1 X140.303 Y125.229 E6.55937
G1 X139.82 Y125.853 E6.59874
G1 X139.277 Y126.426 E6.63813
G1 X138.678 Y126.941 E6.67754
G1 X138.03 Y127.392 E6.71693
G1 X137.339 Y127.776 E6.75637
G1 X136.614 Y128.088 E6.79574
G1 X135.861 Y128.325 E6.83513
G1 X135.087 Y128.484 E6.87455
G1 X134.302 Y128.565 E6.91392
G1 X133.9 Y128.575 E6.93398
G1 X66.1 Y128.575 E10.31654
G1 X65.311 Y128.535 E10.35595
G1 X64.531 Y128.416 E10.39532
G1 X63.766 Y128.218 E10.43474
G1 X63.026 Y127.944 E10.47411
G1 X62.317 Y127.596 E10.51351
G1 X61.646 Y127.178 E10.55295
G1 X61.022 Y126.695 E10.59232
G1 X60.449 Y126.152 E10.6317
G1 X59.934 Y125.553 E10.67112
G1 X59.483 Y124.905 E10.7105
G1 X59.099 Y124.214 E10.74994
G1 X58.787 Y123.489 E10.78932
G1 X58.55 Y122.736 E10.8287
G1 X58.391 Y121.962 E10.86813
G1 X58.31 Y121.177 E10.9075
G1 X58.3 Y120.775 E10.92756
G1 X58.3 Y79.225 E13.0005
G1 X58.34 Y78.436 E13.03991
G1 X58.459 Y77.656 E13.07928
G1 X58.657 Y76.891 E13.1187
G1 X58.931 Y76.151 E13.15807
G1 X59.279 Y75.442 E13.19747
G1 X59.697 Y74.771 E13.23691
G1 X60.18 Y74.147 E13.27628
G1 X60.723 Y73.574 E13.31566
G1 X61.322 Y73.059 E13.35508
G0 F3600 X61.711 Y73.267
G1 F1800 X62.353 Y72.844 E13.39343
G1 X63.036 Y72.489 E13.43184
G1 X63.751 Y72.208 E13.47016
G1 X64.493 Y72.002 E13.50858
G1 X65.251 Y71.874 E13.54693
G1 X66.1 Y71.825 E13.58936
G1 X133.9 Y71.825 E16.97192
G1 X134.668 Y71.865 E17.01028
G1 X135.428 Y71.984 E17.04866
G1 X136.171 Y72.182 E17.08702
G1 X136.89 Y72.456 E17.12541
G1 X137.576 Y72.803 E17.16377
G1 X138.223 Y73.219 E17.20214
G1 X138.823 Y73.7 E17.24051
G1 X139.37 Y74.241 E17.27889
G1 X139.858 Y74.836 E17.31728
G1 X140.281 Y75.478 E17.35564
G1 X140.636 Y76.161 E17.39404
G1 X140.917 Y76.876 E17.43237
G1 X141.123 Y77.618 E17.47079
G1 X141.251 Y78.376 E17.50914
G1 X141.3 Y79.225 E17.55157
G1 X141.3 Y120.775 E19.6245
G1 X141.26 Y121.543 E19.66287
G1 X141.141 Y122.303 E19.70125
G1 X140.943 Y123.046 E19.73961
G1 X140.669 Y123.765 E19.778
G1 X140.322 Y124.451 E19.81635
G1 X139.906 Y125.098 E19.85473
G1 X139.425 Y125.698 E19.8931
G1 X138.884 Y126.245 E19.93148
G1 X138.289 Y126.733 E19.96987
G1 X137.647 Y127.156 E20.00823
G1 X136.964 Y127.511 E20.04663
G1 X136.249 Y127.792 E20.08496
G1 X135.507 Y127.998 E20.12338
G1 X134.749 Y128.126 E20.16173
G1 X133.9 Y128.175 E20.20416
G1 X66.1 Y128.175 E23.58671
G1 X65.332 Y128.135 E23.62508
G1 X64.572 Y128.016 E23.66346
G1 X63.829 Y127.818 E23.70182
G1 X63.11 Y127.544 E23.74021
G1 X62.424 Y127.197 E23.77856
G1 X61.777 Y126.781 E23.81694
G1 X61.177 Y126.3 E23.8553
G1 X60.63 Y125.759 E23.89368
G1 X60.142 Y125.164 E23.93208
G1 X59.719 Y124.522 E23.97043
G1 X59.364 Y123.839 E24.00884
G1 X59.083 Y123.124 E24.04716
G1 X58.877 Y122.382 E24.08558
G1 X58.749 Y121.624 E24.12393
G1 X58.7 Y120.775 E24.16636
G1 X58.7 Y79.225 E26.2393
G1 X58.74 Y78.457 E26.27767
G1 X58.859 Y77.697 E26.31605
G1 X59.057 Y76.954 E26.35441
G1 X59.331 Y76.235 E26.3928
G1 X59.678 Y75.549 E26.43115
G1 X60.094 Y74.902 E26.46952
G1 X60.575 Y74.302 E26.50789
G1 X61.116 Y73.755 E26.54627
G1 X61.711 Y73.267 E26.58466
G0 F3600 X62.098 Y73.482
G1 F1800 X62.734 Y73.087 E26.62202
G1 X63.408 Y72.763 E26.65933
G1 X64.113 Y72.513 E26.69664
G1 X64.841 Y72.339 E26.73399
G1 X65.583 Y72.244 E26.77131
G1 X66.1 Y72.225 E26.79712
G1 X133.9 Y72.225 E30.17967
G1 X134.647 Y72.265 E30.217
G1 X135.385 Y72.384 E30.25429
G1 X136.107 Y72.582 E30.29164
G1 X136.803 Y72.855 E30.32894
G1 X137.466 Y73.202 E30.36627
G1 X138.089 Y73.617 E30.40362
G1 X138.663 Y74.096 E30.44092
G1 X139.184 Y74.633 E30.47825
G1 X139.643 Y75.223 E30.51554
G1 X140.038 Y75.859 E30.55289
G1 X140.362 Y76.533 E30.5902
G1 X140.612 Y77.238 E30.62752
G1 X140.786 Y77.966 E30.66486
G1 X140.881 Y78.708 E30.70218
G1 X140.9 Y79.225 E30.728
G1 X140.9 Y120.775 E32.80093
G1 X140.86 Y121.522 E32.83825
G1 X140.741 Y122.26 E32.87555
G1 X140.543 Y122.982 E32.9129
G1 X140.27 Y123.678 E32.9502
G1 X139.923 Y124.341 E32.98753
G1 X139.508 Y124.964 E33.02488
G1 X139.029 Y125.538 E33.06218
G1 X138.492 Y126.059 E33.09951
G1 X137.902 Y126.518 E33.1368
G1 X137.266 Y126.913 E33.17415
G1 X136.592 Y127.237 E33.21146
G1 X135.887 Y127.487 E33.24878
G1 X135.159 Y127.661 E33.28612
G1 X134.417 Y127.756 E33.32344
G1 X133.9 Y127.775 E33.34925
G1 X66.1 Y127.775 E36.73181
G1 X65.353 Y127.735 E36.76913
G1 X64.615 Y127.616 E36.80642
G1 X63.893 Y127.418 E36.84378
G1 X63.197 Y127.145 E36.88107
G1 X62.534 Y126.798 E36.91841
G1 X61.911 Y126.383 E36.95575
G1 X61.337 Y125.904 E36.99305
G1 X60.816 Y125.367 E37.03038
G1 X60.357 Y124.777 E37.06767
G1 X59.962 Y124.141 E37.10503
G1 X59.638 Y123.467 E37.14234
G1 X59.388 Y122.762 E37.17965
G1 X59.214 Y122.034 E37.217
G1 X59.119 Y121.292 E37.25432
G1 X59.1 Y120.775 E37.28013
G1 X59.1 Y79.225 E39.35307
G1 X59.14 Y78.478 E39.39039
G1 X59.259 Y77.74 E39.42768
G1 X59.457 Y77.018 E39.46503
G1 X59.73 Y76.322 E39.50233
G1 X60.077 Y75.659 E39.53967
G1 X60.492 Y75.036 E39.57701
G1 X60.971 Y74.462 E39.61431
G1 X61.508 Y73.941 E39.65164
G1 X62.098 Y73.482 E39.68893
G0 F3600 X61.899 Y74.134
G1 F1800 X62.484 Y73.704 E39.72515
G1 X63.113 Y73.34 E39.76141
G1 X63.778 Y73.047 E39.79767
G1 X64.471 Y72.829 E39.83391
G1 X65.183 Y72.689 E39.87011
G1 X66.1 Y72.625 E39.91597
G1 X133.9 Y72.625 E43.29853
G1 X134.625 Y72.665 E43.33475
G1 X135.342 Y72.784 E43.37101
G1 X136.041 Y72.982 E43.40726
G1 X136.714 Y73.255 E43.44349
G1 X137.353 Y73.6 E43.47972
G1 X137.95 Y74.014 E43.51597
G1 X138.498 Y74.49 E43.55218
G1 X138.991 Y75.024 E43.58844
G1 X139.421 Y75.609 E43.62466
G1 X139.785 Y76.238 E43.66092
G1 X140.078 Y76.903 E43.69717
G1 X140.296 Y77.596 E43.73342
G1 X140.436 Y78.308 E43.76962
G1 X140.5 Y79.225 E43.81548
G1 X140.5 Y120.775 E45.88842
G1 X140.46 Y121.5 E45.92464
G1 X140.341 Y122.217 E45.9609
G1 X140.143 Y122.916 E45.99715
G1 X139.87 Y123.589 E46.03338
G1 X139.525 Y124.228 E46.06961
G1 X139.111 Y124.825 E46.10586
G1 X138.635 Y125.373 E46.14207
G1 X138.101 Y125.866 E46.17833
G1 X137.516 Y126.296 E46.21455
G1 X136.887 Y126.66 E46.25081
G1 X136.222 Y126.953 E46.28706
G1 X135.529 Y127.171 E46.32331
G1 X134.817 Y127.311 E46.35951
G1 X133.9 Y127.375 E46.40537
G1 X66.1 Y127.375 E49.78793
G1 X65.375 Y127.335 E49.82415
G1 X64.658 Y127.216 E49.86041
G1 X63.959 Y127.018 E49.89666
G1 X63.286 Y126.745 E49.93289
G1 X62.647 Y126.4 E49.96912
G1 X62.05 Y125.986 E50.00537
G1 X61.502 Y125.51 E50.04158
G1 X61.009 Y124.976 E50.07784
G1 X60.579 Y124.391 E50.11406
G1 X60.215 Y123.762 E50.15032
G1 X59.922 Y123.097 E50.18657
G1 X59.704 Y122.404 E50.22282
G1 X59.564 Y121.692 E50.25902
G1 X59.5 Y120.775 E50.30488
G1 X59.5 Y79.225 E52.37782
G1 X59.54 Y78.5 E52.41404
G1 X59.659 Y77.783 E52.4503
G1 X59.857 Y77.084 E52.48655
G1 X60.13 Y76.411 E52.52278
G1 X60.475 Y75.772 E52.55901
G1 X60.889 Y75.175 E52.59526
G1 X61.365 Y74.627 E52.63147
G1 X61.899 Y74.134 E52.66773
G0 F3600 X62.289 Y74.334
G1 F1800 X62.868 Y73.934 E52.70284
G1 X63.489 Y73.602 E52.73797
G1 X64.143 Y73.342 E52.77308
G1 X64.823 Y73.158 E52.80823
G1 X65.519 Y73.052 E52.84335
G1 X66.1 Y73.025 E52.87237
G1 X133.9 Y73.025 E56.25492
G1 X134.603 Y73.065 E56.29005
G1 X135.297 Y73.184 E56.32518
G1 X135.972 Y73.382 E56.36028
G1 X136.621 Y73.654 E56.39539
G1 X137.235 Y73.999 E56.43052
G1 X137.806 Y74.41 E56.46562
G1 X138.327 Y74.884 E56.50076
G1 X138.791 Y75.414 E56.53591
G1 X139.191 Y75.993 E56.57102
G1 X139.523 Y76.614 E56.60615
G1 X139.783 Y77.268 E56.64126
G1 X139.967 Y77.948 E56.6764
G1 X140.073 Y78.644 E56.71153
G1 X140.1 Y79.225 E56.74055
G1 X140.1 Y120.775 E58.81348
G1 X140.06 Y121.478 E58.84861
G1 X139.941 Y122.172 E58.88374
G1 X139.743 Y122.847 E58.91884
G1 X139.471 Y123.496 E58.95394
G1 X139.126 Y124.11 E58.98908
G1 X138.715 Y124.681 E59.02418
G1 X138.241 Y125.202 E59.05932
G1 X137.711 Y125.666 E59.09446
G1 X137.132 Y126.066 E59.12957
G1 X136.511 Y126.398 E59.16471
G1 X135.857 Y126.658 E59.19982
G1 X135.177 Y126.842 E59.23496
G1 X134.481 Y126.948 E59.27009
G1 X133.9 Y126.975 E59.2991
G1 X66.1 Y126.975 E62.68166
G1 X65.397 Y126.935 E62.71679
G1 X64.703 Y126.816 E62.75192
G1 X64.028 Y126.618 E62.78701
G1 X63.379 Y126.346 E62.82212
G1 X62.765 Y126.001 E62.85726
G1 X62.194 Y125.59 E62.89236
G1 X61.673 Y125.116 E62.9275
G1 X61.209 Y124.586 E62.96264
G1 X60.809 Y124.007 E62.99775
G1 X60.477 Y123.386 E63.03288
G1 X60.217 Y122.732 E63.06799
G1 X60.033 Y122.052 E63.10314
G1 X59.927 Y121.356 E63.13826
G1 X59.9 Y120.775 E63.16728
G1 X59.9 Y79.225 E65.24022
G1 X59.94 Y78.522 E65.27535
G1 X60.059 Y77.828 E65.31048
G1 X60.257 Y77.153 E65.34557
G1 X60.529 Y76.504 E65.38068
G1 X60.874 Y75.89 E65.41582
G1 X61.285 Y75.319 E65.45092
G1 X61.759 Y74.798 E65.48606
G1 X62.289 Y74.334 E65.5212
G0 F3600 X62.678 Y74.542
G1 F1800 X63.25 Y74.173 E65.55516
G1 X63.862 Y73.874 E65.58914
G1 X64.504 Y73.649 E65.62308
G1 X65.169 Y73.5 E65.65708
G1 X66.1 Y73.425 E65.70368
G1 X133.9 Y73.425 E69.08624
G1 X134.58 Y73.465 E69.12022
G1 X135.25 Y73.584 E69.15417
G1 X135.902 Y73.781 E69.18815
G1 X136.526 Y74.053 E69.22211
G1 X137.114 Y74.397 E69.2561
G1 X137.658 Y74.807 E69.29008
G1 X138.149 Y75.278 E69.32403
G1 X138.583 Y75.803 E69.35801
G1 X138.952 Y76.375 E69.39197
G1 X139.251 Y76.987 E69.42595
G1 X139.476 Y77.629 E69.45989
G1 X139.625 Y78.294 E69.49389
G1 X139.7 Y79.225 E69.54049
G1 X139.7 Y120.775 E71.61343
G1 X139.66 Y121.455 E71.64741
G1 X139.541 Y122.125 E71.68136
G1 X139.344 Y122.777 E71.71534
G1 X139.072 Y123.401 E71.7493
G1 X138.728 Y123.989 E71.78329
G1 X138.318 Y124.533 E71.81727
G1 X137.847 Y125.024 E71.85122
G1 X137.322 Y125.458 E71.8852
G1 X136.75 Y125.827 E71.91916
G1 X136.138 Y126.126 E71.95314
G1 X135.496 Y126.351 E71.98708
G1 X134.831 Y126.5 E72.02108
G1 X133.9 Y126.575 E72.06768
G1 X66.1 Y126.575 E75.45024
G1 X65.42 Y126.535 E75.48422
G1 X64.75 Y126.416 E75.51817
G1 X64.098 Y126.219 E75.55215
G1 X63.474 Y125.947 E75.58611
G1 X62.886 Y125.603 E75.6201
G1 X62.342 Y125.193 E75.65408
G1 X61.851 Y124.722 E75.68803
G1 X61.417 Y124.197 E75.72201
G1 X61.048 Y123.625 E75.75597
G1 X60.749 Y123.013 E75.78995
G1 X60.524 Y122.371 E75.82389
G1 X60.375 Y121.706 E75.85789
G1 X60.3 Y120.775 E75.90449
G1 X60.3 Y79.225 E77.97743
G1 X60.34 Y78.545 E78.01141
G1 X60.459 Y77.875 E78.04536
G1 X60.656 Y77.223 E78.07934
G1 X60.928 Y76.599 E78.1133
G1 X61.272 Y76.011 E78.14729
G1 X61.682 Y75.467 E78.18128
G1 X62.153 Y74.976 E78.21522
G1 X62.678 Y74.542 E78.2492
G0 F3600 X62.545 Y75.16
G1 F1800 X63.065 Y74.759 E78.28197
G1 X63.629 Y74.423 E78.31472
G1 X64.231 Y74.159 E78.34751
G1 X64.86 Y73.969 E78.38029
G1 X65.507 Y73.858 E78.41305
G1 X66.1 Y73.825 E78.44268
G1 X133.9 Y73.825 E81.82523
G1 X134.556 Y73.865 E81.85802
G1 X135.202 Y73.984 E81.89079
G1 X135.829 Y74.181 E81.92358
G1 X136.427 Y74.453 E81.95636
G1 X136.988 Y74.795 E81.98914
G1 X137.503 Y75.203 E82.02191
G1 X137.965 Y75.67 E82.05469
G1 X138.366 Y76.19 E82.08745
G1 X138.702 Y76.754 E82.1202
G1 X138.966 Y77.356 E82.153
G1 X139.156 Y77.985 E82.18578
G1 X139.267 Y78.632 E82.21853
G1 X139.3 Y79.225 E82.24816
G1 X139.3 Y120.775 E84.3211
G1 X139.26 Y121.431 E84.35389
G1 X139.141 Y122.077 E84.38666
G1 X138.944 Y122.704 E84.41945
G1 X138.672 Y123.302 E84.45222
G1 X138.33 Y123.863 E84.485
G1 X137.922 Y124.378 E84.51778
G1 X137.455 Y124.84 E84.55055
G1 X136.935 Y125.241 E84.58332
G1 X136.371 Y125.577 E84.61607
G1 X135.769 Y125.841 E84.64886
G1 X135.14 Y126.031 E84.68164
G1 X134.493 Y126.142 E84.71439
G1 X133.9 Y126.175 E84.74403
G1 X66.1 Y126.175 E88.12658
G1 X65.444 Y126.135 E88.15937
G1 X64.798 Y126.016 E88.19214
G1 X64.171 Y125.819 E88.22493
G1 X63.573 Y125.547 E88.25771
G1 X63.012 Y125.205 E88.29048
G1 X62.497 Y124.797 E88.32326
G1 X62.035 Y124.33 E88.35604
G1 X61.634 Y123.81 E88.3888
G1 X61.298 Y123.246 E88.42155
G1 X61.034 Y122.644 E88.45435
G1 X60.844 Y122.015 E88.48713
G1 X60.733 Y121.368 E88.51988
G1 X60.7 Y120.775 E88.54951
G1 X60.7 Y79.225 E90.62245
G1 X60.74 Y78.569 E90.65524
G1 X60.859 Y77.923 E90.68801
G1 X61.056 Y77.296 E90.7208
G1 X61.328 Y76.698 E90.75357
G1 X61.67 Y76.137 E90.78635
G1 X62.078 Y75.622 E90.81913
G1 X62.545 Y75.16 E90.8519
G0 F3600 X62.936 Y75.354
G1 F1800 X63.45 Y74.985 E90.88347
G1 X64.006 Y74.685 E90.91499
G1 X64.595 Y74.457 E90.9465
G1 X65.209 Y74.305 E90.97806
G1 X66.1 Y74.225 E91.02269
G1 X133.9 Y74.225 E94.40524
G1 X134.531 Y74.265 E94.43679
G1 X135.152 Y74.384 E94.46833
G1 X135.752 Y74.581 E94.49984
G1 X136.324 Y74.852 E94.53142
G1 X136.856 Y75.192 E94.56292
G1 X137.341 Y75.598 E94.59447
G1 X137.771 Y76.061 E94.626
G1 X138.14 Y76.575 E94.65756
G1 X138.44 Y77.131 E94.68908
G1 X138.668 Y77.72 E94.72059
G1 X138.82 Y78.334 E94.75215
G1 X138.9 Y79.225 E94.79678
G1 X138.9 Y120.775 E96.86972
G1 X138.86 Y121.406 E96.90126
G1 X138.741 Y122.027 E96.93281
G1 X138.544 Y122.627 E96.96432
G1 X138.273 Y123.199 E96.99589
G1 X137.933 Y123.731 E97.02739
G1 X137.527 Y124.216 E97.05895
G1 X137.064 Y124.646 E97.09047
G1 X136.55 Y125.015 E97.12204
G1 X135.994 Y125.315 E97.15356
G1 X135.405 Y125.543 E97.18507
G1 X134.791 Y125.695 E97.21663
G1 X133.9 Y125.775 E97.26126
G1 X66.1 Y125.775 E100.64381
G1 X65.469 Y125.735 E100.67536
G1 X64.848 Y125.616 E100.7069
G1 X64.248 Y125.419 E100.73841
G1 X63.676 Y125.148 E100.76999
G1 X63.144 Y124.808 E100.80149
G1 X62.659 Y124.402 E100.83304
G1 X62.229 Y123.939 E100.86457
G1 X61.86 Y123.425 E100.89613
G1 X61.56 Y122.869 E100.92765
G1 X61.332 Y122.28 E100.95916
G1 X61.18 Y121.666 E100.99072
G1 X61.1 Y120.775 E101.03535
G1 X61.1 Y79.225 E103.10829
G1 X61.14 Y78.594 E103.13983
G1 X61.259 Y77.973 E103.17138
G1 X61.456 Y77.373 E103.20289
G1 X61.727 Y76.801 E103.23446
G1 X62.067 Y76.269 E103.26596
G1 X62.473 Y75.784 E103.29752
G1 X62.936 Y75.354 E103.32904
G0 F3600 X63.325 Y75.556
G1 F1800 X63.832 Y75.223 E103.35931
G1 X64.378 Y74.959 E103.38956
G1 X64.954 Y74.77 E103.41981
G1 X65.55 Y74.658 E103.45006
G1 X66.1 Y74.625 E103.47755
G1 X133.9 Y74.625 E106.86011
G1 X134.505 Y74.665 E106.89036
G1 X135.099 Y74.784 E106.92058
G1 X135.673 Y74.98 E106.95084
G1 X136.216 Y75.251 E106.98112
G1 X136.719 Y75.59 E107.01138
G1 X137.172 Y75.992 E107.04159
G1 X137.569 Y76.45 E107.07183
G1 X137.902 Y76.957 E107.1021
G1 X138.166 Y77.503 E107.13235
G1 X138.355 Y78.079 E107.1626
G1 X138.467 Y78.675 E107.19285
G1 X138.5 Y79.225 E107.22034
G1 X138.5 Y120.775 E109.29328
G1 X138.46 Y121.38 E109.32353
G1 X138.341 Y121.974 E109.35375
G1 X138.145 Y122.548 E109.38401
G1 X137.874 Y123.091 E109.41429
G1 X137.535 Y123.594 E109.44455
G1 X137.133 Y124.047 E109.47477
G1 X136.675 Y124.444 E109.50501
G1 X136.168 Y124.777 E109.53527
G1 X135.622 Y125.041 E109.56553
G1 X135.046 Y125.23 E109.59577
G1 X134.45 Y125.342 E109.62603
G1 X133.9 Y125.375 E109.65351
