;FLAVOR:Marlin
;TIME:4983
;Filament used: 2.96157m
;Layer height: 0.1
;Generated with Cura_SteamEngine 3.6.0
M140 S60
M105
M190 S60
M104 S200
M105
M109 S200
M82 ;absolute extrusion mode
G21 ;metric values
G90 ;absolute positioning
M82 ;set extruder to absolute mode
M107 ;start with the fan off
G28 X0 Y0 ;move X/Y to min endstops
G28 Z0 ;move Z to min endstops
G1 Z15.0 F9000 ;move the platform down 15mm
G92 E0 ;zero the extruded length
G1 F200 E3 ;extrude 3mm of feed stock
G92 E0 ;zero the extruded length again
G1 F9000
;Put printing message on LCD screen
M117 Printing...
G92 E0
G1 F1500 E-6.5
;LAYER_COUNT:50
;LAYER:0
M107
G0 F3600 X55.739 Y58.657 Z0.3
;TYPE:SKIRT
G1 F1500 E0
G1 F1800 X56.338 Y58.142 E0.03941
G1 X56.986 Y57.691 E0.0788
G1 X57.677 Y57.307 E0.11824
G1 X58.402 Y56.995 E0.15762
G1 X59.155 Y56.758 E0.197
G1 X59.929 Y56.599 E0.23642
G1 X60.714 Y56.518 E0.27579
G1 X61.116 Y56.508 E0.29586
G1 X136.116 Y56.508 E4.03762
G1 X136.905 Y56.548 E4.07703
G1 X137.685 Y56.667 E4.1164
G1 X138.45 Y56.865 E4.15582
G1 X139.19 Y57.139 E4.19519
G1 X139.899 Y57.487 E4.23459
G1 X140.57 Y57.905 E4.27404
G1 X141.194 Y58.388 E4.3134
G1 X141.767 Y58.931 E4.35279
G1 X142.282 Y59.53 E4.3922
G1 X142.733 Y60.178 E4.43159
G1 X143.117 Y60.869 E4.47103
G1 X143.429 Y61.594 E4.5104
G1 X143.666 Y62.347 E4.54979
G1 X143.825 Y63.121 E4.58921
G1 X143.906 Y63.906 E4.62858
G1 X143.916 Y64.308 E4.64864
G1 X143.916 Y131.808 E8.01623
G1 X143.876 Y132.597 E8.05565
G1 X143.757 Y133.377 E8.09501
G1 X143.559 Y134.142 E8.13443
G1 X143.285 Y134.882 E8.1738
G1 X142.937 Y135.591 E8.21321
G1 X142.519 Y136.262 E8.25265
G1 X142.036 Y136.886 E8.29201
G1 X141.493 Y137.459 E8.3314
G1 X140.894 Y137.974 E8.37081
G1 X140.246 Y138.425 E8.4102
G1 X139.555 Y138.809 E8.44964
G1 X138.83 Y139.121 E8.48901
G1 X138.077 Y139.358 E8.5284
G1 X137.303 Y139.517 E8.56782
G1 X136.518 Y139.598 E8.60719
G1 X136.116 Y139.608 E8.62725
G1 X61.116 Y139.608 E12.36902
G1 X60.327 Y139.568 E12.40843
G1 X59.547 Y139.449 E12.4478
G1 X58.782 Y139.251 E12.48722
G1 X58.042 Y138.977 E12.52659
G1 X57.333 Y138.629 E12.56599
G1 X56.662 Y138.211 E12.60543
G1 X56.038 Y137.728 E12.6448
G1 X55.465 Y137.185 E12.68419
G1 X54.95 Y136.586 E12.7236
G1 X54.499 Y135.938 E12.76298
G1 X54.115 Y135.247 E12.80242
G1 X53.803 Y134.522 E12.8418
G1 X53.566 Y133.769 E12.88119
G1 X53.407 Y132.995 E12.92061
G1 X53.326 Y132.21 E12.95998
G1 X53.316 Y131.808 E12.98004
G1 X53.316 Y64.308 E16.34763
G1 X53.356 Y63.519 E16.38704
G1 X53.475 Y62.739 E16.42641
G1 X53.673 Y61.974 E16.46583
G1 X53.947 Y61.234 E16.5052
G1 X54.295 Y60.525 E16.5446
G1 X54.713 Y59.854 E16.58404
G1 X55.196 Y59.23 E16.62341
G1 X55.739 Y58.657 E16.6628
G0 F3600 X56.132 Y58.838
G1 F1800 X56.727 Y58.35 E16.70119
G1 X57.369 Y57.927 E16.73954
G1 X58.052 Y57.572 E16.77795
G1 X58.767 Y57.291 E16.81627
G1 X59.509 Y57.085 E16.85469
G1 X60.267 Y56.957 E16.89305
G1 X61.116 Y56.908 E16.93547
G1 X136.116 Y56.908 E20.67724
G1 X136.884 Y56.948 E20.71561
G1 X137.644 Y57.067 E20.75398
G1 X138.387 Y57.265 E20.79235
G1 X139.106 Y57.539 E20.83073
G1 X139.792 Y57.886 E20.86909
G1 X140.439 Y58.302 E20.90746
G1 X141.039 Y58.783 E20.94583
G1 X141.586 Y59.324 E20.98421
G1 X142.074 Y59.919 E21.0226
G1 X142.497 Y60.561 E21.06096
G1 X142.852 Y61.244 E21.09936
G1 X143.133 Y61.959 E21.13769
G1 X143.339 Y62.701 E21.17611
G1 X143.467 Y63.459 E21.21446
G1 X143.516 Y64.308 E21.25689
G1 X143.516 Y131.808 E24.62448
G1 X143.476 Y132.576 E24.66285
G1 X143.357 Y133.336 E24.70122
G1 X143.159 Y134.079 E24.73959
G1 X142.885 Y134.798 E24.77797
G1 X142.538 Y135.484 E24.81633
G1 X142.122 Y136.131 E24.8547
G1 X141.641 Y136.731 E24.89307
G1 X141.1 Y137.278 E24.93145
G1 X140.505 Y137.766 E24.96984
G1 X139.863 Y138.189 E25.0082
G1 X139.18 Y138.544 E25.0466
G1 X138.465 Y138.825 E25.08493
G1 X137.723 Y139.031 E25.12335
G1 X136.965 Y139.159 E25.1617
G1 X136.116 Y139.208 E25.20413
G1 X61.116 Y139.208 E28.94589
G1 X60.348 Y139.168 E28.98426
G1 X59.588 Y139.049 E29.02264
G1 X58.845 Y138.851 E29.061
G1 X58.126 Y138.577 E29.09939
G1 X57.44 Y138.23 E29.13774
G1 X56.793 Y137.814 E29.17612
G1 X56.193 Y137.333 E29.21448
G1 X55.646 Y136.792 E29.25287
G1 X55.158 Y136.197 E29.29126
G1 X54.735 Y135.555 E29.32962
G1 X54.38 Y134.872 E29.36802
G1 X54.099 Y134.157 E29.40635
G1 X53.893 Y133.415 E29.44476
G1 X53.765 Y132.657 E29.48312
G1 X53.716 Y131.808 E29.52554
G1 X53.716 Y64.308 E32.89313
G1 X53.756 Y63.54 E32.9315
G1 X53.875 Y62.78 E32.96988
G1 X54.073 Y62.037 E33.00824
G1 X54.347 Y61.318 E33.04663
G1 X54.694 Y60.632 E33.08498
G1 X55.11 Y59.985 E33.12336
G1 X55.591 Y59.385 E33.16172
G1 X56.132 Y58.838 E33.20011
G0 F3600 X56.524 Y59.024
G1 F1800 X57.114 Y58.565 E33.2374
G1 X57.75 Y58.17 E33.27475
G1 X58.424 Y57.846 E33.31206
G1 X59.129 Y57.596 E33.34938
G1 X59.857 Y57.422 E33.38672
G1 X60.599 Y57.327 E33.42404
G1 X61.116 Y57.308 E33.44985
G1 X136.116 Y57.308 E37.19162
G1 X136.863 Y57.348 E37.22894
G1 X137.601 Y57.467 E37.26623
G1 X138.323 Y57.665 E37.30359
G1 X139.019 Y57.938 E37.34088
G1 X139.682 Y58.285 E37.37822
G1 X140.305 Y58.7 E37.41556
G1 X140.879 Y59.179 E37.45286
G1 X141.4 Y59.716 E37.49019
G1 X141.859 Y60.306 E37.52748
G1 X142.254 Y60.942 E37.56484
G1 X142.578 Y61.616 E37.60215
G1 X142.828 Y62.321 E37.63946
G1 X143.002 Y63.049 E37.67681
G1 X143.097 Y63.791 E37.71413
G1 X143.116 Y64.308 E37.73994
G1 X143.116 Y131.808 E41.10753
G1 X143.076 Y132.555 E41.14485
G1 X142.957 Y133.293 E41.18214
G1 X142.759 Y134.015 E41.21949
G1 X142.486 Y134.711 E41.25679
G1 X142.139 Y135.374 E41.29413
G1 X141.724 Y135.997 E41.33147
G1 X141.245 Y136.571 E41.36877
G1 X140.708 Y137.092 E41.4061
G1 X140.118 Y137.551 E41.44339
G1 X139.482 Y137.946 E41.48075
G1 X138.808 Y138.27 E41.51805
G1 X138.103 Y138.52 E41.55537
G1 X137.375 Y138.694 E41.59272
G1 X136.633 Y138.789 E41.63004
G1 X136.116 Y138.808 E41.65585
G1 X61.116 Y138.808 E45.39761
G1 X60.369 Y138.768 E45.43493
G1 X59.631 Y138.649 E45.47223
G1 X58.909 Y138.451 E45.50958
G1 X58.213 Y138.178 E45.54688
G1 X57.55 Y137.831 E45.58421
G1 X56.927 Y137.416 E45.62156
G1 X56.353 Y136.937 E45.65886
G1 X55.832 Y136.4 E45.69619
G1 X55.373 Y135.81 E45.73348
G1 X54.978 Y135.174 E45.77083
G1 X54.654 Y134.5 E45.80814
G1 X54.404 Y133.795 E45.84546
G1 X54.23 Y133.067 E45.8828
G1 X54.135 Y132.325 E45.92012
G1 X54.116 Y131.808 E45.94593
G1 X54.116 Y64.308 E49.31352
G1 X54.156 Y63.561 E49.35084
G1 X54.275 Y62.823 E49.38814
G1 X54.473 Y62.101 E49.42549
G1 X54.746 Y61.405 E49.46279
G1 X55.093 Y60.742 E49.50012
G1 X55.508 Y60.119 E49.53747
G1 X55.987 Y59.545 E49.57477
G1 X56.524 Y59.024 E49.61209
G0 F3600 X56.381 Y59.71
G1 F1800 X56.915 Y59.217 E49.64835
G1 X57.5 Y58.787 E49.68457
G1 X58.129 Y58.423 E49.72083
G1 X58.794 Y58.13 E49.75709
G1 X59.487 Y57.912 E49.79333
G1 X60.199 Y57.772 E49.82953
G1 X61.116 Y57.708 E49.87539
G1 X136.116 Y57.708 E53.61716
G1 X136.841 Y57.748 E53.65338
G1 X137.558 Y57.867 E53.68964
G1 X138.257 Y58.065 E53.72589
G1 X138.93 Y58.338 E53.76212
G1 X139.569 Y58.683 E53.79835
G1 X140.166 Y59.097 E53.8346
G1 X140.714 Y59.573 E53.87081
G1 X141.207 Y60.107 E53.90707
G1 X141.637 Y60.692 E53.94329
G1 X142.001 Y61.321 E53.97955
G1 X142.294 Y61.986 E54.0158
G1 X142.512 Y62.679 E54.05205
G1 X142.652 Y63.391 E54.08825
G1 X142.716 Y64.308 E54.13411
G1 X142.716 Y131.808 E57.5017
G1 X142.676 Y132.533 E57.53792
G1 X142.557 Y133.25 E57.57419
G1 X142.359 Y133.949 E57.61043
G1 X142.086 Y134.622 E57.64666
G1 X141.741 Y135.261 E57.68289
G1 X141.327 Y135.858 E57.71914
G1 X140.851 Y136.406 E57.75535
G1 X140.317 Y136.899 E57.79161
G1 X139.732 Y137.329 E57.82783
G1 X139.103 Y137.693 E57.86409
G1 X138.438 Y137.986 E57.90034
G1 X137.745 Y138.204 E57.93659
G1 X137.033 Y138.344 E57.97279
G1 X136.116 Y138.408 E58.01865
G1 X61.116 Y138.408 E61.76042
G1 X60.391 Y138.368 E61.79664
G1 X59.674 Y138.249 E61.8329
G1 X58.975 Y138.051 E61.86915
G1 X58.302 Y137.778 E61.90538
G1 X57.663 Y137.433 E61.94161
G1 X57.066 Y137.019 E61.97786
G1 X56.518 Y136.543 E62.01407
G1 X56.025 Y136.009 E62.05033
G1 X55.595 Y135.424 E62.08655
G1 X55.231 Y134.795 E62.12281
G1 X54.938 Y134.13 E62.15906
G1 X54.72 Y133.437 E62.19531
G1 X54.58 Y132.725 E62.23151
G1 X54.516 Y131.808 E62.27737
G1 X54.516 Y64.308 E65.64496
G1 X54.556 Y63.583 E65.68118
G1 X54.675 Y62.866 E65.71744
G1 X54.873 Y62.167 E65.75369
G1 X55.146 Y61.494 E65.78992
G1 X55.491 Y60.855 E65.82615
G1 X55.905 Y60.258 E65.8624
G1 X56.381 Y59.71 E65.89861
G0 F3600 X56.775 Y59.881
G1 F1800 X57.305 Y59.417 E65.93375
G1 X57.884 Y59.017 E65.96886
G1 X58.505 Y58.685 E66.004
G1 X59.159 Y58.425 E66.03911
G1 X59.839 Y58.241 E66.07425
G1 X60.535 Y58.135 E66.10938
G1 X61.116 Y58.108 E66.13839
G1 X136.116 Y58.108 E69.88016
G1 X136.819 Y58.148 E69.91529
G1 X137.513 Y58.267 E69.95042
G1 X138.188 Y58.465 E69.98551
G1 X138.837 Y58.737 E70.02062
G1 X139.451 Y59.082 E70.05576
G1 X140.022 Y59.493 E70.09086
G1 X140.543 Y59.967 E70.126
G1 X141.007 Y60.497 E70.16114
G1 X141.407 Y61.076 E70.19625
G1 X141.739 Y61.697 E70.23138
G1 X141.999 Y62.351 E70.26649
G1 X142.183 Y63.031 E70.30164
G1 X142.289 Y63.727 E70.33676
G1 X142.316 Y64.308 E70.36578
G1 X142.316 Y131.808 E73.73337
G1 X142.276 Y132.511 E73.7685
G1 X142.157 Y133.205 E73.80363
G1 X141.959 Y133.88 E73.83872
G1 X141.687 Y134.529 E73.87383
G1 X141.342 Y135.143 E73.90897
G1 X140.931 Y135.714 E73.94407
G1 X140.457 Y136.235 E73.97921
G1 X139.927 Y136.699 E74.01435
G1 X139.348 Y137.099 E74.04946
G1 X138.727 Y137.431 E74.08459
G1 X138.073 Y137.691 E74.1197
G1 X137.393 Y137.875 E74.15485
G1 X136.697 Y137.981 E74.18997
G1 X136.116 Y138.008 E74.21899
G1 X61.116 Y138.008 E77.96076
G1 X60.413 Y137.968 E77.99588
G1 X59.719 Y137.849 E78.03101
G1 X59.044 Y137.651 E78.06611
G1 X58.395 Y137.379 E78.10122
G1 X57.781 Y137.034 E78.13635
G1 X57.21 Y136.623 E78.17145
G1 X56.689 Y136.149 E78.20659
G1 X56.225 Y135.619 E78.24174
G1 X55.825 Y135.04 E78.27685
G1 X55.493 Y134.419 E78.31198
G1 X55.233 Y133.765 E78.34709
G1 X55.049 Y133.085 E78.38223
G1 X54.943 Y132.389 E78.41736
G1 X54.916 Y131.808 E78.44638
G1 X54.916 Y64.308 E81.81396
G1 X54.956 Y63.605 E81.84909
G1 X55.075 Y62.911 E81.88422
G1 X55.273 Y62.236 E81.91932
G1 X55.545 Y61.587 E81.95443
G1 X55.89 Y60.973 E81.98956
G1 X56.301 Y60.402 E82.02466
G1 X56.775 Y59.881 E82.0598
G0 F3600 X57.169 Y60.059
G1 F1800 X57.694 Y59.625 E82.09379
G1 X58.266 Y59.256 E82.12775
G1 X58.878 Y58.957 E82.16173
G1 X59.52 Y58.732 E82.19567
G1 X60.185 Y58.583 E82.22967
G1 X61.116 Y58.508 E82.27627
G1 X136.116 Y58.508 E86.01803
G1 X136.796 Y58.548 E86.05201
G1 X137.466 Y58.667 E86.08596
G1 X138.118 Y58.864 E86.11994
G1 X138.742 Y59.136 E86.15391
G1 X139.33 Y59.48 E86.18789
G1 X139.874 Y59.89 E86.22188
G1 X140.365 Y60.361 E86.25582
G1 X140.799 Y60.886 E86.28981
G1 X141.168 Y61.458 E86.32377
G1 X141.467 Y62.07 E86.35775
G1 X141.692 Y62.712 E86.39169
G1 X141.841 Y63.377 E86.42569
G1 X141.916 Y64.308 E86.47228
G1 X141.916 Y131.808 E89.83987
G1 X141.876 Y132.488 E89.87386
G1 X141.757 Y133.158 E89.90781
G1 X141.56 Y133.81 E89.94179
G1 X141.288 Y134.434 E89.97575
G1 X140.944 Y135.022 E90.00974
G1 X140.534 Y135.566 E90.04372
G1 X140.063 Y136.057 E90.07767
G1 X139.538 Y136.491 E90.11165
G1 X138.966 Y136.86 E90.14561
G1 X138.354 Y137.159 E90.17959
G1 X137.712 Y137.384 E90.21353
G1 X137.047 Y137.533 E90.24753
G1 X136.116 Y137.608 E90.29413
G1 X61.116 Y137.608 E94.03589
G1 X60.436 Y137.568 E94.06988
G1 X59.766 Y137.449 E94.10383
G1 X59.114 Y137.252 E94.13781
G1 X58.49 Y136.98 E94.17177
G1 X57.902 Y136.636 E94.20575
G1 X57.358 Y136.226 E94.23974
G1 X56.867 Y135.755 E94.27368
G1 X56.433 Y135.23 E94.30767
G1 X56.064 Y134.658 E94.34163
G1 X55.765 Y134.046 E94.37561
G1 X55.54 Y133.404 E94.40955
G1 X55.391 Y132.739 E94.44355
G1 X55.316 Y131.808 E94.49015
G1 X55.316 Y64.308 E97.85774
G1 X55.356 Y63.628 E97.89172
G1 X55.475 Y62.958 E97.92567
G1 X55.672 Y62.306 E97.95965
G1 X55.944 Y61.682 E97.99361
G1 X56.288 Y61.094 E98.0276
G1 X56.698 Y60.55 E98.06158
G1 X57.169 Y60.059 E98.09553
G0 F3600 X57.561 Y60.243
G1 F1800 X58.081 Y59.842 E98.12829
G1 X58.645 Y59.506 E98.16104
G1 X59.247 Y59.242 E98.19384
G1 X59.876 Y59.052 E98.22662
G1 X60.523 Y58.941 E98.25937
G1 X61.116 Y58.908 E98.289
G1 X136.116 Y58.908 E102.03076
G1 X136.772 Y58.948 E102.06355
G1 X137.418 Y59.067 E102.09632
G1 X138.045 Y59.264 E102.12911
G1 X138.643 Y59.536 E102.16189
G1 X139.204 Y59.878 E102.19467
G1 X139.719 Y60.286 E102.22745
G1 X140.181 Y60.753 E102.26022
G1 X140.582 Y61.273 E102.29298
G1 X140.918 Y61.837 E102.32573
G1 X141.182 Y62.439 E102.35853
G1 X141.372 Y63.068 E102.39131
G1 X141.483 Y63.715 E102.42406
G1 X141.516 Y64.308 E102.45369
G1 X141.516 Y131.808 E105.82128
G1 X141.476 Y132.464 E105.85407
G1 X141.357 Y133.11 E105.88684
G1 X141.16 Y133.737 E105.91963
G1 X140.888 Y134.335 E105.9524
G1 X140.546 Y134.896 E105.98518
G1 X140.138 Y135.411 E106.01796
G1 X139.671 Y135.873 E106.05074
G1 X139.151 Y136.274 E106.0835
G1 X138.587 Y136.61 E106.11625
G1 X137.985 Y136.874 E106.14905
G1 X137.356 Y137.064 E106.18183
G1 X136.709 Y137.175 E106.21458
G1 X136.116 Y137.208 E106.24421
G1 X61.116 Y137.208 E109.98597
G1 X60.46 Y137.168 E110.01876
G1 X59.814 Y137.049 E110.05153
G1 X59.187 Y136.852 E110.08432
G1 X58.589 Y136.58 E110.1171
G1 X58.028 Y136.238 E110.14988
G1 X57.513 Y135.83 E110.18266
G1 X57.051 Y135.363 E110.21543
G1 X56.65 Y134.843 E110.24819
G1 X56.314 Y134.279 E110.28094
G1 X56.05 Y133.677 E110.31374
G1 X55.86 Y133.048 E110.34652
G1 X55.749 Y132.401 E110.37927
G1 X55.716 Y131.808 E110.4089
G1 X55.716 Y64.308 E113.77649
G1 X55.756 Y63.652 E113.80928
G1 X55.875 Y63.006 E113.84205
G1 X56.072 Y62.379 E113.87484
G1 X56.344 Y61.781 E113.90761
G1 X56.686 Y61.22 E113.94039
G1 X57.094 Y60.705 E113.97317
G1 X57.561 Y60.243 E114.00595
G0 F3600 X57.489 Y60.867
G1 F1800 X57.952 Y60.437 E114.03747
G1 X58.466 Y60.068 E114.06904
G1 X59.022 Y59.768 E114.10056
G1 X59.611 Y59.54 E114.13207
G1 X60.225 Y59.388 E114.16363
G1 X61.116 Y59.308 E114.20826
G1 X136.116 Y59.308 E117.95002
G1 X136.747 Y59.348 E117.98157
G1 X137.368 Y59.467 E118.01311
G1 X137.968 Y59.664 E118.04462
G1 X138.54 Y59.935 E118.0762
G1 X139.072 Y60.275 E118.10769
G1 X139.557 Y60.681 E118.13925
G1 X139.987 Y61.144 E118.17077
G1 X140.356 Y61.658 E118.20234
G1 X140.656 Y62.214 E118.23386
G1 X140.884 Y62.803 E118.26537
G1 X141.036 Y63.417 E118.29693
G1 X141.116 Y64.308 E118.34156
G1 X141.116 Y131.808 E121.70915
G1 X141.076 Y132.439 E121.74069
G1 X140.957 Y133.06 E121.77224
G1 X140.76 Y133.66 E121.80374
G1 X140.489 Y134.232 E121.83532
G1 X140.149 Y134.764 E121.86682
G1 X139.743 Y135.249 E121.89838
G1 X139.28 Y135.679 E121.9299
G1 X138.766 Y136.048 E121.96147
G1 X138.21 Y136.348 E121.99299
G1 X137.621 Y136.576 E122.0245
G1 X137.007 Y136.728 E122.05605
G1 X136.116 Y136.808 E122.10069
G1 X61.116 Y136.808 E125.84245
G1 X60.485 Y136.768 E125.874
G1 X59.864 Y136.649 E125.90554
G1 X59.264 Y136.452 E125.93705
G1 X58.692 Y136.181 E125.96862
G1 X58.16 Y135.841 E126.00012
G1 X57.675 Y135.435 E126.03168
G1 X57.245 Y134.972 E126.0632
G1 X56.876 Y134.458 E126.09477
G1 X56.576 Y133.902 E126.12629
G1 X56.348 Y133.313 E126.1578
G1 X56.196 Y132.699 E126.18936
G1 X56.116 Y131.808 E126.23399
G1 X56.116 Y64.308 E129.60158
G1 X56.156 Y63.677 E129.63312
G1 X56.275 Y63.056 E129.66467
G1 X56.472 Y62.456 E129.69617
G1 X56.743 Y61.884 E129.72775
G1 X57.083 Y61.352 E129.75925
G1 X57.489 Y60.867 E129.79081
G0 F3600 X57.883 Y61.036
G1 F1800 X58.341 Y60.639 E129.82105
G1 X58.848 Y60.306 E129.85131
G1 X59.394 Y60.042 E129.88156
G1 X59.97 Y59.853 E129.91181
G1 X60.566 Y59.741 E129.94206
G1 X61.116 Y59.708 E129.96955
G1 X136.116 Y59.708 E133.71132
G1 X136.721 Y59.748 E133.74157
G1 X137.315 Y59.867 E133.77179
G1 X137.889 Y60.063 E133.80205
G1 X138.432 Y60.334 E133.83233
G1 X138.935 Y60.673 E133.86259
G1 X139.388 Y61.075 E133.89281
G1 X139.785 Y61.533 E133.92305
G1 X140.118 Y62.04 E133.95331
G1 X140.382 Y62.586 E133.98357
G1 X140.571 Y63.162 E134.01381
G1 X140.683 Y63.758 E134.04406
G1 X140.716 Y64.308 E134.07155
G1 X140.716 Y131.808 E137.43914
G1 X140.676 Y132.413 E137.46939
G1 X140.557 Y133.007 E137.49962
G1 X140.361 Y133.581 E137.52988
