;FLAVOR:Marlin
;TIME:980
;Filament used: 0.821323m
;Layer height: 0.1
;Generated with Cura_SteamEngine 3.6.0
M140 S60
M105
M190 S60
M104 S200
M105
M109 S200
M82 ;absolute extrusion mode
G21 ;metric values
G90 ;absolute positioning
M82 ;set extruder to absolute mode
M107 ;start with the fan off
G28 X0 Y0 ;move X/Y to min endstops
G28 Z0 ;move Z to min endstops
G1 Z15.0 F9000 ;move the platform down 15mm
G92 E0 ;zero the extruded length
G1 F200 E3 ;extrude 3mm of feed stock
G92 E0 ;zero the extruded length again
G1 F9000
;Put printing message on LCD screen
M117 Printing...
G92 E0
G1 F1500 E-6.5
;LAYER_COUNT:17
;LAYER:0
M107
G0 F3600 X61.322 Y72.934 Z0.3
;TYPE:SKIRT
G1 F1500 E0
G1 F1800 X61.97 Y72.483 E0.03939
G1 X62.661 Y72.099 E0.07883
G1 X63.386 Y71.787 E0.11821
G1 X64.139 Y71.55 E0.15759
G1 X64.913 Y71.391 E0.19701
G1 X65.698 Y71.31 E0.23638
G1 X66.1 Y71.3 E0.25644
G1 X133.9 Y71.3 E3.639
G1 X134.689 Y71.34 E3.67841
G1 X135.469 Y71.459 E3.71778
G1 X136.234 Y71.657 E3.7572
G1 X136.974 Y71.931 E3.79657
G1 X137.683 Y72.279 E3.83597
G1 X138.354 Y72.697 E3.87541
G1 X138.978 Y73.18 E3.91478
G1 X139.551 Y73.723 E3.95417
G1 X140.066 Y74.322 E3.99358
G1 X140.517 Y74.97 E4.03297
G1 X140.901 Y75.661 E4.07241
G1 X141.213 Y76.386 E4.11178
G1 X141.45 Y77.139 E4.15117
G1 X141.609 Y77.913 E4.19059
G1 X141.69 Y78.698 E4.22996
G1 X141.7 Y79.1 E4.25002
G1 X141.7 Y80.9 E4.33982
G1 X141.66 Y81.689 E4.37924
G1 X141.541 Y82.469 E4.4186
G1 X141.343 Y83.234 E4.45803
G1 X141.069 Y83.974 E4.4974
G1 X140.721 Y84.683 E4.5368
G1 X140.529 Y84.991 E4.55491
G1 X140.901 Y85.661 E4.59314
G1 X141.213 Y86.386 E4.63252
G1 X141.45 Y87.139 E4.6719
G1 X141.609 Y87.913 E4.71132
G1 X141.69 Y88.698 E4.75069
G1 X141.7 Y89.1 E4.77076
G1 X141.7 Y90.9 E4.86056
G1 X141.66 Y91.689 E4.89997
G1 X141.541 Y92.469 E4.93934
G1 X141.343 Y93.234 E4.97876
G1 X141.069 Y93.974 E5.01813
G1 X140.721 Y94.683 E5.05753
G1 X140.529 Y94.991 E5.07564
G1 X140.901 Y95.661 E5.11387
G1 X141.213 Y96.386 E5.15325
G1 X141.45 Y97.139 E5.19263
G1 X141.609 Y97.913 E5.23206
G1 X141.69 Y98.698 E5.27143
G1 X141.7 Y99.1 E5.29149
G1 X141.7 Y100.9 E5.38129
G1 X141.66 Y101.689 E5.42071
G1 X141.541 Y102.469 E5.46007
G1 X141.343 Y103.234 E5.49949
G1 X141.069 Y103.974 E5.53886
G1 X140.721 Y104.683 E5.57827
G1 X140.303 Y105.354 E5.61771
G1 X139.82 Y105.978 E5.65707
G1 X139.794 Y106.006 E5.65898
G1 X140.066 Y106.322 E5.67978
G1 X140.517 Y106.97 E5.71917
G1 X140.901 Y107.661 E5.75861
G1 X141.213 Y108.386 E5.79799
G1 X141.45 Y109.139 E5.83737
G1 X141.609 Y109.913 E5.87679
G1 X141.69 Y110.698 E5.91616
G1 X141.7 Y111.1 E5.93623
G1 X141.7 Y112.9 E6.02603
G1 X141.66 Y113.689 E6.06544
G1 X141.541 Y114.469 E6.10481
G1 X141.343 Y115.234 E6.14423
G1 X141.069 Y115.974 E6.1836
G1 X140.721 Y116.683 E6.223
G1 X140.303 Y117.354 E6.26244
G1 X139.82 Y117.978 E6.30181
G1 X139.277 Y118.551 E6.34119
G1 X138.678 Y119.066 E6.38061
G1 X138.03 Y119.517 E6.41999
G1 X137.339 Y119.901 E6.45943
G1 X136.614 Y120.213 E6.49881
G1 X135.861 Y120.45 E6.5382
G1 X135.087 Y120.609 E6.57762
G1 X134.302 Y120.69 E6.61699
G1 X133.9 Y120.7 E6.63705
G1 X66.1 Y120.7 E10.01961
G1 X65.311 Y120.66 E10.05902
G1 X64.531 Y120.541 E10.09838
G1 X63.766 Y120.343 E10.13781
G1 X63.026 Y120.069 E10.17718
G1 X62.317 Y119.721 E10.21658
G1 X61.646 Y119.303 E10.25602
G1 X61.022 Y118.82 E10.29539
G1 X60.449 Y118.277 E10.33477
G1 X59.934 Y117.678 E10.37418
G1 X59.483 Y117.03 E10.41357
G1 X59.099 Y116.339 E10.45301
G1 X58.787 Y115.614 E10.49239
G1 X58.55 Y114.861 E10.53177
G1 X58.391 Y114.087 E10.57119
G1 X58.31 Y113.302 E10.61057
G1 X58.3 Y112.9 E10.63063
G1 X58.3 Y111.1 E10.72043
G1 X58.34 Y110.311 E10.75984
G1 X58.459 Y109.531 E10.79921
G1 X58.657 Y108.766 E10.83863
G1 X58.931 Y108.026 E10.878
G1 X59.279 Y107.317 E10.9174
G1 X59.697 Y106.646 E10.95685
G1 X60.18 Y106.022 E10.99621
G1 X60.206 Y105.994 E10.99812
G1 X59.934 Y105.678 E11.01892
G1 X59.483 Y105.03 E11.05831
G1 X59.099 Y104.339 E11.09775
G1 X58.787 Y103.614 E11.13713
G1 X58.55 Y102.861 E11.17651
G1 X58.391 Y102.087 E11.21593
G1 X58.31 Y101.302 E11.2553
G1 X58.3 Y100.9 E11.27537
G1 X58.3 Y99.1 E11.36517
G1 X58.34 Y98.311 E11.40458
G1 X58.459 Y97.531 E11.44395
G1 X58.657 Y96.766 E11.48337
G1 X58.931 Y96.026 E11.52274
G1 X59.279 Y95.317 E11.56214
G1 X59.471 Y95.009 E11.58025
G1 X59.099 Y94.339 E11.61848
G1 X58.787 Y93.614 E11.65786
G1 X58.55 Y92.861 E11.69724
G1 X58.391 Y92.087 E11.73666
G1 X58.31 Y91.302 E11.77604
G1 X58.3 Y90.9 E11.7961
G1 X58.3 Y89.1 E11.8859
G1 X58.34 Y88.311 E11.92531
G1 X58.459 Y87.531 E11.96468
G1 X58.657 Y86.766 E12.0041
G1 X58.931 Y86.026 E12.04347
G1 X59.279 Y85.317 E12.08287
G1 X59.471 Y85.009 E12.10098
G1 X59.099 Y84.339 E12.13922
G1 X58.787 Y83.614 E12.17859
G1 X58.55 Y82.861 E12.21798
G1 X58.391 Y82.087 E12.2574
G1 X58.31 Y81.302 E12.29677
G1 X58.3 Y80.9 E12.31683
G1 X58.3 Y79.1 E12.40663
G1 X58.34 Y78.311 E12.44605
G1 X58.459 Y77.531 E12.48541
G1 X58.657 Y76.766 E12.52484
G1 X58.931 Y76.026 E12.5642
G1 X59.279 Y75.317 E12.60361
G1 X59.697 Y74.646 E12.64305
G1 X60.18 Y74.022 E12.68242
G1 X60.723 Y73.449 E12.7218
G1 X61.322 Y72.934 E12.76121
G0 F3600 X61.711 Y73.142
G1 F1800 X62.353 Y72.719 E12.79957
G1 X63.036 Y72.364 E12.83797
G1 X63.751 Y72.083 E12.8763
G1 X64.493 Y71.877 E12.91472
G1 X65.251 Y71.749 E12.95307
G1 X66.1 Y71.7 E12.9955
G1 X133.9 Y71.7 E16.37805
G1 X134.668 Y71.74 E16.41642
G1 X135.428 Y71.859 E16.4548
G1 X136.171 Y72.057 E16.49316
G1 X136.89 Y72.331 E16.53155
G1 X137.576 Y72.678 E16.5699
G1 X138.223 Y73.094 E16.60828
G1 X138.823 Y73.575 E16.64664
G1 X139.37 Y74.116 E16.68503
G1 X139.858 Y74.711 E16.72342
G1 X140.281 Y75.353 E16.76177
G1 X140.636 Y76.036 E16.80018
G1 X140.917 Y76.751 E16.83851
G1 X141.123 Y77.493 E16.87692
G1 X141.251 Y78.251 E16.91528
G1 X141.3 Y79.1 E16.9577
G1 X141.3 Y80.9 E17.04751
G1 X141.26 Y81.668 E17.08587
G1 X141.141 Y82.428 E17.12425
G1 X140.943 Y83.171 E17.16261
G1 X140.669 Y83.89 E17.201
G1 X140.322 Y84.576 E17.23936
G1 X140.049 Y85.001 E17.26456
G1 X140.281 Y85.353 E17.28559
G1 X140.636 Y86.036 E17.32399
G1 X140.917 Y86.751 E17.36232
G1 X141.123 Y87.493 E17.40074
G1 X141.251 Y88.251 E17.43909
G1 X141.3 Y89.1 E17.48152
G1 X141.3 Y90.9 E17.57132
G1 X141.26 Y91.668 E17.60969
G1 X141.141 Y92.428 E17.64807
G1 X140.943 Y93.171 E17.68643
G1 X140.669 Y93.89 E17.72482
G1 X140.322 Y94.576 E17.76317
G1 X140.049 Y95.001 E17.78837
G1 X140.281 Y95.353 E17.8094
G1 X140.636 Y96.036 E17.84781
G1 X140.917 Y96.751 E17.88613
G1 X141.123 Y97.493 E17.92455
G1 X141.251 Y98.251 E17.9629
G1 X141.3 Y99.1 E18.00533
G1 X141.3 Y100.9 E18.09513
G1 X141.26 Y101.668 E18.1335
G1 X141.141 Y102.428 E18.17188
G1 X140.943 Y103.171 E18.21024
G1 X140.669 Y103.89 E18.24863
G1 X140.322 Y104.576 E18.28698
G1 X139.906 Y105.223 E18.32536
G1 X139.425 Y105.823 E18.36372
G1 X139.251 Y105.999 E18.37607
G1 X139.37 Y106.116 E18.3844
G1 X139.858 Y106.711 E18.42279
G1 X140.281 Y107.353 E18.46115
G1 X140.636 Y108.036 E18.49955
G1 X140.917 Y108.751 E18.53788
G1 X141.123 Y109.493 E18.5763
G1 X141.251 Y110.251 E18.61465
G1 X141.3 Y111.1 E18.65708
G1 X141.3 Y112.9 E18.74688
G1 X141.26 Y113.668 E18.78525
G1 X141.141 Y114.428 E18.82362
G1 X140.943 Y115.171 E18.86199
G1 X140.669 Y115.89 E18.90037
G1 X140.322 Y116.576 E18.93873
G1 X139.906 Y117.223 E18.9771
G1 X139.425 Y117.823 E19.01547
G1 X138.884 Y118.37 E19.05385
G1 X138.289 Y118.858 E19.09224
G1 X137.647 Y119.281 E19.1306
G1 X136.964 Y119.636 E19.169
G1 X136.249 Y119.917 E19.20733
G1 X135.507 Y120.123 E19.24575
G1 X134.749 Y120.251 E19.2841
G1 X133.9 Y120.3 E19.32653
G1 X66.1 Y120.3 E22.70908
G1 X65.332 Y120.26 E22.74745
G1 X64.572 Y120.141 E22.78583
G1 X63.829 Y119.943 E22.82419
G1 X63.11 Y119.669 E22.86258
G1 X62.424 Y119.322 E22.90093
G1 X61.777 Y118.906 E22.93931
G1 X61.177 Y118.425 E22.97767
G1 X60.63 Y117.884 E23.01606
G1 X60.142 Y117.289 E23.05445
G1 X59.719 Y116.647 E23.09281
G1 X59.364 Y115.964 E23.13121
G1 X59.083 Y115.249 E23.16954
G1 X58.877 Y114.507 E23.20795
G1 X58.749 Y113.749 E23.24631
G1 X58.7 Y112.9 E23.28873
G1 X58.7 Y111.1 E23.37854
G1 X58.74 Y110.332 E23.4169
G1 X58.859 Y109.572 E23.45528
G1 X59.057 Y108.829 E23.49364
G1 X59.331 Y108.11 E23.53203
G1 X59.678 Y107.424 E23.57039
G1 X60.094 Y106.777 E23.60876
G1 X60.575 Y106.177 E23.64713
G1 X60.749 Y106.001 E23.65947
G1 X60.63 Y105.884 E23.6678
G1 X60.142 Y105.289 E23.70619
G1 X59.719 Y104.647 E23.74455
G1 X59.364 Y103.964 E23.78295
G1 X59.083 Y103.249 E23.82128
G1 X58.877 Y102.507 E23.8597
G1 X58.749 Y101.749 E23.89805
G1 X58.7 Y100.9 E23.94048
G1 X58.7 Y99.1 E24.03028
G1 X58.74 Y98.332 E24.06865
G1 X58.859 Y97.572 E24.10703
G1 X59.057 Y96.829 E24.14539
G1 X59.331 Y96.11 E24.18378
G1 X59.678 Y95.424 E24.22213
G1 X59.951 Y94.999 E24.24733
G1 X59.719 Y94.647 E24.26836
G1 X59.364 Y93.964 E24.30677
G1 X59.083 Y93.249 E24.34509
G1 X58.877 Y92.507 E24.38351
G1 X58.749 Y91.749 E24.42186
G1 X58.7 Y90.9 E24.46429
G1 X58.7 Y89.1 E24.55409
G1 X58.74 Y88.332 E24.59246
G1 X58.859 Y87.572 E24.63084
G1 X59.057 Y86.829 E24.6692
G1 X59.331 Y86.11 E24.70759
G1 X59.678 Y85.424 E24.74594
G1 X59.951 Y84.999 E24.77114
G1 X59.719 Y84.647 E24.79218
G1 X59.364 Y83.964 E24.83058
G1 X59.083 Y83.249 E24.86891
G1 X58.877 Y82.507 E24.90733
G1 X58.749 Y81.749 E24.94568
G1 X58.7 Y80.9 E24.98811
G1 X58.7 Y79.1 E25.07791
G1 X58.74 Y78.332 E25.11628
G1 X58.859 Y77.572 E25.15465
G1 X59.057 Y76.829 E25.19302
G1 X59.331 Y76.11 E25.2314
G1 X59.678 Y75.424 E25.26976
G1 X60.094 Y74.777 E25.30813
G1 X60.575 Y74.177 E25.3465
G1 X61.116 Y73.63 E25.38488
G1 X61.711 Y73.142 E25.42327
G0 F3600 X62.098 Y73.357
G1 F1800 X62.734 Y72.962 E25.46063
G1 X63.408 Y72.638 E25.49793
G1 X64.113 Y72.388 E25.53525
G1 X64.841 Y72.214 E25.5726
G1 X65.583 Y72.119 E25.60992
G1 X66.1 Y72.1 E25.63573
G1 X133.9 Y72.1 E29.01828
G1 X134.647 Y72.14 E29.05561
G1 X135.385 Y72.259 E29.0929
G1 X136.107 Y72.457 E29.13025
G1 X136.803 Y72.73 E29.16755
G1 X137.466 Y73.077 E29.20488
G1 X138.089 Y73.492 E29.24223
G1 X138.663 Y73.971 E29.27953
G1 X139.184 Y74.508 E29.31686
G1 X139.643 Y75.098 E29.35415
G1 X140.038 Y75.734 E29.3915
G1 X140.362 Y76.408 E29.42881
G1 X140.612 Y77.113 E29.46613
G1 X140.786 Y77.841 E29.50347
G1 X140.881 Y78.583 E29.54079
G1 X140.9 Y79.1 E29.5666
G1 X140.9 Y80.9 E29.65641
G1 X140.86 Y81.647 E29.69373
G1 X140.741 Y82.385 E29.73102
G1 X140.543 Y83.107 E29.76837
G1 X140.27 Y83.803 E29.80567
G1 X139.923 Y84.466 E29.84301
G1 X139.567 Y85 E29.87502
G1 X139.643 Y85.098 E29.88121
G1 X140.038 Y85.734 E29.91856
G1 X140.362 Y86.408 E29.95587
G1 X140.612 Y87.113 E29.99319
G1 X140.786 Y87.841 E30.03053
G1 X140.881 Y88.583 E30.06786
G1 X140.9 Y89.1 E30.09367
G1 X140.9 Y90.9 E30.18347
G1 X140.86 Y91.647 E30.22079
G1 X140.741 Y92.385 E30.25808
G1 X140.543 Y93.107 E30.29543
G1 X140.27 Y93.803 E30.33273
G1 X139.923 Y94.466 E30.37007
G1 X139.567 Y95 E30.40209
G1 X139.643 Y95.098 E30.40827
G1 X140.038 Y95.734 E30.44563
G1 X140.362 Y96.408 E30.48294
G1 X140.612 Y97.113 E30.52025
G1 X140.786 Y97.841 E30.5576
G1 X140.881 Y98.583 E30.59492
G1 X140.9 Y99.1 E30.62073
G1 X140.9 Y100.9 E30.71053
G1 X140.86 Y101.647 E30.74785
G1 X140.741 Y102.385 E30.78515
G1 X140.543 Y103.107 E30.8225
G1 X140.27 Y103.803 E30.8598
G1 X139.923 Y104.466 E30.89713
G1 X139.508 Y105.089 E30.93448
G1 X139.029 Y105.663 E30.97177
G1 X138.687 Y105.995 E30.99555
G1 X139.184 Y106.508 E31.03119
G1 X139.643 Y107.098 E31.06848
G1 X140.038 Y107.734 E31.10583
G1 X140.362 Y108.408 E31.14314
G1 X140.612 Y109.113 E31.18046
G1 X140.786 Y109.841 E31.21781
G1 X140.881 Y110.583 E31.25513
G1 X140.9 Y111.1 E31.28094
G1 X140.9 Y112.9 E31.37074
G1 X140.86 Y113.647 E31.40806
G1 X140.741 Y114.385 E31.44536
G1 X140.543 Y115.107 E31.48271
G1 X140.27 Y115.803 E31.52001
G1 X139.923 Y116.466 E31.55734
G1 X139.508 Y117.089 E31.59469
G1 X139.029 Y117.663 E31.63198
G1 X138.492 Y118.184 E31.66931
G1 X137.902 Y118.643 E31.70661
G1 X137.266 Y119.038 E31.74396
G1 X136.592 Y119.362 E31.78127
G1 X135.887 Y119.612 E31.81859
G1 X135.159 Y119.786 E31.85593
G1 X134.417 Y119.881 E31.89325
G1 X133.9 Y119.9 E31.91906
G1 X66.1 Y119.9 E35.30162
G1 X65.353 Y119.86 E35.33894
G1 X64.615 Y119.741 E35.37623
G1 X63.893 Y119.543 E35.41358
G1 X63.197 Y119.27 E35.45088
G1 X62.534 Y118.923 E35.48821
G1 X61.911 Y118.508 E35.52556
G1 X61.337 Y118.029 E35.56286
G1 X60.816 Y117.492 E35.60019
G1 X60.357 Y116.902 E35.63748
G1 X59.962 Y116.266 E35.67483
G1 X59.638 Y115.592 E35.71214
G1 X59.388 Y114.887 E35.74946
G1 X59.214 Y114.159 E35.7868
G1 X59.119 Y113.417 E35.82412
G1 X59.1 Y112.9 E35.84994
G1 X59.1 Y111.1 E35.93974
G1 X59.14 Y110.353 E35.97706
G1 X59.259 Y109.615 E36.01435
G1 X59.457 Y108.893 E36.0517
G1 X59.73 Y108.197 E36.089
G1 X60.077 Y107.534 E36.12634
G1 X60.492 Y106.911 E36.16368
G1 X60.971 Y106.337 E36.20098
G1 X61.313 Y106.005 E36.22476
G1 X60.816 Y105.492 E36.2604
G1 X60.357 Y104.902 E36.29769
G1 X59.962 Y104.266 E36.33504
G1 X59.638 Y103.592 E36.37235
G1 X59.388 Y102.887 E36.40967
G1 X59.214 Y102.159 E36.44701
G1 X59.119 Y101.417 E36.48433
G1 X59.1 Y100.9 E36.51014
G1 X59.1 Y99.1 E36.59995
G1 X59.14 Y98.353 E36.63727
G1 X59.259 Y97.615 E36.67456
G1 X59.457 Y96.893 E36.71191
G1 X59.73 Y96.197 E36.74921
G1 X60.077 Y95.534 E36.78655
G1 X60.433 Y95 E36.81857
G1 X60.357 Y94.902 E36.82475
G1 X59.962 Y94.266 E36.8621
G1 X59.638 Y93.592 E36.89941
G1 X59.388 Y92.887 E36.93673
G1 X59.214 Y92.159 E36.97408
G1 X59.119 Y91.417 E37.0114
G1 X59.1 Y90.9 E37.03721
G1 X59.1 Y89.1 E37.12701
G1 X59.14 Y88.353 E37.16433
G1 X59.259 Y87.615 E37.20163
G1 X59.457 Y86.893 E37.23898
G1 X59.73 Y86.197 E37.27627
G1 X60.077 Y85.534 E37.31361
G1 X60.433 Y85 E37.34563
G1 X60.357 Y84.902 E37.35181
G1 X59.962 Y84.266 E37.38917
G1 X59.638 Y83.592 E37.42648
G1 X59.388 Y82.887 E37.46379
G1 X59.214 Y82.159 E37.50114
G1 X59.119 Y81.417 E37.53846
G1 X59.1 Y80.9 E37.56427
G1 X59.1 Y79.1 E37.65407
G1 X59.14 Y78.353 E37.69139
G1 X59.259 Y77.615 E37.72869
G1 X59.457 Y76.893 E37.76604
G1 X59.73 Y76.197 E37.80334
G1 X60.077 Y75.534 E37.84067
G1 X60.492 Y74.911 E37.87802
G1 X60.971 Y74.337 E37.91532
G1 X61.508 Y73.816 E37.95264
G1 X62.098 Y73.357 E37.98994
G0 F3600 X61.899 Y74.009
G1 F1800 X62.484 Y73.579 E38.02616
G1 X63.113 Y73.215 E38.06242
G1 X63.778 Y72.922 E38.09867
G1 X64.471 Y72.704 E38.13491
G1 X65.183 Y72.564 E38.17112
G1 X66.1 Y72.5 E38.21698
G1 X133.9 Y72.5 E41.59953
G1 X134.625 Y72.54 E41.63576
G1 X135.342 Y72.659 E41.67202
G1 X136.041 Y72.857 E41.70826
G1 X136.714 Y73.13 E41.7445
G1 X137.353 Y73.475 E41.78073
G1 X137.95 Y73.889 E41.81697
G1 X138.498 Y74.365 E41.85319
G1 X138.991 Y74.899 E41.88945
G1 X139.421 Y75.484 E41.92567
G1 X139.785 Y76.113 E41.96192
G1 X140.078 Y76.778 E41.99818
G1 X140.296 Y77.471 E42.03442
G1 X140.436 Y78.183 E42.07062
G1 X140.5 Y79.1 E42.11649
G1 X140.5 Y80.9 E42.20629
G1 X140.46 Y81.625 E42.24251
G1 X140.341 Y82.342 E42.27877
G1 X140.143 Y83.041 E42.31502
G1 X139.87 Y83.714 E42.35125
G1 X139.525 Y84.353 E42.38748
G1 X139.111 Y84.95 E42.42373
G1 X139.066 Y85.001 E42.42712
G1 X139.421 Y85.484 E42.45703
G1 X139.785 Y86.113 E42.49328
G1 X140.078 Y86.778 E42.52954
G1 X140.296 Y87.471 E42.56578
G1 X140.436 Y88.183 E42.60198
G1 X140.5 Y89.1 E42.64784
G1 X140.5 Y90.9 E42.73765
G1 X140.46 Y91.625 E42.77387
G1 X140.341 Y92.342 E42.81013
G1 X140.143 Y93.041 E42.84638
G1 X139.87 Y93.714 E42.88261
G1 X139.525 Y94.353 E42.91884
G1 X139.111 Y94.95 E42.95509
G1 X139.066 Y95.001 E42.95848
G1 X139.421 Y95.484 E42.98839
G1 X139.785 Y96.113 E43.02464
G1 X140.078 Y96.778 E43.0609
G1 X140.296 Y97.471 E43.09714
G1 X140.436 Y98.183 E43.13334
G1 X140.5 Y99.1 E43.1792
G1 X140.5 Y100.9 E43.26901
G1 X140.46 Y101.625 E43.30523
G1 X140.341 Y102.342 E43.34149
G1 X140.143 Y103.041 E43.37774
G1 X139.87 Y103.714 E43.41397
G1 X139.525 Y104.353 E43.4502
G1 X139.111 Y104.95 E43.48645
G1 X138.635 Y105.498 E43.52266
G1 X138.101 Y105.991 E43.55892
G1 X138.083 Y106.004 E43.56003
G1 X138.498 Y106.365 E43.58747
G1 X138.991 Y106.899 E43.62373
G1 X139.421 Y107.484 E43.65995
G1 X139.785 Y108.113 E43.69621
G1 X140.078 Y108.778 E43.73246
G1 X140.296 Y109.471 E43.7687
G1 X140.436 Y110.183 E43.80491
G1 X140.5 Y111.1 E43.85077
