;FLAVOR:Marlin
;TIME:9376
;Filament used: 5.68422m
;Layer height: 0.1
;Generated with Cura_SteamEngine 3.6.0
M140 S60
M105
M190 S60
M104 S200
M105
M109 S200
M82 ;absolute extrusion mode
G21 ;metric values
G90 ;absolute positioning
M82 ;set extruder to absolute mode
M107 ;start with the fan off
G28 X0 Y0 ;move X/Y to min endstops
G28 Z0 ;move Z to min endstops
G1 Z15.0 F9000 ;move the platform down 15mm
G92 E0 ;zero the extruded length
G1 F200 E3 ;extrude 3mm of feed stock
G92 E0 ;zero the extruded length again
G1 F9000
;Put printing message on LCD screen
M117 Printing...
G92 E0
G1 F1500 E-6.5
;LAYER_COUNT:27
;LAYER:0
M107
G0 F3600 X56.58 Y53.297 Z0.3
;TYPE:SKIRT
G1 F1500 E0
G1 F1800 X57.123 Y52.724 E0.03938
G1 X57.722 Y52.209 E0.0788
G1 X58.37 Y51.758 E0.11818
G1 X59.061 Y51.374 E0.15762
G1 X59.786 Y51.062 E0.197
G1 X60.539 Y50.825 E0.23638
G1 X61.313 Y50.666 E0.27581
G1 X62.098 Y50.585 E0.31518
G1 X62.5 Y50.575 E0.33524
G1 X137.5 Y50.575 E4.077
G1 X138.289 Y50.615 E4.11642
G1 X139.069 Y50.734 E4.15578
G1 X139.834 Y50.932 E4.19521
G1 X140.574 Y51.206 E4.23458
G1 X141.283 Y51.554 E4.27398
G1 X141.954 Y51.972 E4.31342
G1 X142.578 Y52.455 E4.35279
G1 X143.151 Y52.998 E4.39217
G1 X143.666 Y53.597 E4.43158
G1 X144.117 Y54.245 E4.47097
G1 X144.501 Y54.936 E4.51041
G1 X144.813 Y55.661 E4.54979
G1 X145.05 Y56.414 E4.58917
G1 X145.209 Y57.188 E4.62859
G1 X145.29 Y57.973 E4.66796
G1 X145.3 Y58.375 E4.68803
G1 X145.3 Y141.625 E8.84139
G1 X145.26 Y142.414 E8.8808
G1 X145.141 Y143.194 E8.92016
G1 X144.943 Y143.959 E8.95959
G1 X144.669 Y144.699 E8.99896
G1 X144.321 Y145.408 E9.03836
G1 X143.903 Y146.079 E9.0778
G1 X143.42 Y146.703 E9.11717
G1 X142.877 Y147.276 E9.15655
G1 X142.278 Y147.791 E9.19596
G1 X141.63 Y148.242 E9.23535
G1 X140.939 Y148.626 E9.27479
G1 X140.214 Y148.938 E9.31417
G1 X139.461 Y149.175 E9.35355
G1 X138.687 Y149.334 E9.39297
G1 X137.902 Y149.415 E9.43235
G1 X137.5 Y149.425 E9.45241
G1 X62.5 Y149.425 E13.19417
G1 X61.711 Y149.385 E13.23359
G1 X60.931 Y149.266 E13.27295
G1 X60.166 Y149.068 E13.31238
G1 X59.426 Y148.794 E13.35174
G1 X58.717 Y148.446 E13.39115
G1 X58.046 Y148.028 E13.43059
G1 X57.422 Y147.545 E13.46996
G1 X56.849 Y147.002 E13.50934
G1 X56.334 Y146.403 E13.54875
G1 X55.883 Y145.755 E13.58814
G1 X55.499 Y145.064 E13.62758
G1 X55.187 Y144.339 E13.66696
G1 X54.95 Y143.586 E13.70634
G1 X54.791 Y142.812 E13.74576
G1 X54.71 Y142.027 E13.78513
G1 X54.7 Y141.625 E13.8052
G1 X54.7 Y58.375 E17.95855
G1 X54.74 Y57.586 E17.99797
G1 X54.859 Y56.806 E18.03733
G1 X55.057 Y56.041 E18.07676
G1 X55.331 Y55.301 E18.11613
G1 X55.679 Y54.592 E18.15553
G1 X56.097 Y53.921 E18.19497
G1 X56.58 Y53.297 E18.23434
G0 F3600 X56.975 Y53.452
G1 F1800 X57.516 Y52.905 E18.27272
G1 X58.111 Y52.417 E18.31111
G1 X58.753 Y51.994 E18.34947
G1 X59.436 Y51.639 E18.38787
G1 X60.151 Y51.358 E18.4262
G1 X60.893 Y51.152 E18.46462
G1 X61.651 Y51.024 E18.50297
G1 X62.5 Y50.975 E18.5454
G1 X137.5 Y50.975 E22.28716
G1 X138.268 Y51.015 E22.32553
G1 X139.028 Y51.134 E22.36391
G1 X139.771 Y51.332 E22.40227
G1 X140.49 Y51.606 E22.44066
G1 X141.176 Y51.953 E22.47901
G1 X141.823 Y52.369 E22.51739
G1 X142.423 Y52.85 E22.55575
G1 X142.97 Y53.391 E22.59414
G1 X143.458 Y53.986 E22.63253
G1 X143.881 Y54.628 E22.67088
G1 X144.236 Y55.311 E22.70929
G1 X144.517 Y56.026 E22.74761
G1 X144.723 Y56.768 E22.78603
G1 X144.851 Y57.526 E22.82439
G1 X144.9 Y58.375 E22.86681
G1 X144.9 Y141.625 E27.02017
G1 X144.86 Y142.393 E27.05854
G1 X144.741 Y143.153 E27.09692
G1 X144.543 Y143.896 E27.13528
G1 X144.269 Y144.615 E27.17367
G1 X143.922 Y145.301 E27.21202
G1 X143.506 Y145.948 E27.2504
G1 X143.025 Y146.548 E27.28876
G1 X142.484 Y147.095 E27.32715
G1 X141.889 Y147.583 E27.36554
G1 X141.247 Y148.006 E27.40389
G1 X140.564 Y148.361 E27.4423
G1 X139.849 Y148.642 E27.48062
G1 X139.107 Y148.848 E27.51904
G1 X138.349 Y148.976 E27.5574
G1 X137.5 Y149.025 E27.59982
G1 X62.5 Y149.025 E31.34159
G1 X61.732 Y148.985 E31.37996
G1 X60.972 Y148.866 E31.41833
G1 X60.229 Y148.668 E31.4567
G1 X59.51 Y148.394 E31.49508
G1 X58.824 Y148.047 E31.53344
G1 X58.177 Y147.631 E31.57181
G1 X57.577 Y147.15 E31.61018
G1 X57.03 Y146.609 E31.64856
G1 X56.542 Y146.014 E31.68695
G1 X56.119 Y145.372 E31.72531
G1 X55.764 Y144.689 E31.76371
G1 X55.483 Y143.974 E31.80204
G1 X55.277 Y143.232 E31.84046
G1 X55.149 Y142.474 E31.87881
G1 X55.1 Y141.625 E31.92124
G1 X55.1 Y58.375 E36.0746
G1 X55.14 Y57.607 E36.11297
G1 X55.259 Y56.847 E36.15134
G1 X55.457 Y56.104 E36.18971
G1 X55.731 Y55.385 E36.22809
G1 X56.078 Y54.699 E36.26645
G1 X56.494 Y54.052 E36.30482
G1 X56.975 Y53.452 E36.34319
G0 F3600 X57.371 Y53.612
G1 F1800 X57.908 Y53.091 E36.38052
G1 X58.498 Y52.632 E36.41781
G1 X59.134 Y52.237 E36.45516
G1 X59.808 Y51.913 E36.49247
G1 X60.513 Y51.663 E36.52979
G1 X61.241 Y51.489 E36.56713
G1 X61.983 Y51.394 E36.60445
G1 X62.5 Y51.375 E36.63026
G1 X137.5 Y51.375 E40.37203
G1 X138.247 Y51.415 E40.40935
G1 X138.985 Y51.534 E40.44665
G1 X139.707 Y51.732 E40.484
G1 X140.403 Y52.005 E40.5213
G1 X141.066 Y52.352 E40.55863
G1 X141.689 Y52.767 E40.59598
G1 X142.263 Y53.246 E40.63327
G1 X142.784 Y53.783 E40.6706
G1 X143.243 Y54.373 E40.7079
G1 X143.638 Y55.009 E40.74525
G1 X143.962 Y55.683 E40.78256
G1 X144.212 Y56.388 E40.81988
G1 X144.386 Y57.116 E40.85722
G1 X144.481 Y57.858 E40.89454
G1 X144.5 Y58.375 E40.92035
G1 X144.5 Y141.625 E45.07371
G1 X144.46 Y142.372 E45.11103
G1 X144.341 Y143.11 E45.14833
G1 X144.143 Y143.832 E45.18568
G1 X143.87 Y144.528 E45.22298
G1 X143.523 Y145.191 E45.26031
G1 X143.108 Y145.814 E45.29765
G1 X142.629 Y146.388 E45.33495
G1 X142.092 Y146.909 E45.37228
G1 X141.502 Y147.368 E45.40958
G1 X140.866 Y147.763 E45.44693
G1 X140.192 Y148.087 E45.48424
G1 X139.487 Y148.337 E45.52155
G1 X138.759 Y148.511 E45.5589
G1 X138.017 Y148.606 E45.59622
G1 X137.5 Y148.625 E45.62203
G1 X62.5 Y148.625 E49.36379
G1 X61.753 Y148.585 E49.40112
G1 X61.015 Y148.466 E49.43841
G1 X60.293 Y148.268 E49.47576
G1 X59.597 Y147.995 E49.51306
G1 X58.934 Y147.648 E49.55039
G1 X58.311 Y147.233 E49.58774
G1 X57.737 Y146.754 E49.62504
G1 X57.216 Y146.217 E49.66237
G1 X56.757 Y145.627 E49.69966
G1 X56.362 Y144.991 E49.73701
G1 X56.038 Y144.317 E49.77432
G1 X55.788 Y143.612 E49.81164
G1 X55.614 Y142.884 E49.84898
G1 X55.519 Y142.142 E49.8863
G1 X55.5 Y141.625 E49.91211
G1 X55.5 Y58.375 E54.06547
G1 X55.54 Y57.628 E54.1028
G1 X55.659 Y56.89 E54.14009
G1 X55.857 Y56.168 E54.17744
G1 X56.13 Y55.472 E54.21474
G1 X56.477 Y54.809 E54.25207
G1 X56.892 Y54.186 E54.28942
G1 X57.371 Y53.612 E54.32672
G0 F3600 X57.289 Y54.325
G1 F1800 X57.765 Y53.777 E54.36293
G1 X58.299 Y53.284 E54.39919
G1 X58.884 Y52.854 E54.43541
G1 X59.513 Y52.49 E54.47167
G1 X60.178 Y52.197 E54.50792
G1 X60.871 Y51.979 E54.54417
G1 X61.583 Y51.839 E54.58037
G1 X62.5 Y51.775 E54.62623
G1 X137.5 Y51.775 E58.368
G1 X138.225 Y51.815 E58.40422
G1 X138.942 Y51.934 E58.44048
G1 X139.641 Y52.132 E58.47673
G1 X140.314 Y52.405 E58.51296
G1 X140.953 Y52.75 E58.54919
G1 X141.55 Y53.164 E58.58544
G1 X142.098 Y53.64 E58.62165
G1 X142.591 Y54.174 E58.65791
G1 X143.021 Y54.759 E58.69413
G1 X143.385 Y55.388 E58.73039
G1 X143.678 Y56.053 E58.76664
G1 X143.896 Y56.746 E58.80289
G1 X144.036 Y57.458 E58.83909
G1 X144.1 Y58.375 E58.88495
G1 X144.1 Y141.625 E63.03831
G1 X144.06 Y142.35 E63.07453
G1 X143.941 Y143.067 E63.11079
G1 X143.743 Y143.766 E63.14704
G1 X143.47 Y144.439 E63.18327
G1 X143.125 Y145.078 E63.2195
G1 X142.711 Y145.675 E63.25575
G1 X142.235 Y146.223 E63.29196
G1 X141.701 Y146.716 E63.32822
G1 X141.116 Y147.146 E63.36444
G1 X140.487 Y147.51 E63.4007
G1 X139.822 Y147.803 E63.43695
G1 X139.129 Y148.021 E63.4732
G1 X138.417 Y148.161 E63.5094
G1 X137.5 Y148.225 E63.55526
G1 X62.5 Y148.225 E67.29703
G1 X61.775 Y148.185 E67.33325
G1 X61.058 Y148.066 E67.36951
G1 X60.359 Y147.868 E67.40576
G1 X59.686 Y147.595 E67.44199
G1 X59.047 Y147.25 E67.47822
G1 X58.45 Y146.836 E67.51446
G1 X57.902 Y146.36 E67.55068
G1 X57.409 Y145.826 E67.58694
G1 X56.979 Y145.241 E67.62316
G1 X56.615 Y144.612 E67.65942
G1 X56.322 Y143.947 E67.69567
G1 X56.104 Y143.254 E67.73191
G1 X55.964 Y142.542 E67.76812
G1 X55.9 Y141.625 E67.81398
G1 X55.9 Y58.375 E71.96734
G1 X55.94 Y57.65 E72.00356
G1 X56.059 Y56.933 E72.03982
G1 X56.257 Y56.234 E72.07607
G1 X56.53 Y55.561 E72.1123
G1 X56.875 Y54.922 E72.14853
G1 X57.289 Y54.325 E72.18478
G0 F3600 X57.685 Y54.469
G1 F1800 X58.159 Y53.948 E72.21992
G1 X58.689 Y53.484 E72.25506
G1 X59.268 Y53.084 E72.29017
G1 X59.889 Y52.752 E72.3253
G1 X60.543 Y52.492 E72.36041
G1 X61.223 Y52.308 E72.39556
G1 X61.919 Y52.202 E72.43068
G1 X62.5 Y52.175 E72.4597
G1 X137.5 Y52.175 E76.20147
G1 X138.203 Y52.215 E76.23659
G1 X138.897 Y52.334 E76.27172
G1 X139.572 Y52.532 E76.30682
G1 X140.221 Y52.804 E76.34193
G1 X140.835 Y53.149 E76.37706
G1 X141.406 Y53.56 E76.41216
G1 X141.927 Y54.034 E76.4473
G1 X142.391 Y54.564 E76.48245
G1 X142.791 Y55.143 E76.51756
G1 X143.123 Y55.764 E76.55269
G1 X143.383 Y56.418 E76.5878
G1 X143.567 Y57.098 E76.62294
G1 X143.673 Y57.794 E76.65807
G1 X143.7 Y58.375 E76.68709
G1 X143.7 Y141.625 E80.84045
G1 X143.66 Y142.328 E80.87558
G1 X143.541 Y143.022 E80.9107
G1 X143.343 Y143.697 E80.9458
G1 X143.071 Y144.346 E80.98091
G1 X142.726 Y144.96 E81.01604
G1 X142.315 Y145.531 E81.05114
G1 X141.841 Y146.052 E81.08628
G1 X141.311 Y146.516 E81.12143
G1 X140.732 Y146.916 E81.15654
G1 X140.111 Y147.248 E81.19167
G1 X139.457 Y147.508 E81.22678
G1 X138.777 Y147.692 E81.26193
G1 X138.081 Y147.798 E81.29705
G1 X137.5 Y147.825 E81.32607
G1 X62.5 Y147.825 E85.06783
G1 X61.797 Y147.785 E85.10296
G1 X61.103 Y147.666 E85.13809
G1 X60.428 Y147.468 E85.17319
G1 X59.779 Y147.196 E85.20829
G1 X59.165 Y146.851 E85.24343
G1 X58.594 Y146.44 E85.27853
G1 X58.073 Y145.966 E85.31367
G1 X57.609 Y145.436 E85.34881
G1 X57.209 Y144.857 E85.38392
G1 X56.877 Y144.236 E85.41905
G1 X56.617 Y143.582 E85.45417
G1 X56.433 Y142.902 E85.48931
G1 X56.327 Y142.206 E85.52444
G1 X56.3 Y141.625 E85.55345
G1 X56.3 Y58.375 E89.70681
G1 X56.34 Y57.672 E89.74194
G1 X56.459 Y56.978 E89.77707
G1 X56.657 Y56.303 E89.81217
G1 X56.929 Y55.654 E89.84727
G1 X57.274 Y55.04 E89.88241
G1 X57.685 Y54.469 E89.91751
G0 F3600 X58.082 Y54.617
G1 F1800 X58.553 Y54.126 E89.95145
G1 X59.078 Y53.692 E89.98544
G1 X59.65 Y53.323 E90.0194
G1 X60.262 Y53.024 E90.05338
G1 X60.904 Y52.799 E90.08732
G1 X61.569 Y52.65 E90.12132
G1 X62.5 Y52.575 E90.16792
G1 X137.5 Y52.575 E93.90968
G1 X138.18 Y52.615 E93.94367
G1 X138.85 Y52.734 E93.97762
G1 X139.502 Y52.931 E94.0116
G1 X140.126 Y53.203 E94.04556
G1 X140.714 Y53.547 E94.07954
G1 X141.258 Y53.957 E94.11353
G1 X141.749 Y54.428 E94.14747
G1 X142.183 Y54.953 E94.18146
G1 X142.552 Y55.525 E94.21542
G1 X142.851 Y56.137 E94.2494
G1 X143.076 Y56.779 E94.28334
G1 X143.225 Y57.444 E94.31734
G1 X143.3 Y58.375 E94.36394
G1 X143.3 Y141.625 E98.5173
G1 X143.26 Y142.305 E98.55128
G1 X143.141 Y142.975 E98.58523
G1 X142.944 Y143.627 E98.61921
G1 X142.672 Y144.251 E98.65317
G1 X142.328 Y144.839 E98.68716
G1 X141.918 Y145.383 E98.72114
G1 X141.447 Y145.874 E98.75509
G1 X140.922 Y146.308 E98.78907
G1 X140.35 Y146.677 E98.82303
G1 X139.738 Y146.976 E98.85701
G1 X139.096 Y147.201 E98.89095
G1 X138.431 Y147.35 E98.92495
G1 X137.5 Y147.425 E98.97155
G1 X62.5 Y147.425 E102.71331
G1 X61.82 Y147.385 E102.7473
G1 X61.15 Y147.266 E102.78125
G1 X60.498 Y147.069 E102.81523
G1 X59.874 Y146.797 E102.84919
G1 X59.286 Y146.453 E102.88318
G1 X58.742 Y146.043 E102.91716
G1 X58.251 Y145.572 E102.95111
G1 X57.817 Y145.047 E102.98509
G1 X57.448 Y144.475 E103.01905
G1 X57.149 Y143.863 E103.05303
G1 X56.924 Y143.221 E103.08697
G1 X56.775 Y142.556 E103.12097
G1 X56.7 Y141.625 E103.16757
G1 X56.7 Y58.375 E107.32093
G1 X56.74 Y57.695 E107.35491
G1 X56.859 Y57.025 E107.38886
G1 X57.056 Y56.373 E107.42284
G1 X57.328 Y55.749 E107.4568
G1 X57.672 Y55.161 E107.49079
G1 X58.082 Y54.617 E107.52478
G0 F3600 X58.478 Y54.772
G1 F1800 X58.945 Y54.31 E107.55755
G1 X59.465 Y53.909 E107.59031
G1 X60.029 Y53.573 E107.62306
G1 X60.631 Y53.309 E107.65586
G1 X61.26 Y53.119 E107.68864
G1 X61.907 Y53.008 E107.72139
G1 X62.5 Y52.975 E107.75102
G1 X137.5 Y52.975 E111.49279
G1 X138.156 Y53.015 E111.52557
G1 X138.802 Y53.134 E111.55835
G1 X139.429 Y53.331 E111.59113
G1 X140.027 Y53.603 E111.62391
G1 X140.588 Y53.945 E111.65669
G1 X141.103 Y54.353 E111.68947
G1 X141.565 Y54.82 E111.72224
G1 X141.966 Y55.34 E111.755
G1 X142.302 Y55.904 E111.78776
G1 X142.566 Y56.506 E111.82055
G1 X142.756 Y57.135 E111.85333
G1 X142.867 Y57.782 E111.88608
G1 X142.9 Y58.375 E111.91571
G1 X142.9 Y141.625 E116.06907
G1 X142.86 Y142.281 E116.10186
G1 X142.741 Y142.927 E116.13463
G1 X142.544 Y143.554 E116.16742
G1 X142.272 Y144.152 E116.2002
G1 X141.93 Y144.713 E116.23298
G1 X141.522 Y145.228 E116.26576
G1 X141.055 Y145.69 E116.29853
G1 X140.535 Y146.091 E116.33129
G1 X139.971 Y146.427 E116.36404
G1 X139.369 Y146.691 E116.39684
G1 X138.74 Y146.881 E116.42962
G1 X138.093 Y146.992 E116.46237
G1 X137.5 Y147.025 E116.492
G1 X62.5 Y147.025 E120.23377
G1 X61.844 Y146.985 E120.26655
G1 X61.198 Y146.866 E120.29933
G1 X60.571 Y146.669 E120.33211
G1 X59.973 Y146.397 E120.36489
G1 X59.412 Y146.055 E120.39767
G1 X58.897 Y145.647 E120.43045
G1 X58.435 Y145.18 E120.46322
G1 X58.034 Y144.66 E120.49598
G1 X57.698 Y144.096 E120.52874
G1 X57.434 Y143.494 E120.56153
G1 X57.244 Y142.865 E120.59431
G1 X57.133 Y142.218 E120.62706
G1 X57.1 Y141.625 E120.65669
G1 X57.1 Y58.375 E124.81005
G1 X57.14 Y57.719 E124.84284
G1 X57.259 Y57.073 E124.87561
G1 X57.456 Y56.446 E124.9084
G1 X57.728 Y55.848 E124.94118
G1 X58.07 Y55.287 E124.97396
G1 X58.478 Y54.772 E125.00674
G0 F3600 X58.873 Y54.934
G1 F1800 X59.336 Y54.504 E125.03826
G1 X59.85 Y54.135 E125.06983
G1 X60.406 Y53.835 E125.10135
G1 X60.995 Y53.607 E125.13286
G1 X61.609 Y53.455 E125.16441
G1 X62.5 Y53.375 E125.20905
G1 X137.5 Y53.375 E128.95081
G1 X138.131 Y53.415 E128.98235
G1 X138.752 Y53.534 E129.0139
G1 X139.352 Y53.731 E129.04541
G1 X139.924 Y54.002 E129.07698
G1 X140.456 Y54.342 E129.10848
G1 X140.941 Y54.748 E129.14004
G1 X141.371 Y55.211 E129.17156
G1 X141.74 Y55.725 E129.20313
G1 X142.04 Y56.281 E129.23465
G1 X142.268 Y56.87 E129.26616
G1 X142.42 Y57.484 E129.29772
G1 X142.5 Y58.375 E129.34235
G1 X142.5 Y141.625 E133.49571
G1 X142.46 Y142.256 E133.52725
G1 X142.341 Y142.877 E133.5588
G1 X142.144 Y143.477 E133.5903
G1 X141.873 Y144.049 E133.62188
G1 X141.533 Y144.581 E133.65338
G1 X141.127 Y145.066 E133.68494
G1 X140.664 Y145.496 E133.71646
G1 X140.15 Y145.865 E133.74803
G1 X139.594 Y146.165 E133.77955
G1 X139.005 Y146.393 E133.81106
G1 X138.391 Y146.545 E133.84262
G1 X137.5 Y146.625 E133.88725
G1 X62.5 Y146.625 E137.62901
G1 X61.869 Y146.585 E137.66056
G1 X61.248 Y146.466 E137.6921
G1 X60.648 Y146.269 E137.72361
G1 X60.076 Y145.998 E137.75519
G1 X59.544 Y145.658 E137.78668
G1 X59.059 Y145.252 E137.81824
G1 X58.629 Y144.789 E137.84976
G1 X58.26 Y144.275 E137.88133
G1 X57.96 Y143.719 E137.91285
G1 X57.732 Y143.13 E137.94436
G1 X57.58 Y142.516 E137.97592
G1 X57.5 Y141.625 E138.02055
G1 X57.5 Y58.375 E142.17391
G1 X57.54 Y57.744 E142.20545
G1 X57.659 Y57.123 E142.237
G1 X57.856 Y56.523 E142.2685
G1 X58.127 Y55.951 E142.30008
G1 X58.467 Y55.419 E142.33158
G1 X58.873 Y54.934 E142.36314
G0 F3600 X58.865 Y55.556
G1 F1800 X59.267 Y55.103 E142.39335
G1 X59.725 Y54.706 E142.42359
G1 X60.232 Y54.373 E142.45385
G1 X60.778 Y54.109 E142.48411
G1 X61.354 Y53.92 E142.51436
G1 X61.95 Y53.808 E142.54461
G1 X62.5 Y53.775 E142.5721
G1 X137.5 Y53.775 E146.31387
G1 X138.105 Y53.815 E146.34411
G1 X138.699 Y53.934 E146.37434
G1 X139.273 Y54.13 E146.4046
G1 X139.816 Y54.401 E146.43488
G1 X140.319 Y54.74 E146.46514
G1 X140.772 Y55.142 E146.49535
G1 X141.169 Y55.6 E146.52559
G1 X141.502 Y56.107 E146.55586
G1 X141.766 Y56.653 E146.58611
G1 X141.955 Y57.229 E146.61636
G1 X142.067 Y57.825 E146.64661
G1 X142.1 Y58.375 E146.6741
G1 X142.1 Y141.625 E150.82746
G1 X142.06 Y142.23 E150.85771
G1 X141.941 Y142.824 E150.88793
G1 X141.745 Y143.398 E150.91819
G1 X141.474 Y143.941 E150.94847
G1 X141.135 Y144.444 E150.97873
G1 X140.733 Y144.897 E151.00895
