;FLAVOR:Marlin
;TIME:1852
;Filament used: 1.51523m
;Layer height: 0.1
;Generated with Cura_SteamEngine 3.6.0
M104 S200
M105
M109 S200
M82 ;absolute extrusion mode
G21 ;metric values
G90 ;absolute positioning
M82 ;set extruder to absolute mode
M107 ;start with the fan off
G28 X0 Y0 ;move X/Y to min endstops
G28 Z0 ;move Z to min endstops
G1 Z15.0 F9000 ;move the platform down 15mm
G92 E0 ;zero the extruded length
G1 F200 E3 ;extrude 3mm of feed stock
G92 E0 ;zero the extruded length again
G1 F9000
;Put printing message on LCD screen
M117 Printing...
G92 E0
G1 F1500 E-6.5
;LAYER_COUNT:5
;LAYER:0
M107
G0 F3600 X55.774 Y64.045 Z0.3
;TYPE:SKIRT
G1 F1500 E0
G1 F1800 X56.373 Y63.53 E0.03941
G1 X57.021 Y63.079 E0.0788
G1 X57.712 Y62.695 E0.11824
G1 X58.437 Y62.383 E0.15762
G1 X59.19 Y62.146 E0.197
G1 X59.964 Y61.987 E0.23642
G1 X60.749 Y61.906 E0.27579
G1 X61.151 Y61.896 E0.29586
G1 X127.901 Y61.896 E3.62603
G1 X128.69 Y61.936 E3.66544
G1 X129.47 Y62.055 E3.70481
G1 X130.235 Y62.253 E3.74423
G1 X130.975 Y62.527 E3.7836
G1 X131.684 Y62.875 E3.823
G1 X132.355 Y63.293 E3.86244
G1 X132.979 Y63.776 E3.90181
G1 X133.552 Y64.319 E3.94119
G1 X134.067 Y64.918 E3.9806
G1 X134.518 Y65.566 E4.01999
G1 X134.902 Y66.257 E4.05943
G1 X135.214 Y66.982 E4.09881
G1 X135.451 Y67.735 E4.13819
G1 X135.61 Y68.509 E4.17761
G1 X135.691 Y69.294 E4.21699
G1 X135.701 Y69.696 E4.23705
G1 X135.701 Y143.196 E7.90398
G1 X135.661 Y143.985 E7.94339
G1 X135.542 Y144.765 E7.98276
G1 X135.344 Y145.53 E8.02218
G1 X135.07 Y146.27 E8.06155
G1 X134.722 Y146.979 E8.10095
G1 X134.304 Y147.65 E8.14039
G1 X133.821 Y148.274 E8.17976
G1 X133.278 Y148.847 E8.21914
G1 X132.679 Y149.362 E8.25856
G1 X132.031 Y149.813 E8.29794
G1 X131.34 Y150.197 E8.33738
G1 X130.615 Y150.509 E8.37676
G1 X129.862 Y150.746 E8.41615
G1 X129.088 Y150.905 E8.45557
G1 X128.303 Y150.986 E8.49494
G1 X127.901 Y150.996 E8.515
G1 X61.151 Y150.996 E11.84517
G1 X60.362 Y150.956 E11.88459
G1 X59.582 Y150.837 E11.92395
G1 X58.817 Y150.639 E11.96337
G1 X58.077 Y150.365 E12.00274
G1 X57.368 Y150.017 E12.04215
G1 X56.697 Y149.599 E12.08159
G1 X56.073 Y149.116 E12.12095
G1 X55.5 Y148.573 E12.16034
G1 X54.985 Y147.974 E12.19975
G1 X54.534 Y147.326 E12.23914
G1 X54.15 Y146.635 E12.27858
G1 X53.838 Y145.91 E12.31795
G1 X53.601 Y145.157 E12.35734
G1 X53.442 Y144.383 E12.39676
G1 X53.361 Y143.598 E12.43613
G1 X53.351 Y143.196 E12.45619
G1 X53.351 Y69.696 E16.12312
G1 X53.391 Y68.907 E16.16254
G1 X53.51 Y68.127 E16.2019
G1 X53.708 Y67.362 E16.24133
G1 X53.982 Y66.622 E16.28069
G1 X54.33 Y65.913 E16.3201
G1 X54.748 Y65.242 E16.35954
G1 X55.231 Y64.618 E16.39891
G1 X55.774 Y64.045 E16.43829
G0 F3600 X56.167 Y64.226
G1 F1800 X56.762 Y63.738 E16.47668
G1 X57.404 Y63.315 E16.51504
G1 X58.087 Y62.96 E16.55344
G1 X58.802 Y62.679 E16.59177
G1 X59.544 Y62.473 E16.63019
G1 X60.302 Y62.345 E16.66854
G1 X61.151 Y62.296 E16.71097
G1 X127.901 Y62.296 E20.04114
G1 X128.669 Y62.336 E20.07951
G1 X129.429 Y62.455 E20.11788
G1 X130.172 Y62.653 E20.15625
G1 X130.891 Y62.927 E20.19463
G1 X131.577 Y63.274 E20.23299
G1 X132.224 Y63.69 E20.27136
G1 X132.824 Y64.171 E20.30973
G1 X133.371 Y64.712 E20.34811
G1 X133.859 Y65.307 E20.3865
G1 X134.282 Y65.949 E20.42486
G1 X134.637 Y66.632 E20.46326
G1 X134.918 Y67.347 E20.50159
G1 X135.124 Y68.089 E20.54001
G1 X135.252 Y68.847 E20.57836
G1 X135.301 Y69.696 E20.62079
G1 X135.301 Y143.196 E24.28772
G1 X135.261 Y143.964 E24.32609
G1 X135.142 Y144.724 E24.36446
G1 X134.944 Y145.467 E24.40283
G1 X134.67 Y146.186 E24.44121
G1 X134.323 Y146.872 E24.47957
G1 X133.907 Y147.519 E24.51794
G1 X133.426 Y148.119 E24.55631
G1 X132.885 Y148.666 E24.59469
G1 X132.29 Y149.154 E24.63308
G1 X131.648 Y149.577 E24.67144
G1 X130.965 Y149.932 E24.70984
G1 X130.25 Y150.213 E24.74817
G1 X129.508 Y150.419 E24.78659
G1 X128.75 Y150.547 E24.82494
G1 X127.901 Y150.596 E24.86737
G1 X61.151 Y150.596 E28.19754
G1 X60.383 Y150.556 E28.23591
G1 X59.623 Y150.437 E28.27429
G1 X58.88 Y150.239 E28.31265
G1 X58.161 Y149.965 E28.35104
G1 X57.475 Y149.618 E28.38939
G1 X56.828 Y149.202 E28.42777
G1 X56.228 Y148.721 E28.46613
G1 X55.681 Y148.18 E28.50451
G1 X55.193 Y147.585 E28.54291
G1 X54.77 Y146.943 E28.58126
G1 X54.415 Y146.26 E28.61967
G1 X54.134 Y145.545 E28.65799
G1 X53.928 Y144.803 E28.69641
G1 X53.8 Y144.045 E28.73476
G1 X53.751 Y143.196 E28.77719
G1 X53.751 Y69.696 E32.44412
G1 X53.791 Y68.928 E32.48249
G1 X53.91 Y68.168 E32.52087
G1 X54.108 Y67.425 E32.55923
G1 X54.382 Y66.706 E32.59762
G1 X54.729 Y66.02 E32.63597
G1 X55.145 Y65.373 E32.67435
G1 X55.626 Y64.773 E32.71271
G1 X56.167 Y64.226 E32.75109
G0 F3600 X56.559 Y64.412
G1 F1800 X57.149 Y63.953 E32.78839
G1 X57.785 Y63.558 E32.82574
G1 X58.459 Y63.234 E32.86305
G1 X59.164 Y62.984 E32.90037
G1 X59.892 Y62.81 E32.93771
G1 X60.634 Y62.715 E32.97503
G1 X61.151 Y62.696 E33.00084
G1 X127.901 Y62.696 E36.33101
G1 X128.648 Y62.736 E36.36833
G1 X129.386 Y62.855 E36.40563
G1 X130.108 Y63.053 E36.44298
G1 X130.804 Y63.326 E36.48028
G1 X131.467 Y63.673 E36.51761
G1 X132.09 Y64.088 E36.55496
G1 X132.664 Y64.567 E36.59226
G1 X133.185 Y65.104 E36.62959
G1 X133.644 Y65.694 E36.66688
G1 X134.039 Y66.33 E36.70423
G1 X134.363 Y67.004 E36.74154
G1 X134.613 Y67.709 E36.77886
G1 X134.787 Y68.437 E36.8162
G1 X134.882 Y69.179 E36.85352
G1 X134.901 Y69.696 E36.87933
G1 X134.901 Y143.196 E40.54626
G1 X134.861 Y143.943 E40.58358
G1 X134.742 Y144.681 E40.62088
G1 X134.544 Y145.403 E40.65823
G1 X134.271 Y146.099 E40.69553
G1 X133.924 Y146.762 E40.73286
G1 X133.509 Y147.385 E40.77021
G1 X133.03 Y147.959 E40.80751
G1 X132.493 Y148.48 E40.84484
G1 X131.903 Y148.939 E40.88213
G1 X131.267 Y149.334 E40.91948
G1 X130.593 Y149.658 E40.95679
G1 X129.888 Y149.908 E40.99411
G1 X129.16 Y150.082 E41.03145
G1 X128.418 Y150.177 E41.06877
G1 X127.901 Y150.196 E41.09458
G1 X61.151 Y150.196 E44.42475
G1 X60.404 Y150.156 E44.46208
G1 X59.666 Y150.037 E44.49937
G1 X58.944 Y149.839 E44.53672
G1 X58.248 Y149.566 E44.57402
G1 X57.585 Y149.219 E44.61135
G1 X56.962 Y148.804 E44.6487
G1 X56.388 Y148.325 E44.686
G1 X55.867 Y147.788 E44.72333
G1 X55.408 Y147.198 E44.76062
G1 X55.013 Y146.562 E44.79797
G1 X54.689 Y145.888 E44.83528
G1 X54.439 Y145.183 E44.8726
G1 X54.265 Y144.455 E44.90994
G1 X54.17 Y143.713 E44.94726
G1 X54.151 Y143.196 E44.97307
G1 X54.151 Y69.696 E48.64
G1 X54.191 Y68.949 E48.67733
G1 X54.31 Y68.211 E48.71462
G1 X54.508 Y67.489 E48.75197
G1 X54.781 Y66.793 E48.78927
G1 X55.128 Y66.13 E48.8266
G1 X55.543 Y65.507 E48.86395
G1 X56.022 Y64.933 E48.90125
G1 X56.559 Y64.412 E48.93858
G0 F3600 X56.416 Y65.098
G1 F1800 X56.95 Y64.605 E48.97484
G1 X57.535 Y64.175 E49.01106
G1 X58.164 Y63.811 E49.04731
G1 X58.829 Y63.518 E49.08357
G1 X59.522 Y63.3 E49.11981
G1 X60.234 Y63.16 E49.15601
G1 X61.151 Y63.096 E49.20188
G1 X127.901 Y63.096 E52.53205
G1 X128.626 Y63.136 E52.56827
G1 X129.343 Y63.255 E52.60453
G1 X130.042 Y63.453 E52.64078
G1 X130.715 Y63.726 E52.67701
G1 X131.354 Y64.071 E52.71324
G1 X131.951 Y64.485 E52.74949
G1 X132.499 Y64.961 E52.7857
G1 X132.992 Y65.495 E52.82196
G1 X133.422 Y66.08 E52.85818
G1 X133.786 Y66.709 E52.89444
G1 X134.079 Y67.374 E52.93069
G1 X134.297 Y68.067 E52.96694
G1 X134.437 Y68.779 E53.00314
G1 X134.501 Y69.696 E53.049
G1 X134.501 Y143.196 E56.71593
G1 X134.461 Y143.921 E56.75215
G1 X134.342 Y144.638 E56.78841
G1 X134.144 Y145.337 E56.82466
G1 X133.871 Y146.01 E56.86089
G1 X133.526 Y146.649 E56.89712
G1 X133.112 Y147.246 E56.93337
G1 X132.636 Y147.794 E56.96958
G1 X132.102 Y148.287 E57.00584
G1 X131.517 Y148.717 E57.04206
G1 X130.888 Y149.081 E57.07832
G1 X130.223 Y149.374 E57.11457
G1 X129.53 Y149.592 E57.15082
G1 X128.818 Y149.732 E57.18702
G1 X127.901 Y149.796 E57.23288
G1 X61.151 Y149.796 E60.56305
G1 X60.426 Y149.756 E60.59928
G1 X59.709 Y149.637 E60.63554
G1 X59.01 Y149.439 E60.67178
G1 X58.337 Y149.166 E60.70802
G1 X57.698 Y148.821 E60.74425
G1 X57.101 Y148.407 E60.78049
G1 X56.553 Y147.931 E60.81671
G1 X56.06 Y147.397 E60.85296
G1 X55.63 Y146.812 E60.88919
G1 X55.266 Y146.183 E60.92544
G1 X54.973 Y145.518 E60.9617
G1 X54.755 Y144.825 E60.99794
G1 X54.615 Y144.113 E61.03414
G1 X54.551 Y143.196 E61.08
G1 X54.551 Y69.696 E64.74693
G1 X54.591 Y68.971 E64.78316
G1 X54.71 Y68.254 E64.81942
G1 X54.908 Y67.555 E64.85567
G1 X55.181 Y66.882 E64.8919
G1 X55.526 Y66.243 E64.92813
G1 X55.94 Y65.646 E64.96437
G1 X56.416 Y65.098 E65.00059
G0 F3600 X56.81 Y65.269
G1 F1800 X57.34 Y64.805 E65.03573
G1 X57.919 Y64.405 E65.07084
G1 X58.54 Y64.073 E65.10597
G1 X59.194 Y63.813 E65.14108
G1 X59.874 Y63.629 E65.17623
G1 X60.57 Y63.523 E65.21135
G1 X61.151 Y63.496 E65.24037
G1 X127.901 Y63.496 E68.57054
G1 X128.604 Y63.536 E68.60567
G1 X129.298 Y63.655 E68.6408
G1 X129.973 Y63.853 E68.67589
G1 X130.622 Y64.125 E68.711
G1 X131.236 Y64.47 E68.74614
G1 X131.807 Y64.881 E68.78124
G1 X132.328 Y65.355 E68.81638
G1 X132.792 Y65.885 E68.85152
G1 X133.192 Y66.464 E68.88663
G1 X133.524 Y67.085 E68.92176
G1 X133.784 Y67.739 E68.95688
G1 X133.968 Y68.419 E68.99202
G1 X134.074 Y69.115 E69.02714
G1 X134.101 Y69.696 E69.05616
G1 X134.101 Y143.196 E72.72309
G1 X134.061 Y143.899 E72.75822
G1 X133.942 Y144.593 E72.79335
G1 X133.744 Y145.268 E72.82845
G1 X133.472 Y145.917 E72.86355
G1 X133.127 Y146.531 E72.89869
G1 X132.716 Y147.102 E72.93379
G1 X132.242 Y147.623 E72.96893
G1 X131.712 Y148.087 E73.00407
G1 X131.133 Y148.487 E73.03918
G1 X130.512 Y148.819 E73.07431
G1 X129.858 Y149.079 E73.10943
G1 X129.178 Y149.263 E73.14457
G1 X128.482 Y149.369 E73.1797
G1 X127.901 Y149.396 E73.20871
G1 X61.151 Y149.396 E76.53888
G1 X60.448 Y149.356 E76.57401
G1 X59.754 Y149.237 E76.60914
G1 X59.079 Y149.039 E76.64424
G1 X58.43 Y148.767 E76.67935
G1 X57.816 Y148.422 E76.71448
G1 X57.245 Y148.011 E76.74958
G1 X56.724 Y147.537 E76.78472
G1 X56.26 Y147.007 E76.81987
G1 X55.86 Y146.428 E76.85497
G1 X55.528 Y145.807 E76.89011
G1 X55.268 Y145.153 E76.92522
G1 X55.084 Y144.473 E76.96036
G1 X54.978 Y143.777 E76.99549
G1 X54.951 Y143.196 E77.02451
G1 X54.951 Y69.696 E80.69144
G1 X54.991 Y68.993 E80.72656
G1 X55.11 Y68.299 E80.76169
G1 X55.308 Y67.624 E80.79679
G1 X55.58 Y66.975 E80.8319
G1 X55.925 Y66.361 E80.86703
G1 X56.336 Y65.79 E80.90213
G1 X56.81 Y65.269 E80.93727
G0 F3600 X57.204 Y65.447
G1 F1800 X57.729 Y65.013 E80.97126
G1 X58.301 Y64.644 E81.00522
G1 X58.913 Y64.345 E81.0392
G1 X59.555 Y64.12 E81.07314
G1 X60.22 Y63.971 E81.10714
G1 X61.151 Y63.896 E81.15374
G1 X127.901 Y63.896 E84.48391
G1 X128.581 Y63.936 E84.51789
G1 X129.251 Y64.055 E84.55184
G1 X129.903 Y64.252 E84.58582
G1 X130.527 Y64.524 E84.61978
G1 X131.115 Y64.868 E84.65377
G1 X131.659 Y65.278 E84.68775
G1 X132.15 Y65.749 E84.7217
G1 X132.584 Y66.274 E84.75568
G1 X132.953 Y66.846 E84.78964
G1 X133.252 Y67.458 E84.82362
G1 X133.477 Y68.1 E84.85756
G1 X133.626 Y68.765 E84.89156
G1 X133.701 Y69.696 E84.93816
G1 X133.701 Y143.196 E88.60509
G1 X133.661 Y143.876 E88.63907
G1 X133.542 Y144.546 E88.67302
G1 X133.345 Y145.198 E88.70701
G1 X133.073 Y145.822 E88.74097
G1 X132.729 Y146.41 E88.77495
G1 X132.319 Y146.954 E88.80894
G1 X131.848 Y147.445 E88.84288
G1 X131.323 Y147.879 E88.87687
G1 X130.751 Y148.248 E88.91083
G1 X130.139 Y148.547 E88.94481
G1 X129.497 Y148.772 E88.97875
G1 X128.832 Y148.921 E89.01275
G1 X127.901 Y148.996 E89.05935
G1 X61.151 Y148.996 E92.38952
G1 X60.471 Y148.956 E92.4235
G1 X59.801 Y148.837 E92.45745
G1 X59.149 Y148.64 E92.49143
G1 X58.525 Y148.368 E92.52539
G1 X57.937 Y148.024 E92.55938
G1 X57.393 Y147.614 E92.59336
G1 X56.902 Y147.143 E92.62731
G1 X56.468 Y146.618 E92.66129
G1 X56.099 Y146.046 E92.69525
G1 X55.8 Y145.434 E92.72923
G1 X55.575 Y144.792 E92.76317
G1 X55.426 Y144.127 E92.79717
G1 X55.351 Y143.196 E92.84377
G1 X55.351 Y69.696 E96.5107
G1 X55.391 Y69.016 E96.54468
G1 X55.51 Y68.346 E96.57863
G1 X55.707 Y67.694 E96.61261
G1 X55.979 Y67.07 E96.64658
G1 X56.323 Y66.482 E96.68056
G1 X56.733 Y65.938 E96.71455
G1 X57.204 Y65.447 E96.74849
G0 F3600 X57.596 Y65.631
G1 F1800 X58.116 Y65.23 E96.78125
G1 X58.68 Y64.894 E96.81401
G1 X59.282 Y64.63 E96.8468
G1 X59.911 Y64.44 E96.87958
G1 X60.558 Y64.329 E96.91233
G1 X61.151 Y64.296 E96.94196
G1 X127.901 Y64.296 E100.27213
G1 X128.557 Y64.336 E100.30492
G1 X129.203 Y64.455 E100.33769
G1 X129.83 Y64.652 E100.37048
G1 X130.428 Y64.924 E100.40326
G1 X130.989 Y65.266 E100.43604
G1 X131.504 Y65.674 E100.46882
G1 X131.966 Y66.141 E100.50159
G1 X132.367 Y66.661 E100.53435
G1 X132.703 Y67.225 E100.5671
G1 X132.967 Y67.827 E100.5999
G1 X133.157 Y68.456 E100.63268
G1 X133.268 Y69.103 E100.66543
G1 X133.301 Y69.696 E100.69506
G1 X133.301 Y143.196 E104.36199
G1 X133.261 Y143.852 E104.39478
G1 X133.142 Y144.498 E104.42755
G1 X132.945 Y145.125 E104.46034
G1 X132.673 Y145.723 E104.49312
G1 X132.331 Y146.284 E104.5259
G1 X131.923 Y146.799 E104.55868
G1 X131.456 Y147.261 E104.59145
G1 X130.936 Y147.662 E104.62421
G1 X130.372 Y147.998 E104.65696
G1 X129.77 Y148.262 E104.68976
G1 X129.141 Y148.452 E104.72254
G1 X128.494 Y148.563 E104.75529
G1 X127.901 Y148.596 E104.78492
G1 X61.151 Y148.596 E108.11509
G1 X60.495 Y148.556 E108.14788
G1 X59.849 Y148.437 E108.18065
G1 X59.222 Y148.24 E108.21344
G1 X58.624 Y147.968 E108.24622
G1 X58.063 Y147.626 E108.27899
G1 X57.548 Y147.218 E108.31177
G1 X57.086 Y146.751 E108.34455
G1 X56.685 Y146.231 E108.37731
G1 X56.349 Y145.667 E108.41006
G1 X56.085 Y145.065 E108.44286
G1 X55.895 Y144.436 E108.47564
G1 X55.784 Y143.789 E108.50839
G1 X55.751 Y143.196 E108.53802
G1 X55.751 Y69.696 E112.20495
G1 X55.791 Y69.04 E112.23774
G1 X55.91 Y68.394 E112.27051
G1 X56.107 Y67.767 E112.3033
G1 X56.379 Y67.169 E112.33607
G1 X56.721 Y66.608 E112.36885
G1 X57.129 Y66.093 E112.40163
G1 X57.596 Y65.631 E112.43441
G0 F3600 X57.524 Y66.255
G1 F1800 X57.987 Y65.825 E112.46593
G1 X58.501 Y65.456 E112.4975
G1 X59.057 Y65.156 E112.52902
G1 X59.646 Y64.928 E112.56053
G1 X60.26 Y64.776 E112.59208
G1 X61.151 Y64.696 E112.63671
G1 X127.901 Y64.696 E115.96689
G1 X128.532 Y64.736 E115.99843
G1 X129.153 Y64.855 E116.02998
G1 X129.753 Y65.052 E116.06148
G1 X130.325 Y65.323 E116.09306
G1 X130.857 Y65.663 E116.12456
G1 X131.342 Y66.069 E116.15611
G1 X131.772 Y66.532 E116.18764
G1 X132.141 Y67.046 E116.21921
G1 X132.441 Y67.602 E116.25073
G1 X132.669 Y68.191 E116.28224
G1 X132.821 Y68.805 E116.31379
G1 X132.901 Y69.696 E116.35842
G1 X132.901 Y143.196 E120.02535
G1 X132.861 Y143.827 E120.0569
G1 X132.742 Y144.448 E120.08844
G1 X132.545 Y145.048 E120.11995
G1 X132.274 Y145.62 E120.15153
G1 X131.934 Y146.152 E120.18303
G1 X131.528 Y146.637 E120.21458
G1 X131.065 Y147.067 E120.24611
G1 X130.551 Y147.436 E120.27767
G1 X129.995 Y147.736 E120.30919
G1 X129.406 Y147.964 E120.3407
G1 X128.792 Y148.116 E120.37226
G1 X127.901 Y148.196 E120.41689
G1 X61.151 Y148.196 E123.74706
G1 X60.52 Y148.156 E123.77861
G1 X59.899 Y148.037 E123.81015
G1 X59.299 Y147.84 E123.84166
G1 X58.727 Y147.569 E123.87324
G1 X58.195 Y147.229 E123.90474
G1 X57.71 Y146.823 E123.93629
G1 X57.28 Y146.36 E123.96782
G1 X56.911 Y145.846 E123.99938
G1 X56.611 Y145.29 E124.0309
G1 X56.383 Y144.701 E124.06241
G1 X56.231 Y144.087 E124.09397
G1 X56.151 Y143.196 E124.1386
G1 X56.151 Y69.696 E127.80553
G1 X56.191 Y69.065 E127.83707
G1 X56.31 Y68.444 E127.86862
G1 X56.507 Y67.844 E127.90013
G1 X56.778 Y67.272 E127.9317
G1 X57.118 Y66.74 E127.9632
G1 X57.524 Y66.255 E127.99476
G0 F3600 X57.918 Y66.424
G1 F1800 X58.376 Y66.027 E128.025
G1 X58.883 Y65.694 E128.05526
G1 X59.429 Y65.43 E128.08552
G1 X60.005 Y65.241 E128.11576
G1 X60.601 Y65.129 E128.14602
G1 X61.151 Y65.096 E128.17351
G1 X127.901 Y65.096 E131.50368
G1 X128.506 Y65.136 E131.53393
G1 X129.1 Y65.255 E131.56415
G1 X129.674 Y65.451 E131.59441
G1 X130.217 Y65.722 E131.62469
G1 X130.72 Y66.061 E131.65495
G1 X131.173 Y66.463 E131.68517
G1 X131.57 Y66.921 E131.7154
G1 X131.903 Y67.428 E131.74567
G1 X132.167 Y67.974 E131.77592
G1 X132.356 Y68.55 E131.80617
G1 X132.468 Y69.146 E131.83642
G1 X132.501 Y69.696 E131.86391
G1 X132.501 Y143.196 E135.53084
G1 X132.461 Y143.801 E135.56109
G1 X132.342 Y144.395 E135.59132
G1 X132.146 Y144.969 E135.62158
G1 X131.875 Y145.512 E135.65185
G1 X131.536 Y146.015 E135.68211
