;FLAVOR:Marlin
;TIME:2579
;Filament used: 1.62266m
;Layer height: 0.1
;Generated with Cura_SteamEngine 3.6.0
M140 S60
M105
M190 S60
M104 S200
M105
M109 S200
M82 ;absolute extrusion mode
G21 ;metric values
G90 ;absolute positioning
M82 ;set extruder to absolute mode
M107 ;start with the fan off
G28 X0 Y0 ;move X/Y to min endstops
G28 Z0 ;move Z to min endstops
G1 Z15.0 F9000 ;move the platform down 15mm
G92 E0 ;zero the extruded length
G1 F200 E3 ;extrude 3mm of feed stock
G92 E0 ;zero the extruded length again
G1 F9000
;Put printing message on LCD screen
M117 Printing...
G92 E0
G1 F1500 E-6.5
;LAYER_COUNT:27
;LAYER:0
M107
G0 F3600 X60.77 Y88.133 Z0.3
;TYPE:SKIRT
G1 F1500 E0
G1 F1800 X61.461 Y87.749 E0.03944
G1 X62.186 Y87.437 E0.07882
G1 X62.939 Y87.2 E0.1182
G1 X63.713 Y87.041 E0.15762
G1 X64.498 Y86.96 E0.19699
G1 X64.9 Y86.95 E0.21706
G1 X135.1 Y86.95 E3.71935
G1 X135.889 Y86.99 E3.75876
G1 X136.669 Y87.109 E3.79813
G1 X137.434 Y87.307 E3.83755
G1 X138.174 Y87.581 E3.87692
G1 X138.883 Y87.929 E3.91632
G1 X139.554 Y88.347 E3.95576
G1 X140.178 Y88.83 E3.99513
G1 X140.751 Y89.373 E4.03452
G1 X141.266 Y89.972 E4.07393
G1 X141.717 Y90.62 E4.11331
G1 X142.101 Y91.311 E4.15275
G1 X142.413 Y92.036 E4.19213
G1 X142.65 Y92.789 E4.23152
G1 X142.809 Y93.563 E4.27094
G1 X142.89 Y94.348 E4.31031
G1 X142.9 Y94.75 E4.33037
G1 X142.9 Y105.25 E4.85422
G1 X142.86 Y106.039 E4.89363
G1 X142.741 Y106.819 E4.933
G1 X142.543 Y107.584 E4.97242
G1 X142.269 Y108.324 E5.01179
G1 X141.933 Y109.009 E5.04985
G1 X142.101 Y109.311 E5.06709
G1 X142.413 Y110.036 E5.10647
G1 X142.65 Y110.789 E5.14586
G1 X142.809 Y111.563 E5.18528
G1 X142.89 Y112.348 E5.22465
G1 X142.9 Y112.75 E5.24471
G1 X142.9 Y123.25 E5.76856
G1 X142.86 Y124.039 E5.80797
G1 X142.741 Y124.819 E5.84734
G1 X142.543 Y125.584 E5.88676
G1 X142.269 Y126.324 E5.92613
G1 X141.921 Y127.033 E5.96553
G1 X141.503 Y127.704 E6.00497
G1 X141.02 Y128.328 E6.04434
G1 X140.477 Y128.901 E6.08372
G1 X139.878 Y129.416 E6.12314
G1 X139.23 Y129.867 E6.16252
G1 X138.539 Y130.251 E6.20196
G1 X137.814 Y130.563 E6.24134
G1 X137.061 Y130.8 E6.28073
G1 X136.287 Y130.959 E6.32015
G1 X135.502 Y131.04 E6.35952
G1 X135.1 Y131.05 E6.37958
G1 X64.9 Y131.05 E9.88187
G1 X64.111 Y131.01 E9.92129
G1 X63.331 Y130.891 E9.96065
G1 X62.566 Y130.693 E10.00007
G1 X61.826 Y130.419 E10.03944
G1 X61.117 Y130.071 E10.07885
G1 X60.446 Y129.653 E10.11829
G1 X59.822 Y129.17 E10.15765
G1 X59.249 Y128.627 E10.19704
G1 X58.734 Y128.028 E10.23645
G1 X58.283 Y127.38 E10.27584
G1 X57.899 Y126.689 E10.31528
G1 X57.587 Y125.964 E10.35466
G1 X57.35 Y125.211 E10.39404
G1 X57.191 Y124.437 E10.43346
G1 X57.11 Y123.652 E10.47283
G1 X57.1 Y123.25 E10.49289
G1 X57.1 Y112.75 E11.01674
G1 X57.14 Y111.961 E11.05616
G1 X57.259 Y111.181 E11.09552
G1 X57.457 Y110.416 E11.13494
G1 X57.731 Y109.676 E11.17431
G1 X58.067 Y108.991 E11.21238
G1 X57.899 Y108.689 E11.22962
G1 X57.587 Y107.964 E11.269
G1 X57.35 Y107.211 E11.30838
G1 X57.191 Y106.437 E11.3478
G1 X57.11 Y105.652 E11.38717
G1 X57.1 Y105.25 E11.40723
G1 X57.1 Y94.75 E11.93108
G1 X57.14 Y93.961 E11.9705
G1 X57.259 Y93.181 E12.00986
G1 X57.457 Y92.416 E12.04928
G1 X57.731 Y91.676 E12.08865
G1 X58.079 Y90.967 E12.12806
G1 X58.497 Y90.296 E12.1675
G1 X58.98 Y89.672 E12.20686
G1 X59.523 Y89.099 E12.24625
G1 X60.122 Y88.584 E12.28566
G1 X60.77 Y88.133 E12.32505
G0 F3600 X61.153 Y88.369
G1 F1800 X61.836 Y88.014 E12.36345
G1 X62.551 Y87.733 E12.40178
G1 X63.293 Y87.527 E12.4402
G1 X64.051 Y87.399 E12.47855
G1 X64.9 Y87.35 E12.52098
G1 X135.1 Y87.35 E16.02327
G1 X135.868 Y87.39 E16.06164
G1 X136.628 Y87.509 E16.10001
G1 X137.371 Y87.707 E16.13838
G1 X138.09 Y87.981 E16.17676
G1 X138.776 Y88.328 E16.21512
G1 X139.423 Y88.744 E16.25349
G1 X140.023 Y89.225 E16.29186
G1 X140.57 Y89.766 E16.33024
G1 X141.058 Y90.361 E16.36863
G1 X141.481 Y91.003 E16.40699
G1 X141.836 Y91.686 E16.44539
G1 X142.117 Y92.401 E16.48372
G1 X142.323 Y93.143 E16.52214
G1 X142.451 Y93.901 E16.56049
G1 X142.5 Y94.75 E16.60292
G1 X142.5 Y105.25 E17.12677
G1 X142.46 Y106.018 E17.16513
G1 X142.341 Y106.778 E17.20351
G1 X142.143 Y107.521 E17.24187
G1 X141.869 Y108.24 E17.28026
G1 X141.522 Y108.926 E17.31862
G1 X141.477 Y108.996 E17.32277
G1 X141.481 Y109.003 E17.32317
G1 X141.836 Y109.686 E17.36157
G1 X142.117 Y110.401 E17.3999
G1 X142.323 Y111.143 E17.43832
G1 X142.451 Y111.901 E17.47667
G1 X142.5 Y112.75 E17.5191
G1 X142.5 Y123.25 E18.04295
G1 X142.46 Y124.018 E18.08131
G1 X142.341 Y124.778 E18.11969
G1 X142.143 Y125.521 E18.15805
G1 X141.869 Y126.24 E18.19644
G1 X141.522 Y126.926 E18.23479
G1 X141.106 Y127.573 E18.27317
G1 X140.625 Y128.173 E18.31154
G1 X140.084 Y128.72 E18.34992
G1 X139.489 Y129.208 E18.38831
G1 X138.847 Y129.631 E18.42667
G1 X138.164 Y129.986 E18.46507
G1 X137.449 Y130.267 E18.5034
G1 X136.707 Y130.473 E18.54182
G1 X135.949 Y130.601 E18.58017
G1 X135.1 Y130.65 E18.6226
G1 X64.9 Y130.65 E22.12489
G1 X64.132 Y130.61 E22.16326
G1 X63.372 Y130.491 E22.20163
G1 X62.629 Y130.293 E22.24
G1 X61.91 Y130.019 E22.27838
G1 X61.224 Y129.672 E22.31674
G1 X60.577 Y129.256 E22.35511
G1 X59.977 Y128.775 E22.39348
G1 X59.43 Y128.234 E22.43186
G1 X58.942 Y127.639 E22.47025
G1 X58.519 Y126.997 E22.50861
G1 X58.164 Y126.314 E22.54701
G1 X57.883 Y125.599 E22.58534
G1 X57.677 Y124.857 E22.62376
G1 X57.549 Y124.099 E22.66211
G1 X57.5 Y123.25 E22.70454
G1 X57.5 Y112.75 E23.22839
G1 X57.54 Y111.982 E23.26675
G1 X57.659 Y111.222 E23.30513
G1 X57.857 Y110.479 E23.34349
G1 X58.131 Y109.76 E23.38188
G1 X58.478 Y109.074 E23.42024
G1 X58.523 Y109.004 E23.42439
G1 X58.519 Y108.997 E23.42479
G1 X58.164 Y108.314 E23.46319
G1 X57.883 Y107.599 E23.50152
G1 X57.677 Y106.857 E23.53994
G1 X57.549 Y106.099 E23.57829
G1 X57.5 Y105.25 E23.62072
G1 X57.5 Y94.75 E24.14456
G1 X57.54 Y93.982 E24.18293
G1 X57.659 Y93.222 E24.22131
G1 X57.857 Y92.479 E24.25967
G1 X58.131 Y91.76 E24.29806
G1 X58.478 Y91.074 E24.33641
G1 X58.894 Y90.427 E24.37479
G1 X59.375 Y89.827 E24.41316
G1 X59.916 Y89.28 E24.45154
G1 X60.511 Y88.792 E24.48993
G1 X61.153 Y88.369 E24.52829
G0 F3600 X60.898 Y89.007
G1 F1800 X61.534 Y88.612 E24.56564
G1 X62.208 Y88.288 E24.60295
G1 X62.913 Y88.038 E24.64027
G1 X63.641 Y87.864 E24.67761
G1 X64.383 Y87.769 E24.71493
G1 X64.9 Y87.75 E24.74074
G1 X135.1 Y87.75 E28.24303
G1 X135.847 Y87.79 E28.28035
G1 X136.585 Y87.909 E28.31765
G1 X137.307 Y88.107 E28.355
G1 X138.003 Y88.38 E28.3923
G1 X138.666 Y88.727 E28.42963
G1 X139.289 Y89.142 E28.46698
G1 X139.863 Y89.621 E28.50428
G1 X140.384 Y90.158 E28.54161
G1 X140.843 Y90.748 E28.5789
G1 X141.238 Y91.384 E28.61625
G1 X141.562 Y92.058 E28.65356
G1 X141.812 Y92.763 E28.69088
G1 X141.986 Y93.491 E28.72822
G1 X142.081 Y94.233 E28.76554
G1 X142.1 Y94.75 E28.79135
G1 X142.1 Y105.25 E29.3152
G1 X142.06 Y105.997 E29.35252
G1 X141.941 Y106.735 E29.38982
G1 X141.743 Y107.457 E29.42717
G1 X141.47 Y108.153 E29.46447
G1 X141.123 Y108.816 E29.5018
G1 X141 Y109.001 E29.51288
G1 X141.238 Y109.384 E29.53538
G1 X141.562 Y110.058 E29.57269
G1 X141.812 Y110.763 E29.61001
G1 X141.986 Y111.491 E29.64735
G1 X142.081 Y112.233 E29.68467
G1 X142.1 Y112.75 E29.71048
G1 X142.1 Y123.25 E30.23433
G1 X142.06 Y123.997 E30.27165
G1 X141.941 Y124.735 E30.30895
G1 X141.743 Y125.457 E30.3463
G1 X141.47 Y126.153 E30.3836
G1 X141.123 Y126.816 E30.42093
G1 X140.708 Y127.439 E30.45828
G1 X140.229 Y128.013 E30.49557
G1 X139.692 Y128.534 E30.5329
G1 X139.102 Y128.993 E30.5702
G1 X138.466 Y129.388 E30.60755
G1 X137.792 Y129.712 E30.64486
G1 X137.087 Y129.962 E30.68218
G1 X136.359 Y130.136 E30.71952
G1 X135.617 Y130.231 E30.75684
G1 X135.1 Y130.25 E30.78265
G1 X64.9 Y130.25 E34.28494
G1 X64.153 Y130.21 E34.32226
G1 X63.415 Y130.091 E34.35956
G1 X62.693 Y129.893 E34.39691
G1 X61.997 Y129.62 E34.43421
G1 X61.334 Y129.273 E34.47154
G1 X60.711 Y128.858 E34.50889
G1 X60.137 Y128.379 E34.54619
G1 X59.616 Y127.842 E34.58351
G1 X59.157 Y127.252 E34.62081
G1 X58.762 Y126.616 E34.65816
G1 X58.438 Y125.942 E34.69547
G1 X58.188 Y125.237 E34.73279
G1 X58.014 Y124.509 E34.77013
G1 X57.919 Y123.767 E34.80745
G1 X57.9 Y123.25 E34.83326
G1 X57.9 Y112.75 E35.35711
G1 X57.94 Y112.003 E35.39443
G1 X58.059 Y111.265 E35.43173
G1 X58.257 Y110.543 E35.46908
G1 X58.53 Y109.847 E35.50638
G1 X58.877 Y109.184 E35.54371
G1 X59 Y108.999 E35.55479
G1 X58.762 Y108.616 E35.57729
G1 X58.438 Y107.942 E35.6146
G1 X58.188 Y107.237 E35.65192
G1 X58.014 Y106.509 E35.68926
G1 X57.919 Y105.767 E35.72658
G1 X57.9 Y105.25 E35.75239
G1 X57.9 Y94.75 E36.27624
G1 X57.94 Y94.003 E36.31356
G1 X58.059 Y93.265 E36.35085
G1 X58.257 Y92.543 E36.38821
G1 X58.53 Y91.847 E36.4255
G1 X58.877 Y91.184 E36.46284
G1 X59.292 Y90.561 E36.50018
G1 X59.771 Y89.987 E36.53748
G1 X60.308 Y89.466 E36.57481
G1 X60.898 Y89.007 E36.6121
G0 F3600 X61.284 Y89.229
G1 F1800 X61.913 Y88.865 E36.64836
G1 X62.578 Y88.572 E36.68462
G1 X63.271 Y88.354 E36.72086
G1 X63.983 Y88.214 E36.75706
G1 X64.9 Y88.15 E36.80292
G1 X135.1 Y88.15 E40.30521
G1 X135.825 Y88.19 E40.34144
G1 X136.542 Y88.309 E40.3777
G1 X137.241 Y88.507 E40.41395
G1 X137.914 Y88.78 E40.45018
G1 X138.553 Y89.125 E40.48641
G1 X139.15 Y89.539 E40.52265
G1 X139.698 Y90.015 E40.55887
G1 X140.191 Y90.549 E40.59513
G1 X140.621 Y91.134 E40.63135
G1 X140.985 Y91.763 E40.66761
G1 X141.278 Y92.428 E40.70386
G1 X141.496 Y93.121 E40.7401
G1 X141.636 Y93.833 E40.77631
G1 X141.7 Y94.75 E40.82217
G1 X141.7 Y105.25 E41.34601
G1 X141.66 Y105.975 E41.38224
G1 X141.541 Y106.692 E41.4185
G1 X141.343 Y107.391 E41.45475
G1 X141.07 Y108.064 E41.49098
G1 X140.725 Y108.703 E41.52721
G1 X140.521 Y108.998 E41.5451
G1 X140.621 Y109.134 E41.55352
G1 X140.985 Y109.763 E41.58978
G1 X141.278 Y110.428 E41.62604
G1 X141.496 Y111.121 E41.66228
G1 X141.636 Y111.833 E41.69848
G1 X141.7 Y112.75 E41.74434
G1 X141.7 Y123.25 E42.26819
G1 X141.66 Y123.975 E42.30442
G1 X141.541 Y124.692 E42.34068
G1 X141.343 Y125.391 E42.37692
G1 X141.07 Y126.064 E42.41315
G1 X140.725 Y126.703 E42.44938
G1 X140.311 Y127.3 E42.48563
G1 X139.835 Y127.848 E42.52184
G1 X139.301 Y128.341 E42.5581
G1 X138.716 Y128.771 E42.59432
G1 X138.087 Y129.135 E42.63058
G1 X137.422 Y129.428 E42.66684
G1 X136.729 Y129.646 E42.70308
G1 X136.017 Y129.786 E42.73928
G1 X135.1 Y129.85 E42.78514
G1 X64.9 Y129.85 E46.28743
G1 X64.175 Y129.81 E46.32366
G1 X63.458 Y129.691 E46.35992
G1 X62.759 Y129.493 E46.39617
G1 X62.086 Y129.22 E46.4324
G1 X61.447 Y128.875 E46.46863
G1 X60.85 Y128.461 E46.50487
G1 X60.302 Y127.985 E46.54109
G1 X59.809 Y127.451 E46.57735
G1 X59.379 Y126.866 E46.61357
G1 X59.015 Y126.237 E46.64983
G1 X58.722 Y125.572 E46.68608
G1 X58.504 Y124.879 E46.72232
G1 X58.364 Y124.167 E46.75853
G1 X58.3 Y123.25 E46.80439
G1 X58.3 Y112.75 E47.32823
G1 X58.34 Y112.025 E47.36446
G1 X58.459 Y111.308 E47.40072
G1 X58.657 Y110.609 E47.43697
G1 X58.93 Y109.936 E47.4732
G1 X59.275 Y109.297 E47.50943
G1 X59.479 Y109.002 E47.52732
G1 X59.379 Y108.866 E47.53574
G1 X59.015 Y108.237 E47.572
G1 X58.722 Y107.572 E47.60826
G1 X58.504 Y106.879 E47.6445
G1 X58.364 Y106.167 E47.6807
G1 X58.3 Y105.25 E47.72656
G1 X58.3 Y94.75 E48.25041
G1 X58.34 Y94.025 E48.28663
G1 X58.459 Y93.308 E48.32289
G1 X58.657 Y92.609 E48.35914
G1 X58.93 Y91.936 E48.39537
G1 X59.275 Y91.297 E48.4316
G1 X59.689 Y90.7 E48.46785
G1 X60.165 Y90.152 E48.50406
G1 X60.699 Y89.659 E48.54032
G1 X61.284 Y89.229 E48.57654
G0 F3600 X61.668 Y89.459
G1 F1800 X62.289 Y89.127 E48.61167
G1 X62.943 Y88.867 E48.64679
G1 X63.623 Y88.683 E48.68193
G1 X64.319 Y88.577 E48.71706
G1 X64.9 Y88.55 E48.74607
G1 X135.1 Y88.55 E52.24837
G1 X135.803 Y88.59 E52.2835
G1 X136.497 Y88.709 E52.31862
G1 X137.172 Y88.907 E52.35372
G1 X137.821 Y89.179 E52.38883
G1 X138.435 Y89.524 E52.42396
G1 X139.006 Y89.935 E52.45906
G1 X139.527 Y90.409 E52.4942
G1 X139.991 Y90.939 E52.52935
G1 X140.391 Y91.518 E52.56446
G1 X140.723 Y92.139 E52.59959
G1 X140.983 Y92.793 E52.6347
G1 X141.167 Y93.473 E52.66985
G1 X141.273 Y94.169 E52.70497
G1 X141.3 Y94.75 E52.73399
G1 X141.3 Y105.25 E53.25783
G1 X141.26 Y105.953 E53.29296
G1 X141.141 Y106.647 E53.32809
G1 X140.943 Y107.322 E53.36319
G1 X140.671 Y107.971 E53.39829
G1 X140.326 Y108.585 E53.43343
G1 X140.03 Y108.996 E53.4587
G1 X140.391 Y109.518 E53.49036
G1 X140.723 Y110.139 E53.5255
G1 X140.983 Y110.793 E53.56061
G1 X141.167 Y111.473 E53.59575
G1 X141.273 Y112.169 E53.63088
G1 X141.3 Y112.75 E53.6599
G1 X141.3 Y123.25 E54.18374
G1 X141.26 Y123.953 E54.21887
G1 X141.141 Y124.647 E54.254
G1 X140.943 Y125.322 E54.2891
G1 X140.671 Y125.971 E54.3242
G1 X140.326 Y126.585 E54.35934
G1 X139.915 Y127.156 E54.39444
G1 X139.441 Y127.677 E54.42958
G1 X138.911 Y128.141 E54.46472
G1 X138.332 Y128.541 E54.49983
G1 X137.711 Y128.873 E54.53496
G1 X137.057 Y129.133 E54.57008
G1 X136.377 Y129.317 E54.60522
G1 X135.681 Y129.423 E54.64035
G1 X135.1 Y129.45 E54.66936
G1 X64.9 Y129.45 E58.17166
G1 X64.197 Y129.41 E58.20679
G1 X63.503 Y129.291 E58.24191
G1 X62.828 Y129.093 E58.27701
G1 X62.179 Y128.821 E58.31212
G1 X61.565 Y128.476 E58.34725
G1 X60.994 Y128.065 E58.38235
G1 X60.473 Y127.591 E58.41749
G1 X60.009 Y127.061 E58.45264
G1 X59.609 Y126.482 E58.48775
G1 X59.277 Y125.861 E58.52288
G1 X59.017 Y125.207 E58.55799
G1 X58.833 Y124.527 E58.59314
G1 X58.727 Y123.831 E58.62826
G1 X58.7 Y123.25 E58.65728
G1 X58.7 Y112.75 E59.18112
G1 X58.74 Y112.047 E59.21625
G1 X58.859 Y111.353 E59.25138
G1 X59.057 Y110.678 E59.28648
G1 X59.329 Y110.029 E59.32158
G1 X59.674 Y109.415 E59.35672
G1 X59.97 Y109.004 E59.38199
G1 X59.609 Y108.482 E59.41365
G1 X59.277 Y107.861 E59.44879
G1 X59.017 Y107.207 E59.4839
G1 X58.833 Y106.527 E59.51904
G1 X58.727 Y105.831 E59.55417
G1 X58.7 Y105.25 E59.58319
G1 X58.7 Y94.75 E60.10703
G1 X58.74 Y94.047 E60.14216
G1 X58.859 Y93.353 E60.17729
G1 X59.057 Y92.678 E60.21239
G1 X59.329 Y92.029 E60.24749
G1 X59.674 Y91.415 E60.28263
G1 X60.085 Y90.844 E60.31773
G1 X60.559 Y90.323 E60.35287
G1 X61.089 Y89.859 E60.38801
G1 X61.668 Y89.459 E60.42312
G0 F3600 X62.05 Y89.698
G1 F1800 X62.662 Y89.399 E60.4571
G1 X63.304 Y89.174 E60.49104
G1 X63.969 Y89.025 E60.52504
G1 X64.9 Y88.95 E60.57164
G1 X135.1 Y88.95 E64.07393
G1 X135.78 Y88.99 E64.10792
G1 X136.45 Y89.109 E64.14187
G1 X137.102 Y89.306 E64.17585
G1 X137.726 Y89.578 E64.20981
G1 X138.314 Y89.922 E64.2438
G1 X138.858 Y90.332 E64.27778
G1 X139.349 Y90.803 E64.31173
G1 X139.783 Y91.328 E64.34571
G1 X140.152 Y91.9 E64.37967
G1 X140.451 Y92.512 E64.41365
G1 X140.676 Y93.154 E64.44759
G1 X140.825 Y93.819 E64.48159
G1 X140.9 Y94.75 E64.52819
G1 X140.9 Y105.25 E65.05204
G1 X140.86 Y105.93 E65.08602
G1 X140.741 Y106.6 E65.11997
G1 X140.544 Y107.252 E65.15395
G1 X140.272 Y107.876 E65.18791
G1 X139.928 Y108.464 E65.2219
G1 X139.518 Y109.008 E65.25588
G1 X139.783 Y109.328 E65.27661
G1 X140.152 Y109.9 E65.31057
G1 X140.451 Y110.512 E65.34455
G1 X140.676 Y111.154 E65.37849
G1 X140.825 Y111.819 E65.41249
G1 X140.9 Y112.75 E65.45909
G1 X140.9 Y123.25 E65.98294
G1 X140.86 Y123.93 E66.01692
G1 X140.741 Y124.6 E66.05087
G1 X140.544 Y125.252 E66.08485
G1 X140.272 Y125.876 E66.11881
G1 X139.928 Y126.464 E66.1528
G1 X139.518 Y127.008 E66.18678
G1 X139.047 Y127.499 E66.22073
G1 X138.522 Y127.933 E66.25471
G1 X137.95 Y128.302 E66.28867
G1 X137.338 Y128.601 E66.32265
G1 X136.696 Y128.826 E66.35659
G1 X136.031 Y128.975 E66.39059
G1 X135.1 Y129.05 E66.43719
G1 X64.9 Y129.05 E69.93948
G1 X64.22 Y129.01 E69.97347
G1 X63.55 Y128.891 E70.00742
G1 X62.898 Y128.694 E70.0414
G1 X62.274 Y128.422 E70.07536
G1 X61.686 Y128.078 E70.10935
G1 X61.142 Y127.668 E70.14333
G1 X60.651 Y127.197 E70.17728
G1 X60.217 Y126.672 E70.21126
G1 X59.848 Y126.1 E70.24522
G1 X59.549 Y125.488 E70.2792
G1 X59.324 Y124.846 E70.31314
G1 X59.175 Y124.181 E70.34714
G1 X59.1 Y123.25 E70.39374
G1 X59.1 Y112.75 E70.91759
G1 X59.14 Y112.07 E70.95157
G1 X59.259 Y111.4 E70.98552
G1 X59.456 Y110.748 E71.0195
G1 X59.728 Y110.124 E71.05346
G1 X60.072 Y109.536 E71.08745
G1 X60.482 Y108.992 E71.12143
G1 X60.217 Y108.672 E71.14216
G1 X59.848 Y108.1 E71.17612
G1 X59.549 Y107.488 E71.2101
G1 X59.324 Y106.846 E71.24404
G1 X59.175 Y106.181 E71.27804
G1 X59.1 Y105.25 E71.32464
G1 X59.1 Y94.75 E71.84849
