;FLAVOR:Marlin
;TIME:4456
;Filament used: 2.80513m
;Layer height: 0.1
;Generated with Cura_SteamEngine 3.6.0
M140 S60
M105
M190 S60
M104 S200
M105
M109 S200
M82 ;absolute extrusion mode
G21 ;metric values
G90 ;absolute positioning
M82 ;set extruder to absolute mode
M107 ;start with the fan off
G28 X0 Y0 ;move X/Y to min endstops
G28 Z0 ;move Z to min endstops
G1 Z15.0 F9000 ;move the platform down 15mm
G92 E0 ;zero the extruded length
G1 F200 E3 ;extrude 3mm of feed stock
G92 E0 ;zero the extruded length again
G1 F9000
;Put printing message on LCD screen
M117 Printing...
G92 E0
G1 F1500 E-6.5
;LAYER_COUNT:27
;LAYER:0
M107
G0 F3600 X56.58 Y51.922 Z0.3
;TYPE:SKIRT
G1 F1500 E0
G1 F1800 X57.123 Y51.349 E0.03938
G1 X57.722 Y50.834 E0.0788
G1 X58.37 Y50.383 E0.11818
G1 X59.061 Y49.999 E0.15762
G1 X59.786 Y49.687 E0.197
G1 X60.539 Y49.45 E0.23638
G1 X61.313 Y49.291 E0.27581
G1 X62.098 Y49.21 E0.31518
G1 X62.5 Y49.2 E0.33524
G1 X137.5 Y49.2 E4.077
G1 X138.289 Y49.24 E4.11642
G1 X139.069 Y49.359 E4.15578
G1 X139.834 Y49.557 E4.19521
G1 X140.574 Y49.831 E4.23458
G1 X141.283 Y50.179 E4.27398
G1 X141.954 Y50.597 E4.31342
G1 X142.578 Y51.08 E4.35279
G1 X143.151 Y51.623 E4.39217
G1 X143.666 Y52.222 E4.43158
G1 X144.117 Y52.87 E4.47097
G1 X144.501 Y53.561 E4.51041
G1 X144.813 Y54.286 E4.54979
G1 X145.05 Y55.039 E4.58917
G1 X145.209 Y55.813 E4.62859
G1 X145.29 Y56.598 E4.66796
G1 X145.3 Y57 E4.68803
G1 X145.3 Y75 E5.58605
G1 X145.26 Y75.789 E5.62546
G1 X145.141 Y76.569 E5.66483
G1 X144.943 Y77.334 E5.70425
G1 X144.669 Y78.074 E5.74362
G1 X144.321 Y78.783 E5.78302
G1 X143.903 Y79.454 E5.82246
G1 X143.42 Y80.078 E5.86183
G1 X142.877 Y80.651 E5.90122
G1 X142.278 Y81.166 E5.94063
G1 X141.63 Y81.617 E5.98002
G1 X140.939 Y82.001 E6.01946
G1 X140.214 Y82.313 E6.05883
G1 X139.461 Y82.55 E6.09822
G1 X138.687 Y82.709 E6.13764
G1 X137.902 Y82.79 E6.17701
G1 X137.5 Y82.8 E6.19707
G1 X62.5 Y82.8 E9.93884
G1 X61.711 Y82.76 E9.97825
G1 X60.931 Y82.641 E10.01762
G1 X60.166 Y82.443 E10.05704
G1 X59.426 Y82.169 E10.09641
G1 X58.717 Y81.821 E10.13581
G1 X58.046 Y81.403 E10.17525
G1 X57.422 Y80.92 E10.21462
G1 X56.849 Y80.377 E10.254
G1 X56.334 Y79.778 E10.29342
G1 X55.883 Y79.13 E10.3328
G1 X55.499 Y78.439 E10.37224
G1 X55.187 Y77.714 E10.41162
G1 X54.95 Y76.961 E10.451
G1 X54.791 Y76.187 E10.49043
G1 X54.71 Y75.402 E10.5298
G1 X54.7 Y75 E10.54986
G1 X54.7 Y57 E11.44788
G1 X54.74 Y56.211 E11.4873
G1 X54.859 Y55.431 E11.52666
G1 X55.057 Y54.666 E11.56609
G1 X55.331 Y53.926 E11.60545
G1 X55.679 Y53.217 E11.64486
G1 X56.097 Y52.546 E11.6843
G1 X56.58 Y51.922 E11.72367
G0 F3600 X56.975 Y52.077
G1 F1800 X57.516 Y51.53 E11.76205
G1 X58.111 Y51.042 E11.80044
G1 X58.753 Y50.619 E11.8388
G1 X59.436 Y50.264 E11.8772
G1 X60.151 Y49.983 E11.91553
G1 X60.893 Y49.777 E11.95395
G1 X61.651 Y49.649 E11.9923
G1 X62.5 Y49.6 E12.03473
G1 X137.5 Y49.6 E15.77649
G1 X138.268 Y49.64 E15.81486
G1 X139.028 Y49.759 E15.85324
G1 X139.771 Y49.957 E15.8916
G1 X140.49 Y50.231 E15.92999
G1 X141.176 Y50.578 E15.96834
G1 X141.823 Y50.994 E16.00672
G1 X142.423 Y51.475 E16.04508
G1 X142.97 Y52.016 E16.08346
G1 X143.458 Y52.611 E16.12186
G1 X143.881 Y53.253 E16.16021
G1 X144.236 Y53.936 E16.19862
G1 X144.517 Y54.651 E16.23694
G1 X144.723 Y55.393 E16.27536
G1 X144.851 Y56.151 E16.31371
G1 X144.9 Y57 E16.35614
G1 X144.9 Y75 E17.25417
G1 X144.86 Y75.768 E17.29253
G1 X144.741 Y76.528 E17.33091
G1 X144.543 Y77.271 E17.36927
G1 X144.269 Y77.99 E17.40766
G1 X143.922 Y78.676 E17.44601
G1 X143.506 Y79.323 E17.48439
G1 X143.025 Y79.923 E17.52276
G1 X142.484 Y80.47 E17.56114
G1 X141.889 Y80.958 E17.59953
G1 X141.247 Y81.381 E17.63789
G1 X140.564 Y81.736 E17.67629
G1 X139.849 Y82.017 E17.71462
G1 X139.107 Y82.223 E17.75304
G1 X138.349 Y82.351 E17.79139
G1 X137.5 Y82.4 E17.83382
G1 X62.5 Y82.4 E21.57558
G1 X61.732 Y82.36 E21.61395
G1 X60.972 Y82.241 E21.65233
G1 X60.229 Y82.043 E21.69069
G1 X59.51 Y81.769 E21.72908
G1 X58.824 Y81.422 E21.76743
G1 X58.177 Y81.006 E21.80581
G1 X57.577 Y80.525 E21.84417
G1 X57.03 Y79.984 E21.88255
G1 X56.542 Y79.389 E21.92095
G1 X56.119 Y78.747 E21.9593
G1 X55.764 Y78.064 E21.99771
G1 X55.483 Y77.349 E22.03603
G1 X55.277 Y76.607 E22.07445
G1 X55.149 Y75.849 E22.1128
G1 X55.1 Y75 E22.15523
G1 X55.1 Y57 E23.05326
G1 X55.14 Y56.232 E23.09162
G1 X55.259 Y55.472 E23.13
G1 X55.457 Y54.729 E23.16836
G1 X55.731 Y54.01 E23.20675
G1 X56.078 Y53.324 E23.2451
G1 X56.494 Y52.677 E23.28348
G1 X56.975 Y52.077 E23.32185
G0 F3600 X57.371 Y52.237
G1 F1800 X57.908 Y51.716 E23.35917
G1 X58.498 Y51.257 E23.39647
G1 X59.134 Y50.862 E23.43382
G1 X59.808 Y50.538 E23.47113
G1 X60.513 Y50.288 E23.50845
G1 X61.241 Y50.114 E23.54579
G1 X61.983 Y50.019 E23.58311
G1 X62.5 Y50 E23.60892
G1 X137.5 Y50 E27.35069
G1 X138.247 Y50.04 E27.38801
G1 X138.985 Y50.159 E27.4253
G1 X139.707 Y50.357 E27.46265
G1 X140.403 Y50.63 E27.49995
G1 X141.066 Y50.977 E27.53729
G1 X141.689 Y51.392 E27.57463
G1 X142.263 Y51.871 E27.61193
G1 X142.784 Y52.408 E27.64926
G1 X143.243 Y52.998 E27.68655
G1 X143.638 Y53.634 E27.7239
G1 X143.962 Y54.308 E27.76121
G1 X144.212 Y55.013 E27.79853
G1 X144.386 Y55.741 E27.83588
G1 X144.481 Y56.483 E27.8732
G1 X144.5 Y57 E27.89901
G1 X144.5 Y75 E28.79703
G1 X144.46 Y75.747 E28.83435
G1 X144.341 Y76.485 E28.87165
G1 X144.143 Y77.207 E28.909
G1 X143.87 Y77.903 E28.9463
G1 X143.523 Y78.566 E28.98363
G1 X143.108 Y79.189 E29.02098
G1 X142.629 Y79.763 E29.05827
G1 X142.092 Y80.284 E29.0956
G1 X141.502 Y80.743 E29.1329
G1 X140.866 Y81.138 E29.17025
G1 X140.192 Y81.462 E29.20756
G1 X139.487 Y81.712 E29.24488
G1 X138.759 Y81.886 E29.28222
G1 X138.017 Y81.981 E29.31954
G1 X137.5 Y82 E29.34535
G1 X62.5 Y82 E33.08712
G1 X61.753 Y81.96 E33.12444
G1 X61.015 Y81.841 E33.16173
G1 X60.293 Y81.643 E33.19908
G1 X59.597 Y81.37 E33.23638
G1 X58.934 Y81.023 E33.27372
G1 X58.311 Y80.608 E33.31106
G1 X57.737 Y80.129 E33.34836
G1 X57.216 Y79.592 E33.38569
G1 X56.757 Y79.002 E33.42298
G1 X56.362 Y78.366 E33.46033
G1 X56.038 Y77.692 E33.49764
G1 X55.788 Y76.987 E33.53496
G1 X55.614 Y76.259 E33.5723
G1 X55.519 Y75.517 E33.60963
G1 X55.5 Y75 E33.63544
G1 X55.5 Y57 E34.53346
G1 X55.54 Y56.253 E34.57078
G1 X55.659 Y55.515 E34.60808
G1 X55.857 Y54.793 E34.64543
G1 X56.13 Y54.097 E34.68273
G1 X56.477 Y53.434 E34.72006
G1 X56.892 Y52.811 E34.75741
G1 X57.371 Y52.237 E34.7947
G0 F3600 X57.289 Y52.95
G1 F1800 X57.765 Y52.402 E34.83092
G1 X58.299 Y51.909 E34.86718
G1 X58.884 Y51.479 E34.9034
G1 X59.513 Y51.115 E34.93965
G1 X60.178 Y50.822 E34.97591
G1 X60.871 Y50.604 E35.01215
G1 X61.583 Y50.464 E35.04836
G1 X62.5 Y50.4 E35.09422
G1 X137.5 Y50.4 E38.83598
G1 X138.225 Y50.44 E38.87221
G1 X138.942 Y50.559 E38.90847
G1 X139.641 Y50.757 E38.94471
G1 X140.314 Y51.03 E38.98095
G1 X140.953 Y51.375 E39.01718
G1 X141.55 Y51.789 E39.05342
G1 X142.098 Y52.265 E39.08963
G1 X142.591 Y52.799 E39.12589
G1 X143.021 Y53.384 E39.16212
G1 X143.385 Y54.013 E39.19837
G1 X143.678 Y54.678 E39.23463
G1 X143.896 Y55.371 E39.27087
G1 X144.036 Y56.083 E39.30707
G1 X144.1 Y57 E39.35293
G1 X144.1 Y75 E40.25096
G1 X144.06 Y75.725 E40.28718
G1 X143.941 Y76.442 E40.32344
G1 X143.743 Y77.141 E40.35969
G1 X143.47 Y77.814 E40.39592
G1 X143.125 Y78.453 E40.43215
G1 X142.711 Y79.05 E40.4684
G1 X142.235 Y79.598 E40.50461
G1 X141.701 Y80.091 E40.54087
G1 X141.116 Y80.521 E40.57709
G1 X140.487 Y80.885 E40.61335
G1 X139.822 Y81.178 E40.6496
G1 X139.129 Y81.396 E40.68585
G1 X138.417 Y81.536 E40.72205
G1 X137.5 Y81.6 E40.76791
G1 X62.5 Y81.6 E44.50968
G1 X61.775 Y81.56 E44.5459
G1 X61.058 Y81.441 E44.58216
G1 X60.359 Y81.243 E44.61841
G1 X59.686 Y80.97 E44.65464
G1 X59.047 Y80.625 E44.69087
G1 X58.45 Y80.211 E44.72711
G1 X57.902 Y79.735 E44.76333
G1 X57.409 Y79.201 E44.79959
G1 X56.979 Y78.616 E44.83581
G1 X56.615 Y77.987 E44.87207
G1 X56.322 Y77.322 E44.90832
G1 X56.104 Y76.629 E44.94456
G1 X55.964 Y75.917 E44.98077
G1 X55.9 Y75 E45.02663
G1 X55.9 Y57 E45.92465
G1 X55.94 Y56.275 E45.96088
G1 X56.059 Y55.558 E45.99714
G1 X56.257 Y54.859 E46.03338
G1 X56.53 Y54.186 E46.06962
G1 X56.875 Y53.547 E46.10585
G1 X57.289 Y52.95 E46.14209
G0 F3600 X57.685 Y53.094
G1 F1800 X58.159 Y52.573 E46.17723
G1 X58.689 Y52.109 E46.21237
G1 X59.268 Y51.709 E46.24748
G1 X59.889 Y51.377 E46.28262
G1 X60.543 Y51.117 E46.31773
G1 X61.223 Y50.933 E46.35287
G1 X61.919 Y50.827 E46.388
G1 X62.5 Y50.8 E46.41701
G1 X137.5 Y50.8 E50.15878
G1 X138.203 Y50.84 E50.19391
G1 X138.897 Y50.959 E50.22904
G1 X139.572 Y51.157 E50.26413
G1 X140.221 Y51.429 E50.29924
G1 X140.835 Y51.774 E50.33438
G1 X141.406 Y52.185 E50.36948
G1 X141.927 Y52.659 E50.40462
G1 X142.391 Y53.189 E50.43976
G1 X142.791 Y53.768 E50.47487
G1 X143.123 Y54.389 E50.51
G1 X143.383 Y55.043 E50.54511
G1 X143.567 Y55.723 E50.58026
G1 X143.673 Y56.419 E50.61538
G1 X143.7 Y57 E50.6444
G1 X143.7 Y75 E51.54242
G1 X143.66 Y75.703 E51.57755
G1 X143.541 Y76.397 E51.61268
G1 X143.343 Y77.072 E51.64778
G1 X143.071 Y77.721 E51.68288
G1 X142.726 Y78.335 E51.71802
G1 X142.315 Y78.906 E51.75312
G1 X141.841 Y79.427 E51.78826
G1 X141.311 Y79.891 E51.82341
G1 X140.732 Y80.291 E51.85851
G1 X140.111 Y80.623 E51.89365
G1 X139.457 Y80.883 E51.92876
G1 X138.777 Y81.067 E51.9639
G1 X138.081 Y81.173 E51.99903
G1 X137.5 Y81.2 E52.02805
G1 X62.5 Y81.2 E55.76981
G1 X61.797 Y81.16 E55.80494
G1 X61.103 Y81.041 E55.84007
G1 X60.428 Y80.843 E55.87516
G1 X59.779 Y80.571 E55.91027
G1 X59.165 Y80.226 E55.94541
G1 X58.594 Y79.815 E55.98051
G1 X58.073 Y79.341 E56.01565
G1 X57.609 Y78.811 E56.05079
G1 X57.209 Y78.232 E56.0859
G1 X56.877 Y77.611 E56.12103
G1 X56.617 Y76.957 E56.15614
G1 X56.433 Y76.277 E56.19129
G1 X56.327 Y75.581 E56.22641
G1 X56.3 Y75 E56.25543
G1 X56.3 Y57 E57.15345
G1 X56.34 Y56.297 E57.18858
G1 X56.459 Y55.603 E57.22371
G1 X56.657 Y54.928 E57.25881
G1 X56.929 Y54.279 E57.29392
G1 X57.274 Y53.665 E57.32905
G1 X57.685 Y53.094 E57.36415
G0 F3600 X58.082 Y53.242
G1 F1800 X58.553 Y52.751 E57.3981
G1 X59.078 Y52.317 E57.43208
G1 X59.65 Y51.948 E57.46604
G1 X60.262 Y51.649 E57.50002
G1 X60.904 Y51.424 E57.53396
G1 X61.569 Y51.275 E57.56796
G1 X62.5 Y51.2 E57.61456
G1 X137.5 Y51.2 E61.35632
G1 X138.18 Y51.24 E61.39031
G1 X138.85 Y51.359 E61.42426
G1 X139.502 Y51.556 E61.45824
G1 X140.126 Y51.828 E61.4922
G1 X140.714 Y52.172 E61.52619
G1 X141.258 Y52.582 E61.56017
G1 X141.749 Y53.053 E61.59412
G1 X142.183 Y53.578 E61.6281
G1 X142.552 Y54.15 E61.66206
G1 X142.851 Y54.762 E61.69604
G1 X143.076 Y55.404 E61.72998
G1 X143.225 Y56.069 E61.76398
G1 X143.3 Y57 E61.81058
G1 X143.3 Y75 E62.7086
G1 X143.26 Y75.68 E62.74259
G1 X143.141 Y76.35 E62.77654
G1 X142.944 Y77.002 E62.81052
G1 X142.672 Y77.626 E62.84448
G1 X142.328 Y78.214 E62.87846
G1 X141.918 Y78.758 E62.91245
G1 X141.447 Y79.249 E62.94639
G1 X140.922 Y79.683 E62.98038
G1 X140.35 Y80.052 E63.01434
G1 X139.738 Y80.351 E63.04832
G1 X139.096 Y80.576 E63.08226
G1 X138.431 Y80.725 E63.11626
G1 X137.5 Y80.8 E63.16286
G1 X62.5 Y80.8 E66.90462
G1 X61.82 Y80.76 E66.93861
G1 X61.15 Y80.641 E66.97256
G1 X60.498 Y80.444 E67.00654
G1 X59.874 Y80.172 E67.0405
G1 X59.286 Y79.828 E67.07448
G1 X58.742 Y79.418 E67.10847
G1 X58.251 Y78.947 E67.14241
G1 X57.817 Y78.422 E67.1764
G1 X57.448 Y77.85 E67.21036
G1 X57.149 Y77.238 E67.24434
G1 X56.924 Y76.596 E67.27828
G1 X56.775 Y75.931 E67.31228
G1 X56.7 Y75 E67.35888
G1 X56.7 Y57 E68.2569
G1 X56.74 Y56.32 E68.29088
G1 X56.859 Y55.65 E68.32483
G1 X57.056 Y54.998 E68.35881
G1 X57.328 Y54.374 E68.39277
G1 X57.672 Y53.786 E68.42676
G1 X58.082 Y53.242 E68.46075
G0 F3600 X58.478 Y53.397
G1 F1800 X58.945 Y52.935 E68.49352
G1 X59.465 Y52.534 E68.52628
G1 X60.029 Y52.198 E68.55903
G1 X60.631 Y51.934 E68.59183
G1 X61.26 Y51.744 E68.62461
G1 X61.907 Y51.633 E68.65736
G1 X62.5 Y51.6 E68.68699
G1 X137.5 Y51.6 E72.42876
G1 X138.156 Y51.64 E72.46155
G1 X138.802 Y51.759 E72.49432
G1 X139.429 Y51.956 E72.52711
G1 X140.027 Y52.228 E72.55988
G1 X140.588 Y52.57 E72.59266
G1 X141.103 Y52.978 E72.62544
G1 X141.565 Y53.445 E72.65821
G1 X141.966 Y53.965 E72.69097
G1 X142.302 Y54.529 E72.72373
G1 X142.566 Y55.131 E72.75652
G1 X142.756 Y55.76 E72.7893
G1 X142.867 Y56.407 E72.82205
G1 X142.9 Y57 E72.85168
G1 X142.9 Y75 E73.74971
G1 X142.86 Y75.656 E73.7825
G1 X142.741 Y76.302 E73.81527
G1 X142.544 Y76.929 E73.84806
G1 X142.272 Y77.527 E73.88083
G1 X141.93 Y78.088 E73.91361
G1 X141.522 Y78.603 E73.94639
G1 X141.055 Y79.065 E73.97917
G1 X140.535 Y79.466 E74.01193
G1 X139.971 Y79.802 E74.04468
G1 X139.369 Y80.066 E74.07747
G1 X138.74 Y80.256 E74.11026
G1 X138.093 Y80.367 E74.14301
G1 X137.5 Y80.4 E74.17264
G1 X62.5 Y80.4 E77.9144
G1 X61.844 Y80.36 E77.94719
G1 X61.198 Y80.241 E77.97996
G1 X60.571 Y80.044 E78.01275
G1 X59.973 Y79.772 E78.04553
G1 X59.412 Y79.43 E78.07831
G1 X58.897 Y79.022 E78.11108
G1 X58.435 Y78.555 E78.14386
G1 X58.034 Y78.035 E78.17662
G1 X57.698 Y77.471 E78.20937
G1 X57.434 Y76.869 E78.24217
G1 X57.244 Y76.24 E78.27495
G1 X57.133 Y75.593 E78.3077
G1 X57.1 Y75 E78.33733
G1 X57.1 Y57 E79.23535
G1 X57.14 Y56.344 E79.26814
G1 X57.259 Y55.698 E79.30091
G1 X57.456 Y55.071 E79.3337
G1 X57.728 Y54.473 E79.36648
G1 X58.07 Y53.912 E79.39926
G1 X58.478 Y53.397 E79.43204
G0 F3600 X58.873 Y53.559
G1 F1800 X59.336 Y53.129 E79.46356
G1 X59.85 Y52.76 E79.49513
G1 X60.406 Y52.46 E79.52665
G1 X60.995 Y52.232 E79.55816
G1 X61.609 Y52.08 E79.58971
G1 X62.5 Y52 E79.63435
G1 X137.5 Y52 E83.37611
G1 X138.131 Y52.04 E83.40765
G1 X138.752 Y52.159 E83.4392
G1 X139.352 Y52.356 E83.47071
G1 X139.924 Y52.627 E83.50228
G1 X140.456 Y52.967 E83.53378
G1 X140.941 Y53.373 E83.56534
G1 X141.371 Y53.836 E83.59686
G1 X141.74 Y54.35 E83.62843
G1 X142.04 Y54.906 E83.65995
G1 X142.268 Y55.495 E83.69146
G1 X142.42 Y56.109 E83.72302
G1 X142.5 Y57 E83.76765
G1 X142.5 Y75 E84.66567
G1 X142.46 Y75.631 E84.69722
G1 X142.341 Y76.252 E84.72876
G1 X142.144 Y76.852 E84.76027
G1 X141.873 Y77.424 E84.79185
G1 X141.533 Y77.956 E84.82335
G1 X141.127 Y78.441 E84.8549
G1 X140.664 Y78.871 E84.88643
G1 X140.15 Y79.24 E84.91799
G1 X139.594 Y79.54 E84.94951
G1 X139.005 Y79.768 E84.98102
G1 X138.391 Y79.92 E85.01258
G1 X137.5 Y80 E85.05721
G1 X62.5 Y80 E88.79898
G1 X61.869 Y79.96 E88.83052
G1 X61.248 Y79.841 E88.86207
G1 X60.648 Y79.644 E88.89357
G1 X60.076 Y79.373 E88.92515
G1 X59.544 Y79.033 E88.95665
G1 X59.059 Y78.627 E88.9882
G1 X58.629 Y78.164 E89.01973
G1 X58.26 Y77.65 E89.0513
G1 X57.96 Y77.094 E89.08282
G1 X57.732 Y76.505 E89.11433
G1 X57.58 Y75.891 E89.14588
G1 X57.5 Y75 E89.19051
G1 X57.5 Y57 E90.08854
G1 X57.54 Y56.369 E90.12008
G1 X57.659 Y55.748 E90.15163
G1 X57.856 Y55.148 E90.18313
G1 X58.127 Y54.576 E90.21471
G1 X58.467 Y54.044 E90.24621
G1 X58.873 Y53.559 E90.27777
G0 F3600 X58.865 Y54.181
G1 F1800 X59.267 Y53.728 E90.30798
G1 X59.725 Y53.331 E90.33822
G1 X60.232 Y52.998 E90.36848
G1 X60.778 Y52.734 E90.39874
G1 X61.354 Y52.545 E90.42898
G1 X61.95 Y52.433 E90.45924
G1 X62.5 Y52.4 E90.48673
G1 X137.5 Y52.4 E94.22849
G1 X138.105 Y52.44 E94.25874
G1 X138.699 Y52.559 E94.28897
G1 X139.273 Y52.755 E94.31923
G1 X139.816 Y53.026 E94.3495
G1 X140.319 Y53.365 E94.37977
G1 X140.772 Y53.767 E94.40998
G1 X141.169 Y54.225 E94.44022
G1 X141.502 Y54.732 E94.47048
G1 X141.766 Y55.278 E94.50074
G1 X141.955 Y55.854 E94.53099
G1 X142.067 Y56.45 E94.56124
G1 X142.1 Y57 E94.58873
G1 X142.1 Y75 E95.48675
G1 X142.06 Y75.605 E95.517
G1 X141.941 Y76.199 E95.54723
G1 X141.745 Y76.773 E95.57749
G1 X141.474 Y77.316 E95.60776
G1 X141.135 Y77.819 E95.63803
G1 X140.733 Y78.272 E95.66824
G1 X140.275 Y78.669 E95.69848
G1 X139.768 Y79.002 E95.72874
G1 X139.222 Y79.266 E95.759
G1 X138.646 Y79.455 E95.78924
G1 X138.05 Y79.567 E95.8195
G1 X137.5 Y79.6 E95.84699
G1 X62.5 Y79.6 E99.58875
G1 X61.895 Y79.56 E99.619
G1 X61.301 Y79.441 E99.64923
G1 X60.727 Y79.245 E99.67949
G1 X60.184 Y78.974 E99.70976
G1 X59.681 Y78.635 E99.74003
G1 X59.228 Y78.233 E99.77024
G1 X58.831 Y77.775 E99.80048
G1 X58.498 Y77.268 E99.83074
G1 X58.234 Y76.722 E99.861
G1 X58.045 Y76.146 E99.89124
G1 X57.933 Y75.55 E99.9215
G1 X57.9 Y75 E99.94899
G1 X57.9 Y57 E100.84701
G1 X57.94 Y56.395 E100.87726
G1 X58.059 Y55.801 E100.90749
G1 X58.255 Y55.227 E100.93775
