;FLAVOR:Marlin
;TIME:4985
;Filament used: 3.04601m
;Layer height: 0.1
;Generated with Cura_SteamEngine 3.6.0
M140 S60
M105
M190 S60
M104 S200
M105
M109 S200
M82 ;absolute extrusion mode
G21 ;metric values
G90 ;absolute positioning
M82 ;set extruder to absolute mode
M107 ;start with the fan off
G28 X0 Y0 ;move X/Y to min endstops
G28 Z0 ;move Z to min endstops
G1 Z15.0 F9000 ;move the platform down 15mm
G92 E0 ;zero the extruded length
G1 F200 E3 ;extrude 3mm of feed stock
G92 E0 ;zero the extruded length again
G1 F9000
;Put printing message on LCD screen
M117 Printing...
G92 E0
G1 F1500 E-6.5
;LAYER_COUNT:27
;LAYER:0
M107
G0 F3600 X58.472 Y71.334 Z0.3
;TYPE:SKIRT
G1 F1500 E0
G1 F1800 X59.12 Y70.883 E0.03939
G1 X59.811 Y70.499 E0.07883
G1 X60.536 Y70.187 E0.11821
G1 X61.289 Y69.95 E0.15759
G1 X62.063 Y69.791 E0.19701
G1 X62.848 Y69.71 E0.23638
G1 X63.25 Y69.7 E0.25644
G1 X136.75 Y69.7 E3.92337
G1 X137.539 Y69.74 E3.96279
G1 X138.319 Y69.859 E4.00215
G1 X139.084 Y70.057 E4.04158
G1 X139.824 Y70.331 E4.08095
G1 X140.533 Y70.679 E4.12035
G1 X141.204 Y71.097 E4.15979
G1 X141.828 Y71.58 E4.19916
G1 X142.401 Y72.123 E4.23854
G1 X142.916 Y72.722 E4.27795
G1 X143.367 Y73.37 E4.31734
G1 X143.751 Y74.061 E4.35678
G1 X144.063 Y74.786 E4.39616
G1 X144.3 Y75.539 E4.43554
G1 X144.459 Y76.313 E4.47496
G1 X144.54 Y77.098 E4.51433
G1 X144.55 Y77.5 E4.5344
G1 X144.55 Y122.5 E6.77946
G1 X144.51 Y123.289 E6.81887
G1 X144.391 Y124.069 E6.85823
G1 X144.193 Y124.834 E6.89766
G1 X143.919 Y125.574 E6.93703
G1 X143.571 Y126.283 E6.97643
G1 X143.153 Y126.954 E7.01587
G1 X142.67 Y127.578 E7.05524
G1 X142.127 Y128.151 E7.09462
G1 X141.528 Y128.666 E7.13403
G1 X140.88 Y129.117 E7.17342
G1 X140.189 Y129.501 E7.21286
G1 X139.464 Y129.813 E7.25224
G1 X138.711 Y130.05 E7.29162
G1 X137.937 Y130.209 E7.33104
G1 X137.152 Y130.29 E7.37042
G1 X136.75 Y130.3 E7.39048
G1 X63.25 Y130.3 E11.05741
G1 X62.461 Y130.26 E11.09682
G1 X61.681 Y130.141 E11.13619
G1 X60.916 Y129.943 E11.17561
G1 X60.176 Y129.669 E11.21498
G1 X59.467 Y129.321 E11.25438
G1 X58.796 Y128.903 E11.29382
G1 X58.172 Y128.42 E11.33319
G1 X57.599 Y127.877 E11.37257
G1 X57.084 Y127.278 E11.41198
G1 X56.633 Y126.63 E11.45137
G1 X56.249 Y125.939 E11.49081
G1 X55.937 Y125.214 E11.53019
G1 X55.7 Y124.461 E11.56957
G1 X55.541 Y123.687 E11.609
G1 X55.46 Y122.902 E11.64837
G1 X55.45 Y122.5 E11.66843
G1 X55.45 Y77.5 E13.91349
G1 X55.49 Y76.711 E13.9529
G1 X55.609 Y75.931 E13.99227
G1 X55.807 Y75.166 E14.03169
G1 X56.081 Y74.426 E14.07106
G1 X56.429 Y73.717 E14.11046
G1 X56.847 Y73.046 E14.1499
G1 X57.33 Y72.422 E14.18927
G1 X57.873 Y71.849 E14.22866
G1 X58.472 Y71.334 E14.26807
G0 F3600 X58.861 Y71.542
G1 F1800 X59.503 Y71.119 E14.30642
G1 X60.186 Y70.764 E14.34483
G1 X60.901 Y70.483 E14.38315
G1 X61.643 Y70.277 E14.42157
G1 X62.401 Y70.149 E14.45992
G1 X63.25 Y70.1 E14.50235
G1 X136.75 Y70.1 E18.16928
G1 X137.518 Y70.14 E18.20765
G1 X138.278 Y70.259 E18.24603
G1 X139.021 Y70.457 E18.28439
G1 X139.74 Y70.731 E18.32278
G1 X140.426 Y71.078 E18.36113
G1 X141.073 Y71.494 E18.39951
G1 X141.673 Y71.975 E18.43787
G1 X142.22 Y72.516 E18.47625
G1 X142.708 Y73.111 E18.51465
G1 X143.131 Y73.753 E18.553
G1 X143.486 Y74.436 E18.59141
G1 X143.767 Y75.151 E18.62973
G1 X143.973 Y75.893 E18.66815
G1 X144.101 Y76.651 E18.7065
G1 X144.15 Y77.5 E18.74893
G1 X144.15 Y122.5 E20.99399
G1 X144.11 Y123.268 E21.03236
G1 X143.991 Y124.028 E21.07074
G1 X143.793 Y124.771 E21.1091
G1 X143.519 Y125.49 E21.14749
G1 X143.172 Y126.176 E21.18584
G1 X142.756 Y126.823 E21.22422
G1 X142.275 Y127.423 E21.26258
G1 X141.734 Y127.97 E21.30096
G1 X141.139 Y128.458 E21.33936
G1 X140.497 Y128.881 E21.37771
G1 X139.814 Y129.236 E21.41612
G1 X139.099 Y129.517 E21.45444
G1 X138.357 Y129.723 E21.49286
G1 X137.599 Y129.851 E21.53121
G1 X136.75 Y129.9 E21.57364
G1 X63.25 Y129.9 E25.24057
G1 X62.482 Y129.86 E25.27894
G1 X61.722 Y129.741 E25.31732
G1 X60.979 Y129.543 E25.35568
G1 X60.26 Y129.269 E25.39407
G1 X59.574 Y128.922 E25.43242
G1 X58.927 Y128.506 E25.4708
G1 X58.327 Y128.025 E25.50916
G1 X57.78 Y127.484 E25.54754
G1 X57.292 Y126.889 E25.58594
G1 X56.869 Y126.247 E25.62429
G1 X56.514 Y125.564 E25.6627
G1 X56.233 Y124.849 E25.70102
G1 X56.027 Y124.107 E25.73944
G1 X55.899 Y123.349 E25.77779
G1 X55.85 Y122.5 E25.82022
G1 X55.85 Y77.5 E28.06528
G1 X55.89 Y76.732 E28.10365
G1 X56.009 Y75.972 E28.14203
G1 X56.207 Y75.229 E28.18039
G1 X56.481 Y74.51 E28.21878
G1 X56.828 Y73.824 E28.25713
G1 X57.244 Y73.177 E28.29551
G1 X57.725 Y72.577 E28.33387
G1 X58.266 Y72.03 E28.37225
G1 X58.861 Y71.542 E28.41065
G0 F3600 X59.248 Y71.757
G1 F1800 X59.884 Y71.362 E28.448
G1 X60.558 Y71.038 E28.48531
G1 X61.263 Y70.788 E28.52263
G1 X61.991 Y70.614 E28.55997
G1 X62.733 Y70.519 E28.59729
G1 X63.25 Y70.5 E28.6231
G1 X136.75 Y70.5 E32.29003
G1 X137.497 Y70.54 E32.32735
G1 X138.235 Y70.659 E32.36465
G1 X138.957 Y70.857 E32.402
G1 X139.653 Y71.13 E32.4393
G1 X140.316 Y71.477 E32.47663
G1 X140.939 Y71.892 E32.51398
G1 X141.513 Y72.371 E32.55127
G1 X142.034 Y72.908 E32.5886
G1 X142.493 Y73.498 E32.6259
G1 X142.888 Y74.134 E32.66325
G1 X143.212 Y74.808 E32.70056
G1 X143.462 Y75.513 E32.73788
G1 X143.636 Y76.241 E32.77522
G1 X143.731 Y76.983 E32.81254
G1 X143.75 Y77.5 E32.83835
G1 X143.75 Y122.5 E35.08341
G1 X143.71 Y123.247 E35.12073
G1 X143.591 Y123.985 E35.15803
G1 X143.393 Y124.707 E35.19538
G1 X143.12 Y125.403 E35.23268
G1 X142.773 Y126.066 E35.27001
G1 X142.358 Y126.689 E35.30736
G1 X141.879 Y127.263 E35.34465
G1 X141.342 Y127.784 E35.38198
G1 X140.752 Y128.243 E35.41928
G1 X140.116 Y128.638 E35.45663
G1 X139.442 Y128.962 E35.49394
G1 X138.737 Y129.212 E35.53126
G1 X138.009 Y129.386 E35.5686
G1 X137.267 Y129.481 E35.60592
G1 X136.75 Y129.5 E35.63173
G1 X63.25 Y129.5 E39.29866
G1 X62.503 Y129.46 E39.33598
G1 X61.765 Y129.341 E39.37328
G1 X61.043 Y129.143 E39.41063
G1 X60.347 Y128.87 E39.44793
G1 X59.684 Y128.523 E39.48526
G1 X59.061 Y128.108 E39.52261
G1 X58.487 Y127.629 E39.5599
G1 X57.966 Y127.092 E39.59723
G1 X57.507 Y126.502 E39.63453
G1 X57.112 Y125.866 E39.67188
G1 X56.788 Y125.192 E39.70919
G1 X56.538 Y124.487 E39.74651
G1 X56.364 Y123.759 E39.78385
G1 X56.269 Y123.017 E39.82117
G1 X56.25 Y122.5 E39.84698
G1 X56.25 Y77.5 E42.09204
G1 X56.29 Y76.753 E42.12936
G1 X56.409 Y76.015 E42.16665
G1 X56.607 Y75.293 E42.20401
G1 X56.88 Y74.597 E42.2413
G1 X57.227 Y73.934 E42.27864
G1 X57.642 Y73.311 E42.31598
G1 X58.121 Y72.737 E42.35328
G1 X58.658 Y72.216 E42.39061
G1 X59.248 Y71.757 E42.4279
G0 F3600 X59.049 Y72.409
G1 F1800 X59.634 Y71.979 E42.46413
G1 X60.263 Y71.615 E42.50038
G1 X60.928 Y71.322 E42.53664
G1 X61.621 Y71.104 E42.57288
G1 X62.333 Y70.964 E42.60908
G1 X63.25 Y70.9 E42.65494
G1 X136.75 Y70.9 E46.32187
G1 X137.475 Y70.94 E46.3581
G1 X138.192 Y71.059 E46.39436
G1 X138.891 Y71.257 E46.43061
G1 X139.564 Y71.53 E46.46684
G1 X140.203 Y71.875 E46.50307
G1 X140.8 Y72.289 E46.53931
G1 X141.348 Y72.765 E46.57553
G1 X141.841 Y73.299 E46.61179
G1 X142.271 Y73.884 E46.64801
G1 X142.635 Y74.513 E46.68427
G1 X142.928 Y75.178 E46.72052
G1 X143.146 Y75.871 E46.75676
G1 X143.286 Y76.583 E46.79297
G1 X143.35 Y77.5 E46.83883
G1 X143.35 Y122.5 E49.08389
G1 X143.31 Y123.225 E49.12011
G1 X143.191 Y123.942 E49.15637
G1 X142.993 Y124.641 E49.19262
G1 X142.72 Y125.314 E49.22885
G1 X142.375 Y125.953 E49.26508
G1 X141.961 Y126.55 E49.30133
G1 X141.485 Y127.098 E49.33754
G1 X140.951 Y127.591 E49.3738
G1 X140.366 Y128.021 E49.41002
G1 X139.737 Y128.385 E49.44628
G1 X139.072 Y128.678 E49.48253
G1 X138.379 Y128.896 E49.51878
G1 X137.667 Y129.036 E49.55498
G1 X136.75 Y129.1 E49.60084
G1 X63.25 Y129.1 E53.26777
G1 X62.525 Y129.06 E53.30399
G1 X61.808 Y128.941 E53.34025
G1 X61.109 Y128.743 E53.3765
G1 X60.436 Y128.47 E53.41273
G1 X59.797 Y128.125 E53.44896
G1 X59.2 Y127.711 E53.48521
G1 X58.652 Y127.235 E53.52142
G1 X58.159 Y126.701 E53.55768
G1 X57.729 Y126.116 E53.5939
G1 X57.365 Y125.487 E53.63016
G1 X57.072 Y124.822 E53.66641
G1 X56.854 Y124.129 E53.70266
G1 X56.714 Y123.417 E53.73886
G1 X56.65 Y122.5 E53.78472
G1 X56.65 Y77.5 E56.02978
G1 X56.69 Y76.775 E56.06601
G1 X56.809 Y76.058 E56.10227
G1 X57.007 Y75.359 E56.13851
G1 X57.28 Y74.686 E56.17474
G1 X57.625 Y74.047 E56.21097
G1 X58.039 Y73.45 E56.24722
G1 X58.515 Y72.902 E56.28343
G1 X59.049 Y72.409 E56.31969
G0 F3600 X59.439 Y72.609
G1 F1800 X60.018 Y72.209 E56.3548
G1 X60.639 Y71.877 E56.38993
G1 X61.293 Y71.617 E56.42505
G1 X61.973 Y71.433 E56.46019
G1 X62.669 Y71.327 E56.49531
G1 X63.25 Y71.3 E56.52433
G1 X136.75 Y71.3 E60.19126
G1 X137.453 Y71.34 E60.22639
G1 X138.147 Y71.459 E60.26152
G1 X138.822 Y71.657 E60.29662
G1 X139.471 Y71.929 E60.33172
G1 X140.085 Y72.274 E60.36686
G1 X140.656 Y72.685 E60.40196
G1 X141.177 Y73.159 E60.4371
G1 X141.641 Y73.689 E60.47224
G1 X142.041 Y74.268 E60.50735
G1 X142.373 Y74.889 E60.54248
G1 X142.633 Y75.543 E60.5776
G1 X142.817 Y76.223 E60.61274
G1 X142.923 Y76.919 E60.64787
G1 X142.95 Y77.5 E60.67688
G1 X142.95 Y122.5 E62.92194
G1 X142.91 Y123.203 E62.95707
G1 X142.791 Y123.897 E62.9922
G1 X142.593 Y124.572 E63.0273
G1 X142.321 Y125.221 E63.0624
G1 X141.976 Y125.835 E63.09754
G1 X141.565 Y126.406 E63.13264
G1 X141.091 Y126.927 E63.16778
G1 X140.561 Y127.391 E63.20292
G1 X139.982 Y127.791 E63.23803
G1 X139.361 Y128.123 E63.27316
G1 X138.707 Y128.383 E63.30828
G1 X138.027 Y128.567 E63.34342
G1 X137.331 Y128.673 E63.37855
G1 X136.75 Y128.7 E63.40756
G1 X63.25 Y128.7 E67.07449
G1 X62.547 Y128.66 E67.10962
G1 X61.853 Y128.541 E67.14475
G1 X61.178 Y128.343 E67.17985
G1 X60.529 Y128.071 E67.21495
G1 X59.915 Y127.726 E67.25009
G1 X59.344 Y127.315 E67.28519
G1 X58.823 Y126.841 E67.32033
G1 X58.359 Y126.311 E67.35547
G1 X57.959 Y125.732 E67.39058
G1 X57.627 Y125.111 E67.42571
G1 X57.367 Y124.457 E67.46083
G1 X57.183 Y123.777 E67.49597
G1 X57.077 Y123.081 E67.5311
G1 X57.05 Y122.5 E67.56011
G1 X57.05 Y77.5 E69.80517
G1 X57.09 Y76.797 E69.8403
G1 X57.209 Y76.103 E69.87543
G1 X57.407 Y75.428 E69.91053
G1 X57.679 Y74.779 E69.94563
G1 X58.024 Y74.165 E69.98077
G1 X58.435 Y73.594 E70.01587
G1 X58.909 Y73.073 E70.05101
G1 X59.439 Y72.609 E70.08615
G0 F3600 X59.828 Y72.817
G1 F1800 X60.4 Y72.448 E70.12011
G1 X61.012 Y72.149 E70.1541
G1 X61.654 Y71.924 E70.18804
G1 X62.319 Y71.775 E70.22204
G1 X63.25 Y71.7 E70.26863
G1 X136.75 Y71.7 E73.93556
G1 X137.43 Y71.74 E73.96955
G1 X138.1 Y71.859 E74.0035
G1 X138.752 Y72.056 E74.03748
G1 X139.376 Y72.328 E74.07144
G1 X139.964 Y72.672 E74.10543
G1 X140.508 Y73.082 E74.13941
G1 X140.999 Y73.553 E74.17335
G1 X141.433 Y74.078 E74.20734
G1 X141.802 Y74.65 E74.2413
G1 X142.101 Y75.262 E74.27528
G1 X142.326 Y75.904 E74.30922
G1 X142.475 Y76.569 E74.34322
G1 X142.55 Y77.5 E74.38982
G1 X142.55 Y122.5 E76.63488
G1 X142.51 Y123.18 E76.66886
G1 X142.391 Y123.85 E76.70281
G1 X142.194 Y124.502 E76.73679
G1 X141.922 Y125.126 E76.77075
G1 X141.578 Y125.714 E76.80474
G1 X141.168 Y126.258 E76.83872
G1 X140.697 Y126.749 E76.87267
G1 X140.172 Y127.183 E76.90665
G1 X139.6 Y127.552 E76.94061
G1 X138.988 Y127.851 E76.97459
G1 X138.346 Y128.076 E77.00853
G1 X137.681 Y128.225 E77.04253
G1 X136.75 Y128.3 E77.08913
G1 X63.25 Y128.3 E80.75606
G1 X62.57 Y128.26 E80.79004
G1 X61.9 Y128.141 E80.82399
G1 X61.248 Y127.944 E80.85798
G1 X60.624 Y127.672 E80.89194
G1 X60.036 Y127.328 E80.92592
G1 X59.492 Y126.918 E80.95991
G1 X59.001 Y126.447 E80.99385
G1 X58.567 Y125.922 E81.02784
G1 X58.198 Y125.35 E81.0618
G1 X57.899 Y124.738 E81.09578
G1 X57.674 Y124.096 E81.12972
G1 X57.525 Y123.431 E81.16372
G1 X57.45 Y122.5 E81.21032
G1 X57.45 Y77.5 E83.45537
G1 X57.49 Y76.82 E83.48936
G1 X57.609 Y76.15 E83.52331
G1 X57.806 Y75.498 E83.55729
G1 X58.078 Y74.874 E83.59125
G1 X58.422 Y74.286 E83.62524
G1 X58.832 Y73.742 E83.65922
G1 X59.303 Y73.251 E83.69317
G1 X59.828 Y72.817 E83.72715
G0 F3600 X59.695 Y73.435
G1 F1800 X60.215 Y73.034 E83.75991
G1 X60.779 Y72.698 E83.79266
G1 X61.381 Y72.434 E83.82546
G1 X62.01 Y72.244 E83.85824
G1 X62.657 Y72.133 E83.89099
G1 X63.25 Y72.1 E83.92062
G1 X136.75 Y72.1 E87.58755
G1 X137.406 Y72.14 E87.62034
G1 X138.052 Y72.259 E87.65311
G1 X138.679 Y72.456 E87.6859
G1 X139.277 Y72.728 E87.71867
G1 X139.838 Y73.07 E87.75145
G1 X140.353 Y73.478 E87.78423
G1 X140.815 Y73.945 E87.81701
G1 X141.216 Y74.465 E87.84977
G1 X141.552 Y75.029 E87.88252
G1 X141.816 Y75.631 E87.91532
G1 X142.006 Y76.26 E87.9481
G1 X142.117 Y76.907 E87.98085
G1 X142.15 Y77.5 E88.01048
G1 X142.15 Y122.5 E90.25554
G1 X142.11 Y123.156 E90.28833
G1 X141.991 Y123.802 E90.3211
G1 X141.794 Y124.429 E90.35389
G1 X141.522 Y125.027 E90.38666
G1 X141.18 Y125.588 E90.41944
G1 X140.772 Y126.103 E90.45222
G1 X140.305 Y126.565 E90.48499
G1 X139.785 Y126.966 E90.51775
G1 X139.221 Y127.302 E90.55051
G1 X138.619 Y127.566 E90.5833
G1 X137.99 Y127.756 E90.61608
G1 X137.343 Y127.867 E90.64883
G1 X136.75 Y127.9 E90.67847
G1 X63.25 Y127.9 E94.34539
G1 X62.594 Y127.86 E94.37818
G1 X61.948 Y127.741 E94.41096
G1 X61.321 Y127.544 E94.44374
G1 X60.723 Y127.272 E94.47652
G1 X60.162 Y126.93 E94.5093
G1 X59.647 Y126.522 E94.54208
G1 X59.185 Y126.055 E94.57485
G1 X58.784 Y125.535 E94.60761
G1 X58.448 Y124.971 E94.64037
G1 X58.184 Y124.369 E94.67316
G1 X57.994 Y123.74 E94.70594
G1 X57.883 Y123.093 E94.73869
G1 X57.85 Y122.5 E94.76832
G1 X57.85 Y77.5 E97.01338
G1 X57.89 Y76.844 E97.04617
G1 X58.009 Y76.198 E97.07894
G1 X58.206 Y75.571 E97.11173
G1 X58.478 Y74.973 E97.14451
G1 X58.82 Y74.412 E97.17729
G1 X59.228 Y73.897 E97.21007
G1 X59.695 Y73.435 E97.24284
G0 F3600 X60.086 Y73.629
G1 F1800 X60.6 Y73.26 E97.27441
G1 X61.156 Y72.96 E97.30593
G1 X61.745 Y72.732 E97.33744
G1 X62.359 Y72.58 E97.36899
G1 X63.25 Y72.5 E97.41362
G1 X136.75 Y72.5 E101.08055
G1 X137.381 Y72.54 E101.1121
G1 X138.002 Y72.659 E101.14364
G1 X138.602 Y72.856 E101.17515
G1 X139.174 Y73.127 E101.20673
G1 X139.706 Y73.467 E101.23823
G1 X140.191 Y73.873 E101.26978
G1 X140.621 Y74.336 E101.30131
G1 X140.99 Y74.85 E101.33287
G1 X141.29 Y75.406 E101.36439
G1 X141.518 Y75.995 E101.3959
G1 X141.67 Y76.609 E101.42746
G1 X141.75 Y77.5 E101.47209
G1 X141.75 Y122.5 E103.71715
G1 X141.71 Y123.131 E103.74869
G1 X141.591 Y123.752 E103.78024
G1 X141.394 Y124.352 E103.81175
G1 X141.123 Y124.924 E103.84332
G1 X140.783 Y125.456 E103.87482
G1 X140.377 Y125.941 E103.90638
G1 X139.914 Y126.371 E103.9379
G1 X139.4 Y126.74 E103.96947
G1 X138.844 Y127.04 E104.00099
G1 X138.255 Y127.268 E104.0325
G1 X137.641 Y127.42 E104.06406
G1 X136.75 Y127.5 E104.10869
G1 X63.25 Y127.5 E107.77562
G1 X62.619 Y127.46 E107.80716
G1 X61.998 Y127.341 E107.83871
G1 X61.398 Y127.144 E107.87021
G1 X60.826 Y126.873 E107.90179
G1 X60.294 Y126.533 E107.93329
G1 X59.809 Y126.127 E107.96485
G1 X59.379 Y125.664 E107.99637
G1 X59.01 Y125.15 E108.02794
G1 X58.71 Y124.594 E108.05946
G1 X58.482 Y124.005 E108.09097
G1 X58.33 Y123.391 E108.12253
G1 X58.25 Y122.5 E108.16716
G1 X58.25 Y77.5 E110.41222
G1 X58.29 Y76.869 E110.44376
G1 X58.409 Y76.248 E110.47531
G1 X58.606 Y75.648 E110.50681
G1 X58.877 Y75.076 E110.53839
G1 X59.217 Y74.544 E110.56989
G1 X59.623 Y74.059 E110.60144
G1 X60.086 Y73.629 E110.63297
G0 F3600 X60.475 Y73.831
G1 F1800 X60.982 Y73.498 E110.66323
G1 X61.528 Y73.234 E110.69349
G1 X62.104 Y73.045 E110.72373
G1 X62.7 Y72.933 E110.75399
G1 X63.25 Y72.9 E110.78148
G1 X136.75 Y72.9 E114.44841
G1 X137.355 Y72.94 E114.47866
G1 X137.949 Y73.059 E114.50888
G1 X138.523 Y73.255 E114.53914
G1 X139.066 Y73.526 E114.56942
G1 X139.569 Y73.865 E114.59968
G1 X140.022 Y74.267 E114.62989
G1 X140.419 Y74.725 E114.66013
G1 X140.752 Y75.232 E114.6904
G1 X141.016 Y75.778 E114.72065
G1 X141.205 Y76.354 E114.7509
G1 X141.317 Y76.95 E114.78115
G1 X141.35 Y77.5 E114.80864
G1 X141.35 Y122.5 E117.0537
G1 X141.31 Y123.105 E117.08395
G1 X141.191 Y123.699 E117.11417
G1 X140.995 Y124.273 E117.14443
G1 X140.724 Y124.816 E117.17471
G1 X140.385 Y125.319 E117.20497
G1 X139.983 Y125.772 E117.23519
G1 X139.525 Y126.169 E117.26543
G1 X139.018 Y126.502 E117.29569
G1 X138.472 Y126.766 E117.32595
G1 X137.896 Y126.955 E117.35619
G1 X137.3 Y127.067 E117.38645
G1 X136.75 Y127.1 E117.41394
G1 X63.25 Y127.1 E121.08087
G1 X62.645 Y127.06 E121.11112
