;FLAVOR:Marlin
;TIME:4447
;Filament used: 2.73166m
;Layer height: 0.1
;Generated with Cura_SteamEngine 3.6.0
M140 S60
M105
M190 S60
M104 S200
M105
M109 S200
M82 ;absolute extrusion mode
G21 ;metric values
G90 ;absolute positioning
M82 ;set extruder to absolute mode
M107 ;start with the fan off
G28 X0 Y0 ;move X/Y to min endstops
G28 Z0 ;move Z to min endstops
G1 Z15.0 F9000 ;move the platform down 15mm
G92 E0 ;zero the extruded length
G1 F200 E3 ;extrude 3mm of feed stock
G92 E0 ;zero the extruded length again
G1 F9000
;Put printing message on LCD screen
M117 Printing...
G92 E0
G1 F1500 E-6.5
;LAYER_COUNT:27
;LAYER:0
M107
G0 F3600 X62.598 Y71.849 Z0.3
;TYPE:SKIRT
G1 F1500 E0
G1 F1800 X63.197 Y71.334 E0.03941
G1 X63.845 Y70.883 E0.0788
G1 X64.536 Y70.499 E0.11824
G1 X65.261 Y70.187 E0.15762
G1 X66.014 Y69.95 E0.197
G1 X66.788 Y69.791 E0.23642
G1 X67.573 Y69.71 E0.27579
G1 X67.975 Y69.7 E0.29586
G1 X132.025 Y69.7 E3.49132
G1 X132.814 Y69.74 E3.53074
G1 X133.594 Y69.859 E3.5701
G1 X134.359 Y70.057 E3.60953
G1 X135.099 Y70.331 E3.64889
G1 X135.808 Y70.679 E3.6883
G1 X136.479 Y71.097 E3.72774
G1 X137.103 Y71.58 E3.76711
G1 X137.676 Y72.123 E3.80649
G1 X138.191 Y72.722 E3.8459
G1 X138.642 Y73.37 E3.88529
G1 X139.026 Y74.061 E3.92473
G1 X139.338 Y74.786 E3.96411
G1 X139.575 Y75.539 E4.00349
G1 X139.734 Y76.313 E4.04291
G1 X139.815 Y77.098 E4.08228
G1 X139.825 Y77.5 E4.10235
G1 X139.825 Y122.5 E6.3474
G1 X139.785 Y123.289 E6.38682
G1 X139.666 Y124.069 E6.42618
G1 X139.468 Y124.834 E6.46561
G1 X139.194 Y125.574 E6.50497
G1 X138.846 Y126.283 E6.54438
G1 X138.428 Y126.954 E6.58382
G1 X137.945 Y127.578 E6.62319
G1 X137.402 Y128.151 E6.66257
G1 X136.803 Y128.666 E6.70198
G1 X136.155 Y129.117 E6.74137
G1 X135.464 Y129.501 E6.78081
G1 X134.739 Y129.813 E6.82019
G1 X133.986 Y130.05 E6.85957
G1 X133.212 Y130.209 E6.89899
G1 X132.427 Y130.29 E6.93836
G1 X132.025 Y130.3 E6.95843
G1 X67.975 Y130.3 E10.15389
G1 X67.186 Y130.26 E10.19331
G1 X66.406 Y130.141 E10.23267
G1 X65.641 Y129.943 E10.2721
G1 X64.901 Y129.669 E10.31146
G1 X64.192 Y129.321 E10.35087
G1 X63.521 Y128.903 E10.39031
G1 X62.897 Y128.42 E10.42968
G1 X62.324 Y127.877 E10.46906
G1 X61.809 Y127.278 E10.50847
G1 X61.358 Y126.63 E10.54786
G1 X60.974 Y125.939 E10.5873
G1 X60.662 Y125.214 E10.62668
G1 X60.425 Y124.461 E10.66606
G1 X60.266 Y123.687 E10.70548
G1 X60.185 Y122.902 E10.74485
G1 X60.175 Y122.5 E10.76492
G1 X60.175 Y77.5 E13.00997
G1 X60.215 Y76.711 E13.04939
G1 X60.334 Y75.931 E13.08875
G1 X60.532 Y75.166 E13.12818
G1 X60.806 Y74.426 E13.16755
G1 X61.154 Y73.717 E13.20695
G1 X61.572 Y73.046 E13.24639
G1 X62.055 Y72.422 E13.28576
G1 X62.598 Y71.849 E13.32514
G0 F3600 X62.991 Y72.03
G1 F1800 X63.586 Y71.542 E13.36353
G1 X64.228 Y71.119 E13.40189
G1 X64.911 Y70.764 E13.44029
G1 X65.626 Y70.483 E13.47862
G1 X66.368 Y70.277 E13.51704
G1 X67.126 Y70.149 E13.55539
G1 X67.975 Y70.1 E13.59782
G1 X132.025 Y70.1 E16.79329
G1 X132.793 Y70.14 E16.83165
G1 X133.553 Y70.259 E16.87003
G1 X134.296 Y70.457 E16.90839
G1 X135.015 Y70.731 E16.94678
G1 X135.701 Y71.078 E16.98514
G1 X136.348 Y71.494 E17.02351
G1 X136.948 Y71.975 E17.06188
G1 X137.495 Y72.516 E17.10026
G1 X137.983 Y73.111 E17.13865
G1 X138.406 Y73.753 E17.17701
G1 X138.761 Y74.436 E17.21541
G1 X139.042 Y75.151 E17.25374
G1 X139.248 Y75.893 E17.29216
G1 X139.376 Y76.651 E17.33051
G1 X139.425 Y77.5 E17.37294
G1 X139.425 Y122.5 E19.618
G1 X139.385 Y123.268 E19.65636
G1 X139.266 Y124.028 E19.69474
G1 X139.068 Y124.771 E19.7331
G1 X138.794 Y125.49 E19.77149
G1 X138.447 Y126.176 E19.80985
G1 X138.031 Y126.823 E19.84822
G1 X137.55 Y127.423 E19.88659
G1 X137.009 Y127.97 E19.92497
G1 X136.414 Y128.458 E19.96336
G1 X135.772 Y128.881 E20.00172
G1 X135.089 Y129.236 E20.04012
G1 X134.374 Y129.517 E20.07845
G1 X133.632 Y129.723 E20.11687
G1 X132.874 Y129.851 E20.15522
G1 X132.025 Y129.9 E20.19765
G1 X67.975 Y129.9 E23.39311
G1 X67.207 Y129.86 E23.43148
G1 X66.447 Y129.741 E23.46986
G1 X65.704 Y129.543 E23.50822
G1 X64.985 Y129.269 E23.54661
G1 X64.299 Y128.922 E23.58496
G1 X63.652 Y128.506 E23.62334
G1 X63.052 Y128.025 E23.6617
G1 X62.505 Y127.484 E23.70009
G1 X62.017 Y126.889 E23.73848
G1 X61.594 Y126.247 E23.77684
G1 X61.239 Y125.564 E23.81524
G1 X60.958 Y124.849 E23.85357
G1 X60.752 Y124.107 E23.89198
G1 X60.624 Y123.349 E23.93034
G1 X60.575 Y122.5 E23.97276
G1 X60.575 Y77.5 E26.21782
G1 X60.615 Y76.732 E26.25619
G1 X60.734 Y75.972 E26.29457
G1 X60.932 Y75.229 E26.33293
G1 X61.206 Y74.51 E26.37132
G1 X61.553 Y73.824 E26.40967
G1 X61.969 Y73.177 E26.44805
G1 X62.45 Y72.577 E26.48641
G1 X62.991 Y72.03 E26.5248
G0 F3600 X63.383 Y72.216
G1 F1800 X63.973 Y71.757 E26.56209
G1 X64.609 Y71.362 E26.59944
G1 X65.283 Y71.038 E26.63675
G1 X65.988 Y70.788 E26.67407
G1 X66.716 Y70.614 E26.71141
G1 X67.458 Y70.519 E26.74873
G1 X67.975 Y70.5 E26.77454
G1 X132.025 Y70.5 E29.97001
G1 X132.772 Y70.54 E30.00733
G1 X133.51 Y70.659 E30.04463
G1 X134.232 Y70.857 E30.08198
G1 X134.928 Y71.13 E30.11928
G1 X135.591 Y71.477 E30.15661
G1 X136.214 Y71.892 E30.19396
G1 X136.788 Y72.371 E30.23126
G1 X137.309 Y72.908 E30.26858
G1 X137.768 Y73.498 E30.30588
G1 X138.163 Y74.134 E30.34323
G1 X138.487 Y74.808 E30.38054
G1 X138.737 Y75.513 E30.41786
G1 X138.911 Y76.241 E30.4552
G1 X139.006 Y76.983 E30.49252
G1 X139.025 Y77.5 E30.51833
G1 X139.025 Y122.5 E32.76339
G1 X138.985 Y123.247 E32.80071
G1 X138.866 Y123.985 E32.83801
G1 X138.668 Y124.707 E32.87536
G1 X138.395 Y125.403 E32.91266
G1 X138.048 Y126.066 E32.94999
G1 X137.633 Y126.689 E32.98734
G1 X137.154 Y127.263 E33.02464
G1 X136.617 Y127.784 E33.06196
G1 X136.027 Y128.243 E33.09926
G1 X135.391 Y128.638 E33.13661
G1 X134.717 Y128.962 E33.17392
G1 X134.012 Y129.212 E33.21124
G1 X133.284 Y129.386 E33.24858
G1 X132.542 Y129.481 E33.2859
G1 X132.025 Y129.5 E33.31171
G1 X67.975 Y129.5 E36.50718
G1 X67.228 Y129.46 E36.5445
G1 X66.49 Y129.341 E36.58179
G1 X65.768 Y129.143 E36.61915
G1 X65.072 Y128.87 E36.65644
G1 X64.409 Y128.523 E36.69378
G1 X63.786 Y128.108 E36.73112
G1 X63.212 Y127.629 E36.76842
G1 X62.691 Y127.092 E36.80575
G1 X62.232 Y126.502 E36.84304
G1 X61.837 Y125.866 E36.8804
G1 X61.513 Y125.192 E36.91771
G1 X61.263 Y124.487 E36.95502
G1 X61.089 Y123.759 E36.99237
G1 X60.994 Y123.017 E37.02969
G1 X60.975 Y122.5 E37.0555
G1 X60.975 Y77.5 E39.30056
G1 X61.015 Y76.753 E39.33788
G1 X61.134 Y76.015 E39.37517
G1 X61.332 Y75.293 E39.41252
G1 X61.605 Y74.597 E39.44982
G1 X61.952 Y73.934 E39.48716
G1 X62.367 Y73.311 E39.5245
G1 X62.846 Y72.737 E39.5618
G1 X63.383 Y72.216 E39.59913
G0 F3600 X63.24 Y72.902
G1 F1800 X63.774 Y72.409 E39.63539
G1 X64.359 Y71.979 E39.67161
G1 X64.988 Y71.615 E39.70787
G1 X65.653 Y71.322 E39.74412
G1 X66.346 Y71.104 E39.78037
G1 X67.058 Y70.964 E39.81657
G1 X67.975 Y70.9 E39.86243
G1 X132.025 Y70.9 E43.0579
G1 X132.75 Y70.94 E43.09412
G1 X133.467 Y71.059 E43.13038
G1 X134.166 Y71.257 E43.16663
G1 X134.839 Y71.53 E43.20286
G1 X135.478 Y71.875 E43.23909
G1 X136.075 Y72.289 E43.27534
G1 X136.623 Y72.765 E43.31155
G1 X137.116 Y73.299 E43.34781
G1 X137.546 Y73.884 E43.38403
G1 X137.91 Y74.513 E43.42029
G1 X138.203 Y75.178 E43.45654
G1 X138.421 Y75.871 E43.49279
G1 X138.561 Y76.583 E43.52899
G1 X138.625 Y77.5 E43.57485
G1 X138.625 Y122.5 E45.81991
G1 X138.585 Y123.225 E45.85613
G1 X138.466 Y123.942 E45.89239
G1 X138.268 Y124.641 E45.92864
G1 X137.995 Y125.314 E45.96487
G1 X137.65 Y125.953 E46.0011
G1 X137.236 Y126.55 E46.03735
G1 X136.76 Y127.098 E46.07356
G1 X136.226 Y127.591 E46.10982
G1 X135.641 Y128.021 E46.14604
G1 X135.012 Y128.385 E46.1823
G1 X134.347 Y128.678 E46.21855
G1 X133.654 Y128.896 E46.2548
G1 X132.942 Y129.036 E46.291
G1 X132.025 Y129.1 E46.33686
G1 X67.975 Y129.1 E49.53233
G1 X67.25 Y129.06 E49.56855
G1 X66.533 Y128.941 E49.60481
G1 X65.834 Y128.743 E49.64106
G1 X65.161 Y128.47 E49.67729
G1 X64.522 Y128.125 E49.71352
G1 X63.925 Y127.711 E49.74977
G1 X63.377 Y127.235 E49.78598
G1 X62.884 Y126.701 E49.82224
G1 X62.454 Y126.116 E49.85846
G1 X62.09 Y125.487 E49.89472
G1 X61.797 Y124.822 E49.93097
G1 X61.579 Y124.129 E49.96722
G1 X61.439 Y123.417 E50.00342
G1 X61.375 Y122.5 E50.04928
G1 X61.375 Y77.5 E52.29434
G1 X61.415 Y76.775 E52.33056
G1 X61.534 Y76.058 E52.36683
G1 X61.732 Y75.359 E52.40307
G1 X62.005 Y74.686 E52.4393
G1 X62.35 Y74.047 E52.47553
G1 X62.764 Y73.45 E52.51178
G1 X63.24 Y72.902 E52.54799
G0 F3600 X63.634 Y73.073
G1 F1800 X64.164 Y72.609 E52.58314
G1 X64.743 Y72.209 E52.61825
G1 X65.364 Y71.877 E52.65338
G1 X66.018 Y71.617 E52.68849
G1 X66.698 Y71.433 E52.72363
G1 X67.394 Y71.327 E52.75876
G1 X67.975 Y71.3 E52.78778
G1 X132.025 Y71.3 E55.98324
G1 X132.728 Y71.34 E56.01837
G1 X133.422 Y71.459 E56.0535
G1 X134.097 Y71.657 E56.0886
G1 X134.746 Y71.929 E56.1237
G1 X135.36 Y72.274 E56.15884
G1 X135.931 Y72.685 E56.19394
G1 X136.452 Y73.159 E56.22908
G1 X136.916 Y73.689 E56.26422
G1 X137.316 Y74.268 E56.29933
G1 X137.648 Y74.889 E56.33447
G1 X137.908 Y75.543 E56.36958
G1 X138.092 Y76.223 E56.40472
G1 X138.198 Y76.919 E56.43985
G1 X138.225 Y77.5 E56.46886
G1 X138.225 Y122.5 E58.71392
G1 X138.185 Y123.203 E58.74905
G1 X138.066 Y123.897 E58.78418
G1 X137.868 Y124.572 E58.81928
G1 X137.596 Y125.221 E58.85438
G1 X137.251 Y125.835 E58.88952
G1 X136.84 Y126.406 E58.92462
G1 X136.366 Y126.927 E58.95976
G1 X135.836 Y127.391 E58.9949
G1 X135.257 Y127.791 E59.03001
G1 X134.636 Y128.123 E59.06515
G1 X133.982 Y128.383 E59.10026
G1 X133.302 Y128.567 E59.1354
G1 X132.606 Y128.673 E59.17053
G1 X132.025 Y128.7 E59.19954
G1 X67.975 Y128.7 E62.39501
G1 X67.272 Y128.66 E62.43014
G1 X66.578 Y128.541 E62.46527
G1 X65.903 Y128.343 E62.50037
G1 X65.254 Y128.071 E62.53547
G1 X64.64 Y127.726 E62.57061
G1 X64.069 Y127.315 E62.60571
G1 X63.548 Y126.841 E62.64085
G1 X63.084 Y126.311 E62.67599
G1 X62.684 Y125.732 E62.7111
G1 X62.352 Y125.111 E62.74623
G1 X62.092 Y124.457 E62.78135
G1 X61.908 Y123.777 E62.81649
G1 X61.802 Y123.081 E62.85162
G1 X61.775 Y122.5 E62.88063
G1 X61.775 Y77.5 E65.12569
G1 X61.815 Y76.797 E65.16082
G1 X61.934 Y76.103 E65.19595
G1 X62.132 Y75.428 E65.23105
G1 X62.404 Y74.779 E65.26615
G1 X62.749 Y74.165 E65.30129
G1 X63.16 Y73.594 E65.33639
G1 X63.634 Y73.073 E65.37153
G0 F3600 X64.028 Y73.251
G1 F1800 X64.553 Y72.817 E65.40551
G1 X65.125 Y72.448 E65.43947
G1 X65.737 Y72.149 E65.47346
G1 X66.379 Y71.924 E65.50739
G1 X67.044 Y71.775 E65.54139
G1 X67.975 Y71.7 E65.58799
G1 X132.025 Y71.7 E68.78346
G1 X132.705 Y71.74 E68.81744
G1 X133.375 Y71.859 E68.85139
G1 X134.027 Y72.056 E68.88537
G1 X134.651 Y72.328 E68.91933
G1 X135.239 Y72.672 E68.95332
G1 X135.783 Y73.082 E68.98731
G1 X136.274 Y73.553 E69.02125
G1 X136.708 Y74.078 E69.05523
G1 X137.077 Y74.65 E69.08919
G1 X137.376 Y75.262 E69.12318
G1 X137.601 Y75.904 E69.15712
G1 X137.75 Y76.569 E69.19112
G1 X137.825 Y77.5 E69.23771
G1 X137.825 Y122.5 E71.48277
G1 X137.785 Y123.18 E71.51676
G1 X137.666 Y123.85 E71.55071
G1 X137.469 Y124.502 E71.58469
G1 X137.197 Y125.126 E71.61865
G1 X136.853 Y125.714 E71.65264
G1 X136.443 Y126.258 E71.68662
G1 X135.972 Y126.749 E71.72057
G1 X135.447 Y127.183 E71.75455
G1 X134.875 Y127.552 E71.78851
G1 X134.263 Y127.851 E71.82249
G1 X133.621 Y128.076 E71.85643
G1 X132.956 Y128.225 E71.89043
G1 X132.025 Y128.3 E71.93703
G1 X67.975 Y128.3 E75.1325
G1 X67.295 Y128.26 E75.16648
G1 X66.625 Y128.141 E75.20043
G1 X65.973 Y127.944 E75.23441
G1 X65.349 Y127.672 E75.26837
G1 X64.761 Y127.328 E75.30236
G1 X64.217 Y126.918 E75.33634
G1 X63.726 Y126.447 E75.37029
G1 X63.292 Y125.922 E75.40427
G1 X62.923 Y125.35 E75.43823
G1 X62.624 Y124.738 E75.47221
G1 X62.399 Y124.096 E75.50615
G1 X62.25 Y123.431 E75.54015
G1 X62.175 Y122.5 E75.58675
G1 X62.175 Y77.5 E77.83181
G1 X62.215 Y76.82 E77.86579
G1 X62.334 Y76.15 E77.89974
G1 X62.531 Y75.498 E77.93372
G1 X62.803 Y74.874 E77.96768
G1 X63.147 Y74.286 E78.00167
G1 X63.557 Y73.742 E78.03566
G1 X64.028 Y73.251 E78.0696
G0 F3600 X64.42 Y73.435
G1 F1800 X64.94 Y73.034 E78.10236
G1 X65.504 Y72.698 E78.13511
G1 X66.106 Y72.434 E78.16791
G1 X66.735 Y72.244 E78.20069
G1 X67.382 Y72.133 E78.23344
G1 X67.975 Y72.1 E78.26307
G1 X132.025 Y72.1 E81.45854
G1 X132.681 Y72.14 E81.49133
G1 X133.327 Y72.259 E81.5241
G1 X133.954 Y72.456 E81.55689
G1 X134.552 Y72.728 E81.58966
G1 X135.113 Y73.07 E81.62244
G1 X135.628 Y73.478 E81.65522
G1 X136.09 Y73.945 E81.688
G1 X136.491 Y74.465 E81.72076
G1 X136.827 Y75.029 E81.75351
G1 X137.091 Y75.631 E81.7863
G1 X137.281 Y76.26 E81.81909
G1 X137.392 Y76.907 E81.85184
G1 X137.425 Y77.5 E81.88147
G1 X137.425 Y122.5 E84.12653
G1 X137.385 Y123.156 E84.15931
G1 X137.266 Y123.802 E84.19209
G1 X137.069 Y124.429 E84.22487
G1 X136.797 Y125.027 E84.25765
G1 X136.455 Y125.588 E84.29043
G1 X136.047 Y126.103 E84.32321
G1 X135.58 Y126.565 E84.35598
G1 X135.06 Y126.966 E84.38874
G1 X134.496 Y127.302 E84.4215
G1 X133.894 Y127.566 E84.45429
G1 X133.265 Y127.756 E84.48707
G1 X132.618 Y127.867 E84.51982
G1 X132.025 Y127.9 E84.54945
G1 X67.975 Y127.9 E87.74492
G1 X67.319 Y127.86 E87.77771
G1 X66.673 Y127.741 E87.81048
G1 X66.046 Y127.544 E87.84327
G1 X65.448 Y127.272 E87.87605
G1 X64.887 Y126.93 E87.90882
G1 X64.372 Y126.522 E87.9416
G1 X63.91 Y126.055 E87.97438
G1 X63.509 Y125.535 E88.00714
G1 X63.173 Y124.971 E88.03989
G1 X62.909 Y124.369 E88.07269
G1 X62.719 Y123.74 E88.10547
G1 X62.608 Y123.093 E88.13822
G1 X62.575 Y122.5 E88.16785
G1 X62.575 Y77.5 E90.41291
G1 X62.615 Y76.844 E90.4457
G1 X62.734 Y76.198 E90.47847
G1 X62.931 Y75.571 E90.51126
G1 X63.203 Y74.973 E90.54403
G1 X63.545 Y74.412 E90.57681
G1 X63.953 Y73.897 E90.60959
G1 X64.42 Y73.435 E90.64236
G0 F3600 X64.348 Y74.059
G1 F1800 X64.811 Y73.629 E90.67389
G1 X65.325 Y73.26 E90.70546
G1 X65.881 Y72.96 E90.73698
G1 X66.47 Y72.732 E90.76849
G1 X67.084 Y72.58 E90.80004
G1 X67.975 Y72.5 E90.84467
G1 X132.025 Y72.5 E94.04014
G1 X132.656 Y72.54 E94.07169
G1 X133.277 Y72.659 E94.10323
G1 X133.877 Y72.856 E94.13474
G1 X134.449 Y73.127 E94.16632
G1 X134.981 Y73.467 E94.19781
G1 X135.466 Y73.873 E94.22937
G1 X135.896 Y74.336 E94.26089
G1 X136.265 Y74.85 E94.29246
G1 X136.565 Y75.406 E94.32398
G1 X136.793 Y75.995 E94.35549
G1 X136.945 Y76.609 E94.38705
G1 X137.025 Y77.5 E94.43168
G1 X137.025 Y122.5 E96.67674
G1 X136.985 Y123.131 E96.70828
G1 X136.866 Y123.752 E96.73983
G1 X136.669 Y124.352 E96.77133
G1 X136.398 Y124.924 E96.80291
G1 X136.058 Y125.456 E96.83441
G1 X135.652 Y125.941 E96.86597
G1 X135.189 Y126.371 E96.89749
G1 X134.675 Y126.74 E96.92906
G1 X134.119 Y127.04 E96.96058
G1 X133.53 Y127.268 E96.99209
G1 X132.916 Y127.42 E97.02365
G1 X132.025 Y127.5 E97.06828
G1 X67.975 Y127.5 E100.26374
G1 X67.344 Y127.46 E100.29529
G1 X66.723 Y127.341 E100.32683
G1 X66.123 Y127.144 E100.35834
G1 X65.551 Y126.873 E100.38992
G1 X65.019 Y126.533 E100.42142
G1 X64.534 Y126.127 E100.45297
G1 X64.104 Y125.664 E100.4845
G1 X63.735 Y125.15 E100.51606
G1 X63.435 Y124.594 E100.54758
G1 X63.207 Y124.005 E100.57909
G1 X63.055 Y123.391 E100.61065
G1 X62.975 Y122.5 E100.65528
G1 X62.975 Y77.5 E102.90034
G1 X63.015 Y76.869 E102.93189
G1 X63.134 Y76.248 E102.96343
G1 X63.331 Y75.648 E102.99494
G1 X63.602 Y75.076 E103.02652
G1 X63.942 Y74.544 E103.05801
G1 X64.348 Y74.059 E103.08957
G0 F3600 X64.742 Y74.228
G1 F1800 X65.2 Y73.831 E103.11981
G1 X65.707 Y73.498 E103.15007
G1 X66.253 Y73.234 E103.18033
G1 X66.829 Y73.045 E103.21057
G1 X67.425 Y72.933 E103.24083
G1 X67.975 Y72.9 E103.26832
G1 X132.025 Y72.9 E106.46378
G1 X132.63 Y72.94 E106.49403
G1 X133.224 Y73.059 E106.52426
G1 X133.798 Y73.255 E106.55452
G1 X134.341 Y73.526 E106.58479
G1 X134.844 Y73.865 E106.61506
G1 X135.297 Y74.267 E106.64527
G1 X135.694 Y74.725 E106.67551
G1 X136.027 Y75.232 E106.70577
G1 X136.291 Y75.778 E106.73603
G1 X136.48 Y76.354 E106.76628
G1 X136.592 Y76.95 E106.79653
G1 X136.625 Y77.5 E106.82402
G1 X136.625 Y122.5 E109.06908
G1 X136.585 Y123.105 E109.09933
G1 X136.466 Y123.699 E109.12955
G1 X136.27 Y124.273 E109.15981
G1 X135.999 Y124.816 E109.19009
G1 X135.66 Y125.319 E109.22035
G1 X135.258 Y125.772 E109.25057
G1 X134.8 Y126.169 E109.28081
G1 X134.293 Y126.502 E109.31107
G1 X133.747 Y126.766 E109.34133
G1 X133.171 Y126.955 E109.37157
